%
O0000
(PROGRAM NAME - TEST1)
(DATE=DD-MM-YY - 24-06-21 TIME=HH:MM - 14:52)
(MCAM FILE - G:\P2-PRODUIRE\P2-JVMECHANICS\05-METHODES\00-ARCHIVES\03-SAINTES\2 - CAO\DAHER AEROSPACE\DT 2787\STOP_SMSC537130140A2P01 - OP10.MCAM)
(NC FILE - C:\USERS\FREDERIC.RATIER\DOCUMENTS\MY MASTERCAM 2020\MASTERCAM\LATHE\NC\TEST1.NC)
(MATERIAL - ALUMINUM MM - 2024)
G21
(TOOL - 27 OFFSET - 27)
(FRAISE DE 2)
G0 T2727
G19
M23
G0 G54 X32.452 Z2.4
C-.176
M8
G97 S2500 M51
X16.452 C-.348
G98 G1 X14.796 C-.387 F1.9
X13.44 C-.426
X12.085 C-.474
X12.095 C-2.369 F379.
Z0. F40.
Z-16.
X12.092 Z-16.108 C-2.135 F84.1
X12.088 Z-16.195 C-1.478 F236.3
X12.085 Z-16.244 C-.528 F341.6
C.528 F379.3
X12.088 Z-16.195 C1.478 F341.6
X12.092 Z-16.108 C2.135 F236.3
X12.095 Z-16. C2.369 F84.3
Z0. F40.
Z2.4
X12.085 C.474 F379.
G0 X16.085 C.356
C-.356
G1 X14.446 C-.396 F2.
X13.082 C-.438
X11.719 C-.489
X11.729 C-2.443 F390.8
Z0. F40.
Z-16.
X11.727 Z-16.108 C-2.202 F86.8
X11.722 Z-16.195 C-1.524 F243.6
X11.719 Z-16.244 C-.544 F352.3
C.544 F391.1
X11.722 Z-16.195 C1.524 F352.3
X11.727 Z-16.108 C2.202 F243.6
X11.729 Z-16. C2.444 F87.
Z0. F40.
Z2.4
X11.719 C.489 F390.8
G0 X15.719 C.365
C-.364
G1 X14.097 C-.406 F2.1
X12.725 C-.45
X11.352 C-.504
X11.363 C-2.522 F403.4
Z0. F40.
Z-16.
X11.361 Z-16.108 C-2.272 F89.6
X11.356 Z-16.195 C-1.573 F251.5
X11.353 Z-16.244 C-.562 F363.7
C.562 F403.8
X11.356 Z-16.195 C1.573 F363.6
X11.361 Z-16.108 C2.272 F251.5
X11.363 Z-16. C2.522 F89.8
Z0. F40.
Z2.4
X11.352 C.505 F403.4
G0 X15.352 C.373
C-.373
G1 X13.748 C-.417 F2.2
X12.367 C-.463
X10.986 C-.521
X10.996 C-2.606 F416.9
Z0. F40.
Z-16.
X10.995 Z-16.108 C-2.348 F92.6
X10.99 Z-16.195 C-1.625 F259.8
X10.987 Z-16.244 C-.58 F375.8
C.58 F417.2
X10.99 Z-16.195 C1.625 F375.8
X10.995 Z-16.108 C2.348 F259.8
X10.996 Z-16. C2.606 F92.8
Z0. F40.
Z2.4
X10.986 C.522 F416.9
G0 X14.985 C.383
C-.382
G1 X13.399 C-.427 F2.3
X12.009 C-.477
X10.619 C-.539
X10.63 C-2.696 F431.2
Z0. F40.
Z-16.
X10.628 Z-16.108 C-2.429 F95.7
X10.623 Z-16.195 C-1.682 F268.8
X10.619 Z-16.244 C-.6 F388.8
C.6 F431.7
X10.623 Z-16.195 C1.682 F388.8
X10.628 Z-16.108 C2.429 F268.8
X10.63 Z-16. C2.696 F95.9
Z0. F40.
Z2.4
X10.619 C.54 F431.2
G0 X14.619 C.392
C-.392
G1 X13.05 C-.439 F2.4
X11.651 C-.492
X10.252 C-.559
X10.264 C-2.792 F446.6
Z0. F40.
Z-16.
X10.262 Z-16.108 C-2.516 F99.2
X10.257 Z-16.195 C-1.742 F278.4
X10.253 Z-16.244 C-.622 F402.6
C.622 F447.1
X10.257 Z-16.195 C1.742 F402.6
X10.262 Z-16.108 C2.516 F278.4
X10.264 Z-16. C2.793 F99.4
Z0. F40.
Z2.4
X10.252 C.559 F446.6
G0 X14.252 C.402
C-.402
G1 X12.701 C-.451 F2.5
X11.227 C-.51
X9.886 C-.579
X9.898 C-2.895 F463.2
Z0. F40.
Z-16.
X9.896 Z-16.108 C-2.609 F102.9
X9.891 Z-16.195 C-1.806 F288.6
X9.887 Z-16.244 C-.645 F417.5
C.645 F463.6
X9.891 Z-16.195 C1.806 F417.5
X9.896 Z-16.108 C2.609 F288.6
X9.898 Z-16. C2.896 F103.1
Z0. F40.
Z2.4
X9.886 C.58 F463.2
G0 X13.886 C.413
C-.412
G1 X12.352 C-.464 F2.7
X10.896 C-.526
X9.519 C-.602
X9.532 C-3.007 F481.
Z0. F40.
Z-16.
X9.529 Z-16.108 C-2.71 F106.7
X9.523 Z-16.195 C-1.876 F299.8
X9.519 Z-16.244 C-.67 F433.7
C.67 F481.5
X9.523 Z-16.195 C1.876 F433.7
X9.529 Z-16.108 C2.71 F299.8
X9.532 Z-16. C3.007 F106.9
Z0. F40.
Z2.4
X9.519 C.602 F481.
G0 X13.519 C.424
C-.424
G1 X12.004 C-.477 F2.8
X10.566 C-.542
X9.859 C-.581
X9.153 C-.626
X9.166 C-3.127 F500.2
Z0. F40.
Z-16.
X9.163 Z-16.108 C-2.818 F111.
X9.157 Z-16.195 C-1.951 F311.7
X9.153 Z-16.244 C-.697 F451.
C.697 F500.8
X9.157 Z-16.195 C1.951 F451.
X9.163 Z-16.108 C2.818 F311.7
X9.166 Z-16. C3.127 F111.3
Z0. F40.
Z2.4
X9.153 C.626 F500.2
G0 X13.152 C.436
C-.435
G1 X11.656 C-.491 F3.
X10.354 C-.553
X9.053 C-.633
X9.066 C-3.161 F505.7
Z0. F40.
Z-16.
X9.063 Z-16.108 C-2.849 F112.2
X9.057 Z-16.195 C-1.972 F315.2
X9.053 Z-16.244 C-.704 F455.9
C.704 F506.3
X9.057 Z-16.195 C1.972 F455.9
X9.063 Z-16.108 C2.849 F315.2
X9.066 Z-16. C3.162 F112.5
Z0. F40.
Z2.4
X9.053 C.633 F505.7
G0 X32.452 C.177
M9
G28 U0. V0. W0. H0. M55
T2700
M30
%
