N001 G140
N002 M90
(DATE=DD-MM-YY -  01/22/2020  TIME=HH:MM -  10:52)
(MCAM FILE -  N:\MACHINES\U3000\PROGRAMMES\GODET G-0153_99-110120-02\ROB--GODET G-0153_99-110120-02.mcam)
(NC FILE -  C:\Users\u3000\Documents\My Mastercam 2020\Mastercam\Mill Turn\NC\ROB--GODET G-0153_99-110120-02.MIN)

(TOOLS USED IN STREAM  1)
(3020  | 19.88 Fraise torique  | DIA. -  19.88)
(4212  | EB. 3T DIAM. 12  | DIA. -  12)
(5  | 2 Fraise Sph?rique/Torique  | DIA. -  2)
(3310  | 10 Fraise 2 tailles droite  | DIA. -  10)

N003 G140
N004 G00 W9999. (MOVE SUB SPINDLE HOME)
N005 M216
N006 G20 HP=1
N007 G50 S3000 (MAX SPINDLE SPEED FOR MAIN SPINDLE)
N008 G141
N009 G50 S3000 (MAX SPINDLE SPEED FOR SUB SPINDLE)
N010 G140
N011 CASCME GODET-G-0153   (CHARGEMENT ENVIRONEMENT)
N012 VSZOC = 88.043  (ORIGINE C BROCHE GAUCHE)
N013 VSZOZ = 320.7  (ORIGINE Z BROCHE GAUCHE)
N014 G141
N015 VSZOC = 221.18  (ORIGINE C BROCHE DROITE)
N016 VSZOZ = 292.3  (ORIGINE Z BROCHE DROITE)

G140
VSZOW=0  (ORIGINE W)

(CALCUL POUR FORCER PARAMETRES MACHINE SYCHRO SELON C0)
RC1=VSZOC*1000
G141
RC2=VSZOC*1000
G140
CD12=RC1+RC2
IF[CD12 GE [360000]]NCAL2
VSYOF=360000-CD12

GOTO NCONT
NCAL2
VSYOF=720000-CD12

NCONT
M01




N017 M244 (CONVOYEUR ON)

N018 G140
(Operation # 2)
(3020  | 19.88 Fraise torique  | DIA. -  19.88)
N019 M110
N020 MT=302001
N021 G20HP=1.
N022 TD=013020 M323 (B0.)
N023 MT=421201
N024 SB=8000 M13 M242
N025 M146
N026 G20 HP=4 (SAFE MOVE -- NOT SIMULATED)
N027 G00 C0. M15
N028 M147
N029 G138
N030 M51
N031 G94 G17 Z50.
N032 X-28.772 Y-73.268
N033 Z16.6
N034 G01 Z14.1 F5000.
N035 Y63.328
N036 G02 X-21.579 Y70.521 L7.193
N037 X-14.386 Y63.328 L7.193
N038 G01 Y-63.328
N039 G03 X-7.193 Y-70.521 L7.193
N040 X0. Y-63.328 L7.193
N041 G01 Y63.328
N042 G02 X7.193 Y70.521 L7.193
N043 X14.386 Y63.328 L7.193
N044 G01 Y-63.328
N045 G03 X21.579 Y-70.521 L7.193
N046 X28.772 Y-63.328 L7.193
N047 G01 Y73.268
N048 G00 Z50.
N049 G136
N050 M146
N051 G20HP=1.

(Operation # 3)
N052 G20HP=1.
N053 ()
N054 BA=0
N055 SB=8000 M13 M242
N056 G138
N057 G149
N058 M625
N059 G00 B10.
N060 X52.321 Y47.964 Z49.101
N061 G94
N062 M867
N063 G255 X52.321 Y47.964 Z49.101 B10. C0. TDS=1
N064 G17
N065 X45.375 Z9.709
N066 X43.986 Z1.831
N067 G01 X43.639 Z-.139
N068 X42.493 Y47.849 Z.063
N069 X41.391 Y47.51 Z.257
N070 X40.376 Y46.959 Z.436
N071 X39.486 Y46.217 Z.593
N072 X38.755 Y45.313 Z.722
N073 X38.212 Y44.282 Z.818
N074 X37.878 Y43.164 Z.877
N075 X37.765 Y42. Z.897
N076 Y41.9
N077 X37.762 Y-42.285 C358.884 M16
N078 X37.721 Y-43.136 C355.564
N079 X37.632 Y-43.978 C352.277
N080 X37.495 Y-44.81 C349.015
N081 X37.311 Y-45.63 C345.766
N082 X37.082 Y-46.437 C342.519
N083 X36.806 Y-47.232 C339.265
N084 X36.485 Y-48.013 C335.991
N085 X36.117 Y-48.778 C332.688
N086 X35.817 Y-49.332 C330.232
N087 X35.339 Y-50.11 C326.667
N088 X34.852 Y-50.805 C323.37
N089 X34.33 Y-51.467 C320.1
N090 X33.772 Y-52.096 C316.848
N091 X33.181 Y-52.693 C313.602
N092 X32.556 Y-53.255 C310.351
N093 X31.898 Y-53.782 C307.085
N094 X31.208 Y-54.273 C303.793
N095 X30.434 Y-54.758 C300.232
N096 X29.631 Y-55.192 C296.667
N097 X28.862 Y-55.551 C293.37
N098 X28.078 Y-55.864 C290.1
N099 X27.281 Y-56.13 C286.848
N100 X26.471 Y-56.351 C283.602
N101 X25.648 Y-56.525 C280.351
N102 X24.815 Y-56.653 C277.085
N103 X23.972 Y-56.733 C273.793
N104 X23.119 Y-56.765 C270.464
N105 X-23.285 Y-56.762 C268.884
N106 X-24.136 Y-56.721 C265.564
N107 X-24.978 Y-56.632 C262.277
N108 X-25.81 Y-56.495 C259.015
N109 X-26.63 Y-56.311 C255.766
N110 X-27.437 Y-56.082 C252.519
N111 X-28.232 Y-55.806 C249.265
N112 X-29.013 Y-55.485 C245.991
N113 X-29.778 Y-55.117 C242.688
N114 X-30.332 Y-54.817 C240.232
N115 X-31.11 Y-54.339 C236.667
N116 X-31.805 Y-53.852 C233.37
N117 X-32.467 Y-53.33 C230.1
N118 X-33.096 Y-52.772 C226.848
N119 X-33.693 Y-52.181 C223.602
N120 X-34.255 Y-51.556 C220.351
N121 X-34.782 Y-50.898 C217.085
N122 X-35.273 Y-50.208 C213.793
N123 X-35.758 Y-49.434 C210.232
N124 X-36.192 Y-48.631 C206.667
N125 X-36.551 Y-47.862 C203.37
N126 X-36.864 Y-47.078 C200.1
N127 X-37.13 Y-46.281 C196.848
N128 X-37.351 Y-45.471 C193.602
N129 X-37.525 Y-44.648 C190.351
N130 X-37.653 Y-43.815 C187.085
N131 X-37.733 Y-42.972 C183.793
N132 X-37.765 Y-42.119 C180.464
N133 X-37.762 Y42.285 C178.884
N134 X-37.721 Y43.136 C175.564
N135 X-37.632 Y43.978 C172.277
N136 X-37.495 Y44.81 C169.015
N137 X-37.311 Y45.63 C165.766
N138 X-37.082 Y46.437 C162.519
N139 X-36.806 Y47.232 C159.265
N140 X-36.485 Y48.013 C155.991
N141 X-36.117 Y48.778 C152.688
N142 X-35.817 Y49.332 C150.232
N143 X-35.339 Y50.11 C146.667
N144 X-34.852 Y50.805 C143.37
N145 X-34.33 Y51.467 C140.1
N146 X-33.772 Y52.096 C136.848
N147 X-33.181 Y52.693 C133.602
N148 X-32.556 Y53.255 C130.351
N149 X-31.898 Y53.782 C127.085
N150 X-31.208 Y54.273 C123.793
N151 X-30.434 Y54.758 C120.232
N152 X-29.631 Y55.192 C116.667
N153 X-28.862 Y55.551 C113.37
N154 X-28.078 Y55.864 C110.1
N155 X-27.281 Y56.13 C106.848
N156 X-26.471 Y56.351 C103.602
N157 X-25.648 Y56.525 C100.351
N158 X-24.815 Y56.653 C97.085
N159 X-23.972 Y56.733 C93.793
N160 X-23.119 Y56.765 C90.464
N161 X23.285 Y56.762 C88.884
N162 X24.136 Y56.721 C85.564
N163 X24.978 Y56.632 C82.277
N164 X25.81 Y56.495 C79.015
N165 X26.63 Y56.311 C75.766
N166 X27.437 Y56.082 C72.519
N167 X28.232 Y55.806 C69.265
N168 X29.013 Y55.485 C65.991
N169 X29.778 Y55.117 C62.688
N170 X30.332 Y54.817 C60.232
N171 X31.11 Y54.339 C56.667
N172 X31.805 Y53.852 C53.37
N173 X32.467 Y53.33 C50.1
N174 X33.096 Y52.772 C46.848
N175 X33.693 Y52.181 C43.602
N176 X34.255 Y51.556 C40.351
N177 X34.782 Y50.898 C37.085
N178 X35.273 Y50.208 C33.793
N179 X35.758 Y49.434 C30.232
N180 X36.192 Y48.631 C26.667
N181 X36.551 Y47.862 C23.37
N182 X36.864 Y47.078 C20.1
N183 X37.13 Y46.281 C16.848
N184 X37.351 Y45.471 C13.602
N185 X37.525 Y44.648 C10.351
N186 X37.653 Y43.815 C7.085
N187 X37.733 Y42.972 C3.793
N188 X37.765 Y42. C0.
N189 X37.918 Y41.235 Z.87
N190 X38.348 Y40.588 Z.794
N191 X38.988 Y40.157 Z.681
N192 X39.743 Y40.008 Z.548
N193 G00 X48.425 Z49.788
N194 G254 X48.425 Y40.008 Z49.788 B10. C0.
N195 M866
N196 G00 X9999.
N197 G00 B0.
(N198 G136) (plutot pour changement de broche)
(N199 G20HP=1.)

(Operation # 4)
N200 SB=8000 M242
N201 G00 B45. C180. M16
N202 X-9.256 Y-47.964 Z56.996
N203 G94
N204 M867
N205 G255 X9.256 Y47.964 Z56.996 B45. C180. TDS=1
N206 X37.541 Z28.712
N207 X43.197 Z23.055
N208 G01 X44.612 Z21.641
N209 X43.789 Y47.849 Z20.818
N210 X42.998 Y47.51 Z20.027
N211 X42.269 Y46.959 Z19.298
N212 X41.63 Y46.217 Z18.659
N213 X41.105 Y45.313 Z18.134
N214 X40.715 Y44.282 Z17.744
N215 X40.476 Y43.164 Z17.504
N216 X40.394 Y42. Z17.423
N217 Y41.9
N218 Y-42.
N219 X40.365 Y-43.003 C176.675
N220 X40.279 Y-43.995 C173.387
N221 X40.137 Y-44.976 C170.126
N222 X39.94 Y-45.945 C166.883
N223 X39.689 Y-46.9 C163.645
N224 X39.384 Y-47.839 C160.403
N225 X39.025 Y-48.763 C157.146
N226 X38.612 Y-49.669 C153.862
N227 X38.064 Y-50.697 C150.
N228 X37.537 Y-51.551 C146.675
N229 X36.966 Y-52.367 C143.387
N230 X36.353 Y-53.146 C140.126
N231 X35.698 Y-53.886 C136.883
N232 X35.003 Y-54.588 C133.645
N233 X34.269 Y-55.249 C130.403
N234 X33.497 Y-55.869 C127.146
N235 X32.686 Y-56.448 C123.862
N236 X31.697 Y-57.064 C120.
N237 X30.814 Y-57.54 C116.675
N238 X29.912 Y-57.962 C113.387
N239 X28.991 Y-58.329 C110.126
N240 X28.054 Y-58.643 C106.883
N241 X27.101 Y-58.903 C103.645
N242 X26.135 Y-59.109 C100.403
N243 X25.156 Y-59.26 C97.146
N244 X24.165 Y-59.355 C93.862
N245 X23. Y-59.394 C90.
N246 X-23.
N247 X-24.003 Y-59.365 C86.675
N248 X-24.995 Y-59.279 C83.387
N249 X-25.976 Y-59.137 C80.126
N250 X-26.945 Y-58.94 C76.883
N251 X-27.9 Y-58.689 C73.645
N252 X-28.839 Y-58.384 C70.403
N253 X-29.763 Y-58.025 C67.146
N254 X-30.669 Y-57.612 C63.862
N255 X-31.697 Y-57.064 C60.
N256 X-32.551 Y-56.537 C56.675
N257 X-33.367 Y-55.966 C53.387
N258 X-34.146 Y-55.353 C50.126
N259 X-34.886 Y-54.698 C46.883
N260 X-35.588 Y-54.003 C43.645
N261 X-36.249 Y-53.269 C40.403
N262 X-36.869 Y-52.497 C37.146
N263 X-37.448 Y-51.686 C33.862
N264 X-38.064 Y-50.697 C30.
N265 X-38.54 Y-49.814 C26.675
N266 X-38.962 Y-48.912 C23.387
N267 X-39.329 Y-47.991 C20.126
N268 X-39.643 Y-47.054 C16.883
N269 X-39.903 Y-46.101 C13.645
N270 X-40.109 Y-45.135 C10.403
N271 X-40.26 Y-44.156 C7.146
N272 X-40.355 Y-43.165 C3.862
N273 X-40.394 Y-42. C0.
N274 Y42.
N275 X-40.365 Y43.003 C356.675
N276 X-40.279 Y43.995 C353.387
N277 X-40.137 Y44.976 C350.126
N278 X-39.94 Y45.945 C346.883
N279 X-39.689 Y46.9 C343.645
N280 X-39.384 Y47.839 C340.403
N281 X-39.025 Y48.763 C337.146
N282 X-38.612 Y49.669 C333.862
N283 X-38.064 Y50.697 C330.
N284 X-37.537 Y51.551 C326.675
N285 X-36.966 Y52.367 C323.387
N286 X-36.353 Y53.146 C320.126
N287 X-35.698 Y53.886 C316.883
N288 X-35.003 Y54.588 C313.645
N289 X-34.269 Y55.249 C310.403
N290 X-33.497 Y55.869 C307.146
N291 X-32.686 Y56.448 C303.862
N292 X-31.697 Y57.064 C300.
N293 X-30.814 Y57.54 C296.675
N294 X-29.912 Y57.962 C293.387
N295 X-28.991 Y58.329 C290.126
N296 X-28.054 Y58.643 C286.883
N297 X-27.101 Y58.903 C283.645
N298 X-26.135 Y59.109 C280.403
N299 X-25.156 Y59.26 C277.146
N300 X-24.165 Y59.355 C273.862
N301 X-23. Y59.394 C270.
N302 X23.
N303 X24.003 Y59.365 C266.675
N304 X24.995 Y59.279 C263.387
N305 X25.976 Y59.137 C260.126
N306 X26.945 Y58.94 C256.883
N307 X27.9 Y58.689 C253.645
N308 X28.839 Y58.384 C250.403
N309 X29.763 Y58.025 C247.146
N310 X30.669 Y57.612 C243.862
N311 X31.697 Y57.064 C240.
N312 X32.551 Y56.537 C236.675
N313 X33.367 Y55.966 C233.387
N314 X34.146 Y55.353 C230.126
N315 X34.886 Y54.698 C226.883
N316 X35.588 Y54.003 C223.645
N317 X36.249 Y53.269 C220.403
N318 X36.869 Y52.497 C217.146
N319 X37.448 Y51.686 C213.862
N320 X38.064 Y50.697 C210.
N321 X38.54 Y49.814 C206.675
N322 X38.962 Y48.912 C203.387
N323 X39.329 Y47.991 C200.126
N324 X39.643 Y47.054 C196.883
N325 X39.903 Y46.101 C193.645
N326 X40.109 Y45.135 C190.403
N327 X40.26 Y44.156 C187.146
N328 X40.355 Y43.165 C183.862
N329 X40.394 Y42. C180.
N330 X40.504 Y41.235 Z17.533
N331 X40.812 Y40.588 Z17.841
N332 X41.272 Y40.156 Z18.301
N333 X41.813 Y40.007 Z18.842
N334 G00 X6.458 Z54.198
N335 G254 X-6.458 Y-40.007 Z54.198 B45. C180.
N336 M866
N337 G00 X9999.
N338 G00 B0.
N339 M12
N340 G148
N341 M404
N342 M50
N343 G20HP=1.
G136 (pour pouvoir selectionner autre broche tour)
N344 M109
N345 M01







N346 (TRANSFERT VERS DROITE)
(TRANSFERT CHARGE A DROITE W-9.5)
G140



G20 HP=1
T1000
G50 S500
G141
G50 S500
G140
M247 ( ANNUL SECU MORS D )
M249 ( OUVERTURE MORS D )
M89 M289 ( SOUFFLAGE G+D )
M151 ( SYNCHRO BROCHE )
M3 M41 S10
G00 W542.27 (GARDE W20)
M88 M288 ( SOUFFLAGE OFF )
G29 PW=50  ( CHARGE MAXI )
G94 G22 W512.77 D5 L2 F500 PW=20 (CYCLE DE TRANFERT D5 RALENTISSEMENT L2 PLAGE PW=25 CHARGE A TROUVER )
G29 PW=5 ( RELACHEMENT A 5% DE CHARGE )
M248 ( FERMETURE MORS DROIT )
M246 ( SECU MORS DROIT ON )
G28 ( ANNULATION CYCLE G29 )

G4F1
M185 ( SECU MORS GAUCHE )
M84 ( OUVERTURE MORS GAUCHE )
G04 F1
G94 G00 W3000 (G95 SI TOUR)
M05 ( ARRET ROTATION )
M150 ( ARRET SYNCHRO )
M184 ( SECU MORS OUVERT OFF )














N347 G141
(Operation # 6)
(3020  | 19.88 Fraise torique  | DIA. -  19.88)
N348 M110
N349 G20HP=1.
N350 TD=073020 M323 (B0.)
N351 SB=10000 M13 M242
N352 M146
N353 G20 HP=4 (SAFE MOVE -- NOT SIMULATED)
N354 G00 C0. M16
N355 M147
N356 G138
N357 M51
N358 G94 G17 Z50.
N359 X41.39 Y57.83
N360 Z2.
N361 G01 Z-33.667 F5000.
N362 G41 Y37.95
N363 Y-37.95
N364 G02 X19.45 Y-59.89 L21.94
N365 G01 X-19.45
N366 G02 X-41.39 Y-37.95 L21.94
N367 G01 Y37.95
N368 G02 X-19.45 Y59.89 L21.94
N369 G01 X19.45
N370 G02 X41.39 Y37.95 L21.94
N371 G01 Y37.45
N372 G03 X45.366 Y33.474 L3.976
N373 G01 G40 X47.354
N374 X41.39 Y57.83
N375 Z-67.333
N376 G41 Y37.95
N377 Y-37.95
N378 G02 X19.45 Y-59.89 L21.94
N379 G01 X-19.45
N380 G02 X-41.39 Y-37.95 L21.94
N381 G01 Y37.95
N382 G02 X-19.45 Y59.89 L21.94
N383 G01 X19.45
N384 G02 X41.39 Y37.95 L21.94
N385 G01 Y37.45
N386 G03 X45.366 Y33.474 L3.976
N387 G01 G40 X47.354
N388 X41.39 Y57.83
N389 Z-101.
N390 G41 Y37.95
N391 Y-37.95
N392 G02 X19.45 Y-59.89 L21.94
N393 G01 X-19.45
N394 G02 X-41.39 Y-37.95 L21.94
N395 G01 Y37.95
N396 G02 X-19.45 Y59.89 L21.94
N397 G01 X19.45
N398 G02 X41.39 Y37.95 L21.94
N399 G01 Y37.45
N400 G03 X45.366 Y33.474 L3.976
N401 G01 G40 X47.354
N402 G00 Z50.

(Operation # 7)
N403 SB=2200 M242
N404 X0. Y0.
N405 M146
N406 G183 X0. Y0. Z-89.5 C0. K48. D5. L5. F2000.
N407 G180

(Operation # 8)
N408 SB=8000 M242
N409 M147
N410 G00 X1.175 Y9.105 Z50.
N411 Z2.
N412 G01 Z.5 F5000.
N413 X.589 Y9.163 Z.417 F8000.
N414 X0. Y9.182 Z.333
N415 X-.941 Y9.133 Z.2
N416 X-1.871 Y8.985 Z.067
N417 X-2.781 Y8.742 Z-.067
N418 X-3.661 Y8.404 Z-.2
N419 X-4.5 Y7.976 Z-.333
N420 X-5.29 Y7.463 Z-.467
N421 X-6.022 Y6.87 Z-.6
N422 X-6.688 Y6.204 Z-.733
N423 X-7.281 Y5.472 Z-.867
N424 X-7.794 Y4.682 Z-1.
N425 X-8.222 Y3.843 Z-1.133
N426 X-8.559 Y2.963 Z-1.267
N427 X-8.803 Y2.053 Z-1.4
N428 X-8.951 Y1.123 Z-1.533
N429 X-9. Y.182 Z-1.667
N430 X-8.951 Y-.759 Z-1.8
N431 X-8.803 Y-1.689 Z-1.933
N432 X-8.559 Y-2.599 Z-2.067
N433 X-8.222 Y-3.479 Z-2.2
N434 X-7.794 Y-4.318 Z-2.333
N435 X-7.281 Y-5.108 Z-2.467
N436 X-6.688 Y-5.84 Z-2.6
N437 X-6.022 Y-6.506 Z-2.733
N438 X-5.29 Y-7.099 Z-2.867
N439 X-4.5 Y-7.612 Z-3.
N440 X-3.661 Y-8.04 Z-3.133
N441 X-2.781 Y-8.377 Z-3.267
N442 X-1.871 Y-8.621 Z-3.4
N443 X-.941 Y-8.769 Z-3.533
N444 X0. Y-8.818 Z-3.667
N445 X.941 Y-8.769 Z-3.8
N446 X1.871 Y-8.621 Z-3.933
N447 X2.781 Y-8.377 Z-4.067
N448 X3.661 Y-8.04 Z-4.2
N449 X4.5 Y-7.612 Z-4.333
N450 X5.29 Y-7.099 Z-4.467
N451 X6.022 Y-6.506 Z-4.6
N452 X6.688 Y-5.84 Z-4.733
N453 X7.281 Y-5.108 Z-4.867
N454 X7.794 Y-4.318 Z-5.
N455 X8.222 Y-3.479 Z-5.133
N456 X8.56 Y-2.599 Z-5.267
N457 X8.803 Y-1.689 Z-5.4
N458 X8.951 Y-.759 Z-5.533
N459 X9. Y.182 Z-5.667
N460 X8.951 Y1.123 Z-5.8
N461 X8.803 Y2.053 Z-5.933
N462 X8.56 Y2.963 Z-6.067
N463 X8.222 Y3.843 Z-6.2
N464 X7.794 Y4.682 Z-6.333
N465 X7.281 Y5.472 Z-6.467
N466 X6.688 Y6.204 Z-6.6
N467 X6.022 Y6.87 Z-6.733
N468 X5.29 Y7.463 Z-6.867
N469 X4.5 Y7.976 Z-7.
N470 X3.661 Y8.404 Z-7.133
N471 X2.781 Y8.742 Z-7.267
N472 X1.871 Y8.985 Z-7.4
N473 X.941 Y9.133 Z-7.533
N474 X0. Y9.182 Z-7.667
N475 X-.941 Y9.133 Z-7.8
N476 X-1.871 Y8.985 Z-7.933
N477 X-2.781 Y8.742 Z-8.067
N478 X-3.661 Y8.404 Z-8.2
N479 X-4.5 Y7.976 Z-8.333
N480 X-5.29 Y7.463 Z-8.467
N481 X-6.022 Y6.87 Z-8.6
N482 X-6.688 Y6.204 Z-8.733
N483 X-7.281 Y5.472 Z-8.867
N484 X-7.794 Y4.682 Z-9.
N485 X-8.222 Y3.843 Z-9.133
N486 X-8.559 Y2.963 Z-9.267
N487 X-8.803 Y2.053 Z-9.4
N488 X-8.951 Y1.123 Z-9.533
N489 X-9. Y.182 Z-9.667
N490 X-8.951 Y-.759 Z-9.8
N491 X-8.803 Y-1.689 Z-9.933
N492 X-8.559 Y-2.599 Z-10.067
N493 X-8.222 Y-3.479 Z-10.2
N494 X-7.794 Y-4.318 Z-10.333
N495 X-7.281 Y-5.108 Z-10.467
N496 X-6.688 Y-5.84 Z-10.6
N497 X-6.022 Y-6.506 Z-10.733
N498 X-5.29 Y-7.099 Z-10.867
N499 X-4.5 Y-7.612 Z-11.
N500 X-3.661 Y-8.04 Z-11.133
N501 X-2.781 Y-8.377 Z-11.267
N502 X-1.871 Y-8.621 Z-11.4
N503 X-.941 Y-8.769 Z-11.533
N504 X0. Y-8.818 Z-11.667
N505 X.941 Y-8.769 Z-11.8
N506 X1.871 Y-8.621 Z-11.933
N507 X2.781 Y-8.377 Z-12.067
N508 X3.661 Y-8.04 Z-12.2
N509 X4.5 Y-7.612 Z-12.333
N510 X5.29 Y-7.099 Z-12.467
N511 X6.022 Y-6.506 Z-12.6
N512 X6.688 Y-5.84 Z-12.733
N513 X7.281 Y-5.108 Z-12.867
N514 X7.794 Y-4.318 Z-13.
N515 X8.222 Y-3.479 Z-13.133
N516 X8.56 Y-2.599 Z-13.267
N517 X8.803 Y-1.689 Z-13.4
N518 X8.951 Y-.759 Z-13.533
N519 X9. Y.182 Z-13.667
N520 X8.951 Y1.123 Z-13.8
N521 X8.803 Y2.053 Z-13.933
N522 X8.56 Y2.963 Z-14.067
N523 X8.222 Y3.843 Z-14.2
N524 X7.794 Y4.682 Z-14.333
N525 X7.281 Y5.472 Z-14.467
N526 X6.688 Y6.204 Z-14.6
N527 X6.022 Y6.87 Z-14.733
N528 X5.29 Y7.463 Z-14.867
N529 X4.5 Y7.976 Z-15.
N530 X3.661 Y8.404 Z-15.133
N531 X2.781 Y8.742 Z-15.267
N532 X1.871 Y8.985 Z-15.4
N533 X.941 Y9.133 Z-15.533
N534 X0. Y9.182 Z-15.667
N535 X-.941 Y9.133 Z-15.8
N536 X-1.871 Y8.985 Z-15.933
N537 X-2.781 Y8.742 Z-16.067
N538 X-3.661 Y8.404 Z-16.2
N539 X-4.5 Y7.976 Z-16.333
N540 X-5.29 Y7.463 Z-16.467
N541 X-6.022 Y6.87 Z-16.6
N542 X-6.688 Y6.204 Z-16.733
N543 X-7.281 Y5.472 Z-16.867
N544 X-7.794 Y4.682 Z-17.
N545 X-8.222 Y3.843 Z-17.133
N546 X-8.559 Y2.963 Z-17.267
N547 X-8.803 Y2.053 Z-17.4
N548 X-8.951 Y1.123 Z-17.533
N549 X-9. Y.182 Z-17.667
N550 X-8.951 Y-.759 Z-17.8
N551 X-8.803 Y-1.689 Z-17.933
N552 X-8.559 Y-2.599 Z-18.067
N553 X-8.222 Y-3.479 Z-18.2
N554 X-7.794 Y-4.318 Z-18.333
N555 X-7.281 Y-5.108 Z-18.467
N556 X-6.688 Y-5.84 Z-18.6
N557 X-6.022 Y-6.506 Z-18.733
N558 X-5.29 Y-7.099 Z-18.867
N559 X-4.5 Y-7.612 Z-19.
N560 X-3.661 Y-8.04 Z-19.133
N561 X-2.781 Y-8.377 Z-19.267
N562 X-1.871 Y-8.621 Z-19.4
N563 X-.941 Y-8.769 Z-19.533
N564 X0. Y-8.818 Z-19.667
N565 X.941 Y-8.769 Z-19.8
N566 X1.871 Y-8.621 Z-19.933
N567 X2.781 Y-8.377 Z-20.067
N568 X3.661 Y-8.04 Z-20.2
N569 X4.5 Y-7.612 Z-20.333
N570 X5.29 Y-7.099 Z-20.467
N571 X6.022 Y-6.506 Z-20.6
N572 X6.688 Y-5.84 Z-20.733
N573 X7.281 Y-5.108 Z-20.867
N574 X7.794 Y-4.318 Z-21.
N575 X8.222 Y-3.479 Z-21.133
N576 X8.56 Y-2.599 Z-21.267
N577 X8.803 Y-1.689 Z-21.4
N578 X8.951 Y-.759 Z-21.533
N579 X9. Y.182 Z-21.667
N580 X8.951 Y1.123 Z-21.8
N581 X8.803 Y2.053 Z-21.933
N582 X8.56 Y2.963 Z-22.067
N583 X8.222 Y3.843 Z-22.2
N584 X7.794 Y4.682 Z-22.333
N585 X7.281 Y5.472 Z-22.467
N586 X6.688 Y6.204 Z-22.6
N587 X6.022 Y6.87 Z-22.733
N588 X5.29 Y7.463 Z-22.867
N589 X4.5 Y7.976 Z-23.
N590 X3.661 Y8.404 Z-23.133
N591 X2.781 Y8.742 Z-23.267
N592 X1.871 Y8.985 Z-23.4
N593 X.941 Y9.133 Z-23.533
N594 X0. Y9.182 Z-23.667
N595 X-.941 Y9.133 Z-23.8
N596 X-1.871 Y8.985 Z-23.933
N597 X-2.781 Y8.742 Z-24.067
N598 X-3.661 Y8.404 Z-24.2
N599 X-4.5 Y7.976 Z-24.333
N600 X-5.29 Y7.463 Z-24.467
N601 X-6.022 Y6.87 Z-24.6
N602 X-6.688 Y6.204 Z-24.733
N603 X-7.281 Y5.472 Z-24.867
N604 X-7.794 Y4.682 Z-25.
N605 X-8.222 Y3.843 Z-25.133
N606 X-8.559 Y2.963 Z-25.267
N607 X-8.803 Y2.053 Z-25.4
N608 X-8.951 Y1.123 Z-25.533
N609 X-9. Y.182 Z-25.667
N610 X-8.951 Y-.759 Z-25.8
N611 X-8.803 Y-1.689 Z-25.933
N612 X-8.559 Y-2.599 Z-26.067
N613 X-8.222 Y-3.479 Z-26.2
N614 X-7.794 Y-4.318 Z-26.333
N615 X-7.281 Y-5.108 Z-26.467
N616 X-6.688 Y-5.84 Z-26.6
N617 X-6.022 Y-6.506 Z-26.733
N618 X-5.29 Y-7.099 Z-26.867
N619 X-4.5 Y-7.612 Z-27.
N620 X-3.661 Y-8.04 Z-27.133
N621 X-2.781 Y-8.377 Z-27.267
N622 X-1.871 Y-8.621 Z-27.4
N623 X-.941 Y-8.769 Z-27.533
N624 X0. Y-8.818 Z-27.667
N625 X.941 Y-8.769 Z-27.8
N626 X1.871 Y-8.621 Z-27.933
N627 X2.781 Y-8.377 Z-28.067
N628 X3.661 Y-8.04 Z-28.2
N629 X4.5 Y-7.612 Z-28.333
N630 X5.29 Y-7.099 Z-28.467
N631 X6.022 Y-6.506 Z-28.6
N632 X6.688 Y-5.84 Z-28.733
N633 X7.281 Y-5.108 Z-28.867
N634 X7.794 Y-4.318 Z-29.
N635 X8.222 Y-3.479 Z-29.133
N636 X8.56 Y-2.599 Z-29.267
N637 X8.803 Y-1.689 Z-29.4
N638 X8.951 Y-.759 Z-29.533
N639 X9. Y.182 Z-29.667
N640 G03 X0. Y9.182 L9.
N641 X-9. Y.182 L9.
N642 X0. Y-8.818 L9.
N643 X9. Y.182 L9.
N644 G01 X8.956 Y1.073 Z-29.522
N645 X8.824 Y1.955 Z-29.378
N646 X8.605 Y2.819 Z-29.234
N647 X8.302 Y3.658 Z-29.09
N648 X7.917 Y4.463 Z-28.945
N649 X7.454 Y5.225 Z-28.801
N650 X6.919 Y5.938 Z-28.657
N651 G03 X5.39 Y6.655 L1.988
N652 X3.402 Y4.667 L1.988
N653 X3.862 Y3.395 L1.988
N654 X5.39 Y2.679 L1.988 F5000.
N655 X6.662 Y3.138 L1.988
N656 X7.378 Y4.667 L1.988
N657 X6.919 Y5.938 L1.988
N658 G01 X6.315 Y6.595 Z-28.801
N659 X5.649 Y7.188 Z-28.945
N660 X4.928 Y7.713 Z-29.09
N661 X4.159 Y8.164 Z-29.234
N662 X3.348 Y8.536 Z-29.378
N663 X2.505 Y8.826 Z-29.522
N664 X1.637 Y9.032 Z-29.667
N665 G03 X.499 Y9.136 L6.258
N666 X-2.525 Y8.357 L6.258
N667 G02 X-3.894 Y7.801 L6.258
N668 G03 X-7.346 Y5.381 L6.258
N669 X-9.076 Y1.795 L8.726
N670 X-9.307 Y-.285 L9.485
N671 X-6.345 Y-7.171 L9.485
N672 X.544 Y-9.915 L10.019
N673 X2.974 Y-9.616 L10.019
N674 X10.278 Y-3.101 L10.573
N675 X10.991 Y.811 L11.094
N676 X9.28 Y6.729 L11.094
N677 X.343 Y12.148 L11.705
N678 X-.691 Y12.192 L12.089
N679 X-9.968 Y7.855 L12.089
N680 X-12.956 Y-.372 L12.817
N681 X-12.709 Y-2.879 L12.817
N682 X-5.464 Y-12.264 L13.365
N683 X.625 Y-13.668 L13.902
N684 X7.168 Y-12.032 L13.902
N685 X14.649 Y-1.596 L14.47
N686 X14.85 Y.858 L15.084
N687 X11.003 Y10.92 L15.084
N688 X-.731 Y16.161 L15.755
N689 X-2.504 Y16.061 L15.755
N690 X-14.371 Y8.63 L16.266
N691 X-17.009 Y-.446 L16.934
N692 X-16.258 Y-5.435 L16.934
N693 X-5.468 Y-16.733 L17.517
N694 X.673 Y-17.806 L18.093
N695 X10.236 Y-15.073 L18.093
N696 X16.233 Y-9.078 L18.564
N697 X16.526 Y-8.383 L2.318
N698 G01 X16.755 Y-7.519
N699 G03 X17.345 Y-4.638 L29.608
N700 X17.653 Y-1.654 L30.429
N701 X17.698 Y0. L30.729
N702 X17.667 Y1.371 L30.729
N703 X17.384 Y4.375 L30.479
N704 X16.423 Y8.705 L27.003
N705 X13.48 Y13.931 L15.479
N706 X6.052 Y19.138 L18.23
N707 X-.927 Y20.408 L19.812
N708 X-7.381 Y19.327 L19.812
N709 X-12.006 Y17.057 L20.402
N710 X-12.668 Y16.374 L2.284
N711 G01 X-13.176 Y15.639
N712 G03 X-15.08 Y12.238 L22.817
N713 X-16.539 Y8.313 L25.315
N714 X-17.205 Y5.471 L29.286
N715 X-17.595 Y2.511 L30.246
N716 X-17.698 Y0. L30.699
N717 X-17.694 Y-.509 L30.699
N718 X-17.495 Y-3.525 L30.606
N719 X-17.003 Y-6.475 L29.97
N720 X-15.755 Y-10.645 L26.227
N721 X-13.667 Y-14.868 L23.925
N722 X-10.621 Y-18.174 L14.098
N723 X-4.412 Y-21.308 L17.9
N724 X1.199 Y-22.072 L20.996
N725 X5.7 Y-21.584 L20.996
N726 X7.766 Y-21.028 L21.952
N727 X8.392 Y-20.707 L1.988
N728 X12.15 Y-17.049 L19.66
N729 X14.22 Y-13.931 L21.608
N730 X15.907 Y-10.242 L24.373
N731 X16.755 Y-7.519 L28.33
N732 X16.905 Y-6.371 L4.473
N733 X14.313 Y-2.313 L4.473
N734 X12.432 Y-1.898 L4.473 F6000.
N735 X11.518 Y-1.992 L4.473
N736 G01 X-11.534 Y-6.803
N737 G03 X-13.283 Y-7.588 L4.473
N738 X-15.093 Y-11.182 L4.473 F5000.
N739 X-14.622 Y-13.18 L4.473
N740 X-11.608 Y-17.714 L22.888
N741 G01 X-11.009 Y-18.378
N742 G03 X-6.722 Y-21.784 L17.897
N743 X-1.72 Y-23.487 L14.05
N744 X.014 Y-23.606 L12.7
N745 X3.147 Y-23.214 L12.7
N746 X7.457 Y-21.347 L14.835
N747 G01 X8.199 Y-20.849
N748 G03 X8.309 Y-20.771 L2.202
N749 G01 X9.019 Y-20.228
N750 G03 X9.981 Y-19.403 L15.251
N751 X11.207 Y-17.267 L4.473
N752 G01 X12.106 Y-13.626
N753 X15.794 Y1.308 F6000.
N754 X16.778 Y5.291 F5000.
N755 G03 X16.909 Y6.384 L4.609
N756 X16.702 Y7.751 L4.609
N757 X16.296 Y9.133 L28.654
N758 X15.83 Y10.468 L27.907
N759 X14.056 Y14.234 L28.084
N760 G01 X13.591 Y14.998
N761 G03 X9.569 Y19.771 L20.961
N762 G01 X8.879 Y20.34
N763 G03 X4.569 Y22.778 L15.899
N764 X.023 Y23.605 L13.251
N765 X-5.995 Y22.166 L13.526
N766 X-10.172 Y19.221 L17.213
N767 X-13.176 Y15.639 L21.083
N768 X-13.871 Y14.031 L4.473
N769 G01 X-14.81 Y9.648
N770 X-15.065 Y8.454 F6000.
N771 G00 Z10.
N772 X1.175 Y9.105
N773 Z-27.667
N774 G01 Z-29.167 F5000.
N775 X.589 Y9.163 Z-29.25 F8000.
N776 X0. Y9.182 Z-29.333
N777 X-.941 Y9.133 Z-29.467
N778 X-1.871 Y8.985 Z-29.6
N779 X-2.781 Y8.742 Z-29.733
N780 X-3.661 Y8.404 Z-29.867
N781 X-4.5 Y7.976 Z-30.
N782 X-5.29 Y7.463 Z-30.133
N783 X-6.022 Y6.87 Z-30.267
N784 X-6.688 Y6.204 Z-30.4
N785 X-7.281 Y5.472 Z-30.533
N786 X-7.794 Y4.682 Z-30.667
N787 X-8.222 Y3.843 Z-30.8
N788 X-8.559 Y2.963 Z-30.933
N789 X-8.803 Y2.053 Z-31.067
N790 X-8.951 Y1.123 Z-31.2
N791 X-9. Y.182 Z-31.333
N792 X-8.951 Y-.759 Z-31.467
N793 X-8.803 Y-1.689 Z-31.6
N794 X-8.559 Y-2.599 Z-31.733
N795 X-8.222 Y-3.479 Z-31.867
N796 X-7.794 Y-4.318 Z-32.
N797 X-7.281 Y-5.108 Z-32.133
N798 X-6.688 Y-5.84 Z-32.267
N799 X-6.022 Y-6.506 Z-32.4
N800 X-5.29 Y-7.099 Z-32.533
N801 X-4.5 Y-7.612 Z-32.667
N802 X-3.661 Y-8.04 Z-32.8
N803 X-2.781 Y-8.377 Z-32.933
N804 X-1.871 Y-8.621 Z-33.067
N805 X-.941 Y-8.769 Z-33.2
N806 X0. Y-8.818 Z-33.333
N807 X.941 Y-8.769 Z-33.467
N808 X1.871 Y-8.621 Z-33.6
N809 X2.781 Y-8.377 Z-33.733
N810 X3.661 Y-8.04 Z-33.867
N811 X4.5 Y-7.612 Z-34.
N812 X5.29 Y-7.099 Z-34.133
N813 X6.022 Y-6.506 Z-34.267
N814 X6.688 Y-5.84 Z-34.4
N815 X7.281 Y-5.108 Z-34.533
N816 X7.794 Y-4.318 Z-34.667
N817 X8.222 Y-3.479 Z-34.8
N818 X8.56 Y-2.599 Z-34.933
N819 X8.803 Y-1.689 Z-35.067
N820 X8.951 Y-.759 Z-35.2
N821 X9. Y.182 Z-35.333
N822 X8.951 Y1.123 Z-35.467
N823 X8.803 Y2.053 Z-35.6
N824 X8.56 Y2.963 Z-35.733
N825 X8.222 Y3.843 Z-35.867
N826 X7.794 Y4.682 Z-36.
N827 X7.281 Y5.472 Z-36.133
N828 X6.688 Y6.204 Z-36.267
N829 X6.022 Y6.87 Z-36.4
N830 X5.29 Y7.463 Z-36.533
N831 X4.5 Y7.976 Z-36.667
N832 X3.661 Y8.404 Z-36.8
N833 X2.781 Y8.742 Z-36.933
N834 X1.871 Y8.985 Z-37.067
N835 X.941 Y9.133 Z-37.2
N836 X0. Y9.182 Z-37.333
N837 X-.941 Y9.133 Z-37.467
N838 X-1.871 Y8.985 Z-37.6
N839 X-2.781 Y8.742 Z-37.733
N840 X-3.661 Y8.404 Z-37.867
N841 X-4.5 Y7.976 Z-38.
N842 X-5.29 Y7.463 Z-38.133
N843 X-6.022 Y6.87 Z-38.267
N844 X-6.688 Y6.204 Z-38.4
N845 X-7.281 Y5.472 Z-38.533
N846 X-7.794 Y4.682 Z-38.667
N847 X-8.222 Y3.843 Z-38.8
N848 X-8.559 Y2.963 Z-38.933
N849 X-8.803 Y2.053 Z-39.067
N850 X-8.951 Y1.123 Z-39.2
N851 X-9. Y.182 Z-39.333
N852 X-8.951 Y-.759 Z-39.467
N853 X-8.803 Y-1.689 Z-39.6
N854 X-8.559 Y-2.599 Z-39.733
N855 X-8.222 Y-3.479 Z-39.867
N856 X-7.794 Y-4.318 Z-40.
N857 X-7.281 Y-5.108 Z-40.133
N858 X-6.688 Y-5.84 Z-40.267
N859 X-6.022 Y-6.506 Z-40.4
N860 X-5.29 Y-7.099 Z-40.533
N861 X-4.5 Y-7.612 Z-40.667
N862 X-3.661 Y-8.04 Z-40.8
N863 X-2.781 Y-8.377 Z-40.933
N864 X-1.871 Y-8.621 Z-41.067
N865 X-.941 Y-8.769 Z-41.2
N866 X0. Y-8.818 Z-41.333
N867 X.941 Y-8.769 Z-41.467
N868 X1.871 Y-8.621 Z-41.6
N869 X2.781 Y-8.377 Z-41.733
N870 X3.661 Y-8.04 Z-41.867
N871 X4.5 Y-7.612 Z-42.
N872 X5.29 Y-7.099 Z-42.133
N873 X6.022 Y-6.506 Z-42.267
N874 X6.688 Y-5.84 Z-42.4
N875 X7.281 Y-5.108 Z-42.533
N876 X7.794 Y-4.318 Z-42.667
N877 X8.222 Y-3.479 Z-42.8
N878 X8.56 Y-2.599 Z-42.933
N879 X8.803 Y-1.689 Z-43.067
N880 X8.951 Y-.759 Z-43.2
N881 X9. Y.182 Z-43.333
N882 X8.951 Y1.123 Z-43.467
N883 X8.803 Y2.053 Z-43.6
N884 X8.56 Y2.963 Z-43.733
N885 X8.222 Y3.843 Z-43.867
N886 X7.794 Y4.682 Z-44.
N887 X7.281 Y5.472 Z-44.133
N888 X6.688 Y6.204 Z-44.267
N889 X6.022 Y6.87 Z-44.4
N890 X5.29 Y7.463 Z-44.533
N891 X4.5 Y7.976 Z-44.667
N892 X3.661 Y8.404 Z-44.8
N893 X2.781 Y8.742 Z-44.933
N894 X1.871 Y8.985 Z-45.067
N895 X.941 Y9.133 Z-45.2
N896 X0. Y9.182 Z-45.333
N897 X-.941 Y9.133 Z-45.467
N898 X-1.871 Y8.985 Z-45.6
N899 X-2.781 Y8.742 Z-45.733
N900 X-3.661 Y8.404 Z-45.867
N901 X-4.5 Y7.976 Z-46.
N902 X-5.29 Y7.463 Z-46.133
N903 X-6.022 Y6.87 Z-46.267
N904 X-6.688 Y6.204 Z-46.4
N905 X-7.281 Y5.472 Z-46.533
N906 X-7.794 Y4.682 Z-46.667
N907 X-8.222 Y3.843 Z-46.8
N908 X-8.559 Y2.963 Z-46.933
N909 X-8.803 Y2.053 Z-47.067
N910 X-8.951 Y1.123 Z-47.2
N911 X-9. Y.182 Z-47.333
N912 X-8.951 Y-.759 Z-47.467
N913 X-8.803 Y-1.689 Z-47.6
N914 X-8.559 Y-2.599 Z-47.733
N915 X-8.222 Y-3.479 Z-47.867
N916 X-7.794 Y-4.318 Z-48.
N917 X-7.281 Y-5.108 Z-48.133
N918 X-6.688 Y-5.84 Z-48.267
N919 X-6.022 Y-6.506 Z-48.4
N920 X-5.29 Y-7.099 Z-48.533
N921 X-4.5 Y-7.612 Z-48.667
N922 X-3.661 Y-8.04 Z-48.8
N923 X-2.781 Y-8.377 Z-48.933
N924 X-1.871 Y-8.621 Z-49.067
N925 X-.941 Y-8.769 Z-49.2
N926 X0. Y-8.818 Z-49.333
N927 X.941 Y-8.769 Z-49.467
N928 X1.871 Y-8.621 Z-49.6
N929 X2.781 Y-8.377 Z-49.733
N930 X3.661 Y-8.04 Z-49.867
N931 X4.5 Y-7.612 Z-50.
N932 X5.29 Y-7.099 Z-50.133
N933 X6.022 Y-6.506 Z-50.267
N934 X6.688 Y-5.84 Z-50.4
N935 X7.281 Y-5.108 Z-50.533
N936 X7.794 Y-4.318 Z-50.667
N937 X8.222 Y-3.479 Z-50.8
N938 X8.56 Y-2.599 Z-50.933
N939 X8.803 Y-1.689 Z-51.067
N940 X8.951 Y-.759 Z-51.2
N941 X9. Y.182 Z-51.333
N942 X8.951 Y1.123 Z-51.467
N943 X8.803 Y2.053 Z-51.6
N944 X8.56 Y2.963 Z-51.733
N945 X8.222 Y3.843 Z-51.867
N946 X7.794 Y4.682 Z-52.
N947 X7.281 Y5.472 Z-52.133
N948 X6.688 Y6.204 Z-52.267
N949 X6.022 Y6.87 Z-52.4
N950 X5.29 Y7.463 Z-52.533
N951 X4.5 Y7.976 Z-52.667
N952 X3.661 Y8.404 Z-52.8
N953 X2.781 Y8.742 Z-52.933
N954 X1.871 Y8.985 Z-53.067
N955 X.941 Y9.133 Z-53.2
N956 X0. Y9.182 Z-53.333
N957 X-.941 Y9.133 Z-53.467
N958 X-1.871 Y8.985 Z-53.6
N959 X-2.781 Y8.742 Z-53.733
N960 X-3.661 Y8.404 Z-53.867
N961 X-4.5 Y7.976 Z-54.
N962 X-5.29 Y7.463 Z-54.133
N963 X-6.022 Y6.87 Z-54.267
N964 X-6.688 Y6.204 Z-54.4
N965 X-7.281 Y5.472 Z-54.533
N966 X-7.794 Y4.682 Z-54.667
N967 X-8.222 Y3.843 Z-54.8
N968 X-8.559 Y2.963 Z-54.933
N969 X-8.803 Y2.053 Z-55.067
N970 X-8.951 Y1.123 Z-55.2
N971 X-9. Y.182 Z-55.333
N972 X-8.951 Y-.759 Z-55.467
N973 X-8.803 Y-1.689 Z-55.6
N974 X-8.559 Y-2.599 Z-55.733
N975 X-8.222 Y-3.479 Z-55.867
N976 X-7.794 Y-4.318 Z-56.
N977 X-7.281 Y-5.108 Z-56.133
N978 X-6.688 Y-5.84 Z-56.267
N979 X-6.022 Y-6.506 Z-56.4
N980 X-5.29 Y-7.099 Z-56.533
N981 X-4.5 Y-7.612 Z-56.667
N982 X-3.661 Y-8.04 Z-56.8
N983 X-2.781 Y-8.377 Z-56.933
N984 X-1.871 Y-8.621 Z-57.067
N985 X-.941 Y-8.769 Z-57.2
N986 X0. Y-8.818 Z-57.333
N987 X.941 Y-8.769 Z-57.467
N988 X1.871 Y-8.621 Z-57.6
N989 X2.781 Y-8.377 Z-57.733
N990 X3.661 Y-8.04 Z-57.867
N991 X4.5 Y-7.612 Z-58.
N992 X5.29 Y-7.099 Z-58.133
N993 X6.022 Y-6.506 Z-58.267
N994 X6.688 Y-5.84 Z-58.4
N995 X7.281 Y-5.108 Z-58.533
N996 X7.794 Y-4.318 Z-58.667
N997 X8.222 Y-3.479 Z-58.8
N998 X8.56 Y-2.599 Z-58.933
N999 X8.803 Y-1.689 Z-59.067
N1000 X8.951 Y-.759 Z-59.2
N1001 X9. Y.182 Z-59.333
N1002 G03 X0. Y9.182 L9.
N1003 X-9. Y.182 L9.
N1004 X0. Y-8.818 L9.
N1005 X9. Y.182 L9.
N1006 G01 X8.956 Y1.073 Z-59.189
N1007 X8.824 Y1.955 Z-59.045
N1008 X8.605 Y2.819 Z-58.9
N1009 X8.302 Y3.658 Z-58.756
N1010 X7.917 Y4.463 Z-58.612
N1011 X7.454 Y5.225 Z-58.468
N1012 X6.919 Y5.938 Z-58.323
N1013 G03 X5.39 Y6.655 L1.988
N1014 X3.402 Y4.667 L1.988
N1015 X3.862 Y3.395 L1.988
N1016 X5.39 Y2.679 L1.988 F5000.
N1017 X6.662 Y3.138 L1.988
N1018 X7.378 Y4.667 L1.988
N1019 X6.919 Y5.938 L1.988
N1020 G01 X6.315 Y6.595 Z-58.468
N1021 X5.649 Y7.188 Z-58.612
N1022 X4.928 Y7.713 Z-58.756
N1023 X4.159 Y8.164 Z-58.9
N1024 X3.348 Y8.536 Z-59.045
N1025 X2.505 Y8.826 Z-59.189
N1026 X1.637 Y9.032 Z-59.333
N1027 G03 X.499 Y9.136 L6.258
N1028 X-2.525 Y8.357 L6.258
N1029 G02 X-3.894 Y7.801 L6.258
N1030 G03 X-7.346 Y5.381 L6.258
N1031 X-9.076 Y1.795 L8.726
N1032 X-9.307 Y-.285 L9.485
N1033 X-6.345 Y-7.171 L9.485
N1034 X.544 Y-9.915 L10.019
N1035 X2.974 Y-9.616 L10.019
N1036 X10.278 Y-3.101 L10.573
N1037 X10.991 Y.811 L11.094
N1038 X9.28 Y6.729 L11.094
N1039 X.343 Y12.148 L11.705
N1040 X-.691 Y12.192 L12.089
N1041 X-9.968 Y7.855 L12.089
N1042 X-12.956 Y-.372 L12.817
N1043 X-12.709 Y-2.879 L12.817
N1044 X-5.464 Y-12.264 L13.365
N1045 X.625 Y-13.668 L13.902
N1046 X7.168 Y-12.032 L13.902
N1047 X14.649 Y-1.596 L14.47
N1048 X14.85 Y.858 L15.084
N1049 X11.003 Y10.92 L15.084
N1050 X-.731 Y16.161 L15.755
N1051 X-2.504 Y16.061 L15.755
N1052 X-14.371 Y8.63 L16.266
N1053 X-17.009 Y-.446 L16.934
N1054 X-16.258 Y-5.435 L16.934
N1055 X-5.468 Y-16.733 L17.517
N1056 X.673 Y-17.806 L18.093
N1057 X10.236 Y-15.073 L18.093
N1058 X16.233 Y-9.078 L18.564
N1059 X16.526 Y-8.383 L2.318
N1060 G01 X16.755 Y-7.519
N1061 G03 X17.345 Y-4.638 L29.608
N1062 X17.653 Y-1.654 L30.429
N1063 X17.698 Y0. L30.729
N1064 X17.667 Y1.371 L30.729
N1065 X17.384 Y4.375 L30.479
N1066 X16.423 Y8.705 L27.003
N1067 X13.48 Y13.931 L15.479
N1068 X6.052 Y19.138 L18.23
N1069 X-.927 Y20.408 L19.812
N1070 X-7.381 Y19.327 L19.812
N1071 X-12.006 Y17.057 L20.402
N1072 X-12.668 Y16.374 L2.284
N1073 G01 X-13.176 Y15.639
N1074 G03 X-15.08 Y12.238 L22.817
N1075 X-16.539 Y8.313 L25.315
N1076 X-17.205 Y5.471 L29.286
N1077 X-17.595 Y2.511 L30.246
N1078 X-17.698 Y0. L30.699
N1079 X-17.694 Y-.509 L30.699
N1080 X-17.495 Y-3.525 L30.606
N1081 X-17.003 Y-6.475 L29.97
N1082 X-15.755 Y-10.645 L26.227
N1083 X-13.667 Y-14.868 L23.925
N1084 X-10.621 Y-18.174 L14.098
N1085 X-4.412 Y-21.308 L17.9
N1086 X1.199 Y-22.072 L20.996
N1087 X5.7 Y-21.584 L20.996
N1088 X7.766 Y-21.028 L21.952
N1089 X8.392 Y-20.707 L1.988
N1090 X12.15 Y-17.049 L19.66
N1091 X14.22 Y-13.931 L21.608
N1092 X15.907 Y-10.242 L24.373
N1093 X16.755 Y-7.519 L28.33
N1094 X16.905 Y-6.371 L4.473
N1095 X14.313 Y-2.313 L4.473
N1096 X12.432 Y-1.898 L4.473 F6000.
N1097 X11.518 Y-1.992 L4.473
N1098 G01 X-11.534 Y-6.803
N1099 G03 X-13.283 Y-7.588 L4.473
N1100 X-15.093 Y-11.182 L4.473 F5000.
N1101 X-14.622 Y-13.18 L4.473
N1102 X-11.608 Y-17.714 L22.888
N1103 G01 X-11.009 Y-18.378
N1104 G03 X-6.722 Y-21.784 L17.897
N1105 X-1.72 Y-23.487 L14.05
N1106 X.014 Y-23.606 L12.7
N1107 X3.147 Y-23.214 L12.7
N1108 X7.457 Y-21.347 L14.835
N1109 G01 X8.199 Y-20.849
N1110 G03 X8.309 Y-20.771 L2.202
N1111 G01 X9.019 Y-20.228
N1112 G03 X9.981 Y-19.403 L15.251
N1113 X11.207 Y-17.267 L4.473
N1114 G01 X12.106 Y-13.626
N1115 X15.794 Y1.308 F6000.
N1116 X16.778 Y5.291 F5000.
N1117 G03 X16.909 Y6.384 L4.609
N1118 X16.702 Y7.751 L4.609
N1119 X16.296 Y9.133 L28.654
N1120 X15.83 Y10.468 L27.907
N1121 X14.056 Y14.234 L28.084
N1122 G01 X13.591 Y14.998
N1123 G03 X9.569 Y19.771 L20.961
N1124 G01 X8.879 Y20.34
N1125 G03 X4.569 Y22.778 L15.899
N1126 X.023 Y23.605 L13.251
N1127 X-5.995 Y22.166 L13.526
N1128 X-10.172 Y19.221 L17.213
N1129 X-13.176 Y15.639 L21.083
N1130 X-13.871 Y14.031 L4.473
N1131 G01 X-14.81 Y9.648
N1132 X-15.065 Y8.454 F6000.
N1133 G00 Z10.
N1134 X1.175 Y9.105
N1135 Z-57.333
N1136 G01 Z-58.833 F5000.
N1137 X.589 Y9.163 Z-58.917 F8000.
N1138 X0. Y9.182 Z-59.
N1139 X-.941 Y9.133 Z-59.133
N1140 X-1.871 Y8.985 Z-59.267
N1141 X-2.781 Y8.742 Z-59.4
N1142 X-3.661 Y8.404 Z-59.533
N1143 X-4.5 Y7.976 Z-59.667
N1144 X-5.29 Y7.463 Z-59.8
N1145 X-6.022 Y6.87 Z-59.933
N1146 X-6.688 Y6.204 Z-60.067
N1147 X-7.281 Y5.472 Z-60.2
N1148 X-7.794 Y4.682 Z-60.333
N1149 X-8.222 Y3.843 Z-60.467
N1150 X-8.559 Y2.963 Z-60.6
N1151 X-8.803 Y2.053 Z-60.733
N1152 X-8.951 Y1.123 Z-60.867
N1153 X-9. Y.182 Z-61.
N1154 X-8.951 Y-.759 Z-61.133
N1155 X-8.803 Y-1.689 Z-61.267
N1156 X-8.559 Y-2.599 Z-61.4
N1157 X-8.222 Y-3.479 Z-61.533
N1158 X-7.794 Y-4.318 Z-61.667
N1159 X-7.281 Y-5.108 Z-61.8
N1160 X-6.688 Y-5.84 Z-61.933
N1161 X-6.022 Y-6.506 Z-62.067
N1162 X-5.29 Y-7.099 Z-62.2
N1163 X-4.5 Y-7.612 Z-62.333
N1164 X-3.661 Y-8.04 Z-62.467
N1165 X-2.781 Y-8.377 Z-62.6
N1166 X-1.871 Y-8.621 Z-62.733
N1167 X-.941 Y-8.769 Z-62.867
N1168 X0. Y-8.818 Z-63.
N1169 X.941 Y-8.769 Z-63.133
N1170 X1.871 Y-8.621 Z-63.267
N1171 X2.781 Y-8.377 Z-63.4
N1172 X3.661 Y-8.04 Z-63.533
N1173 X4.5 Y-7.612 Z-63.667
N1174 X5.29 Y-7.099 Z-63.8
N1175 X6.022 Y-6.506 Z-63.933
N1176 X6.688 Y-5.84 Z-64.067
N1177 X7.281 Y-5.108 Z-64.2
N1178 X7.794 Y-4.318 Z-64.333
N1179 X8.222 Y-3.479 Z-64.467
N1180 X8.56 Y-2.599 Z-64.6
N1181 X8.803 Y-1.689 Z-64.733
N1182 X8.951 Y-.759 Z-64.867
N1183 X9. Y.182 Z-65.
N1184 X8.951 Y1.123 Z-65.133
N1185 X8.803 Y2.053 Z-65.267
N1186 X8.56 Y2.963 Z-65.4
N1187 X8.222 Y3.843 Z-65.533
N1188 X7.794 Y4.682 Z-65.667
N1189 X7.281 Y5.472 Z-65.8
N1190 X6.688 Y6.204 Z-65.933
N1191 X6.022 Y6.87 Z-66.067
N1192 X5.29 Y7.463 Z-66.2
N1193 X4.5 Y7.976 Z-66.333
N1194 X3.661 Y8.404 Z-66.467
N1195 X2.781 Y8.742 Z-66.6
N1196 X1.871 Y8.985 Z-66.733
N1197 X.941 Y9.133 Z-66.867
N1198 X0. Y9.182 Z-67.
N1199 X-.941 Y9.133 Z-67.133
N1200 X-1.871 Y8.985 Z-67.267
N1201 X-2.781 Y8.742 Z-67.4
N1202 X-3.661 Y8.404 Z-67.533
N1203 X-4.5 Y7.976 Z-67.667
N1204 X-5.29 Y7.463 Z-67.8
N1205 X-6.022 Y6.87 Z-67.933
N1206 X-6.688 Y6.204 Z-68.067
N1207 X-7.281 Y5.472 Z-68.2
N1208 X-7.794 Y4.682 Z-68.333
N1209 X-8.222 Y3.843 Z-68.467
N1210 X-8.559 Y2.963 Z-68.6
N1211 X-8.803 Y2.053 Z-68.733
N1212 X-8.951 Y1.123 Z-68.867
N1213 X-9. Y.182 Z-69.
N1214 X-8.951 Y-.759 Z-69.133
N1215 X-8.803 Y-1.689 Z-69.267
N1216 X-8.559 Y-2.599 Z-69.4
N1217 X-8.222 Y-3.479 Z-69.533
N1218 X-7.794 Y-4.318 Z-69.667
N1219 X-7.281 Y-5.108 Z-69.8
N1220 X-6.688 Y-5.84 Z-69.933
N1221 X-6.022 Y-6.506 Z-70.067
N1222 X-5.29 Y-7.099 Z-70.2
N1223 X-4.5 Y-7.612 Z-70.333
N1224 X-3.661 Y-8.04 Z-70.467
N1225 X-2.781 Y-8.377 Z-70.6
N1226 X-1.871 Y-8.621 Z-70.733
N1227 X-.941 Y-8.769 Z-70.867
N1228 X0. Y-8.818 Z-71.
N1229 X.941 Y-8.769 Z-71.133
N1230 X1.871 Y-8.621 Z-71.267
N1231 X2.781 Y-8.377 Z-71.4
N1232 X3.661 Y-8.04 Z-71.533
N1233 X4.5 Y-7.612 Z-71.667
N1234 X5.29 Y-7.099 Z-71.8
N1235 X6.022 Y-6.506 Z-71.933
N1236 X6.688 Y-5.84 Z-72.067
N1237 X7.281 Y-5.108 Z-72.2
N1238 X7.794 Y-4.318 Z-72.333
N1239 X8.222 Y-3.479 Z-72.467
N1240 X8.56 Y-2.599 Z-72.6
N1241 X8.803 Y-1.689 Z-72.733
N1242 X8.951 Y-.759 Z-72.867
N1243 X9. Y.182 Z-73.
N1244 X8.951 Y1.123 Z-73.133
N1245 X8.803 Y2.053 Z-73.267
N1246 X8.56 Y2.963 Z-73.4
N1247 X8.222 Y3.843 Z-73.533
N1248 X7.794 Y4.682 Z-73.667
N1249 X7.281 Y5.472 Z-73.8
N1250 X6.688 Y6.204 Z-73.933
N1251 X6.022 Y6.87 Z-74.067
N1252 X5.29 Y7.463 Z-74.2
N1253 X4.5 Y7.976 Z-74.333
N1254 X3.661 Y8.404 Z-74.467
N1255 X2.781 Y8.742 Z-74.6
N1256 X1.871 Y8.985 Z-74.733
N1257 X.941 Y9.133 Z-74.867
N1258 X0. Y9.182 Z-75.
N1259 X-.941 Y9.133 Z-75.133
N1260 X-1.871 Y8.985 Z-75.267
N1261 X-2.781 Y8.742 Z-75.4
N1262 X-3.661 Y8.404 Z-75.533
N1263 X-4.5 Y7.976 Z-75.667
N1264 X-5.29 Y7.463 Z-75.8
N1265 X-6.022 Y6.87 Z-75.933
N1266 X-6.688 Y6.204 Z-76.067
N1267 X-7.281 Y5.472 Z-76.2
N1268 X-7.794 Y4.682 Z-76.333
N1269 X-8.222 Y3.843 Z-76.467
N1270 X-8.559 Y2.963 Z-76.6
N1271 X-8.803 Y2.053 Z-76.733
N1272 X-8.951 Y1.123 Z-76.867
N1273 X-9. Y.182 Z-77.
N1274 X-8.951 Y-.759 Z-77.133
N1275 X-8.803 Y-1.689 Z-77.267
N1276 X-8.559 Y-2.599 Z-77.4
N1277 X-8.222 Y-3.479 Z-77.533
N1278 X-7.794 Y-4.318 Z-77.667
N1279 X-7.281 Y-5.108 Z-77.8
N1280 X-6.688 Y-5.84 Z-77.933
N1281 X-6.022 Y-6.506 Z-78.067
N1282 X-5.29 Y-7.099 Z-78.2
N1283 X-4.5 Y-7.612 Z-78.333
N1284 X-3.661 Y-8.04 Z-78.467
N1285 X-2.781 Y-8.377 Z-78.6
N1286 X-1.871 Y-8.621 Z-78.733
N1287 X-.941 Y-8.769 Z-78.867
N1288 X0. Y-8.818 Z-79.
N1289 X.941 Y-8.769 Z-79.133
N1290 X1.871 Y-8.621 Z-79.267
N1291 X2.781 Y-8.377 Z-79.4
N1292 X3.661 Y-8.04 Z-79.533
N1293 X4.5 Y-7.612 Z-79.667
N1294 X5.29 Y-7.099 Z-79.8
N1295 X6.022 Y-6.506 Z-79.933
N1296 X6.688 Y-5.84 Z-80.067
N1297 X7.281 Y-5.108 Z-80.2
N1298 X7.794 Y-4.318 Z-80.333
N1299 X8.222 Y-3.479 Z-80.467
N1300 X8.56 Y-2.599 Z-80.6
N1301 X8.803 Y-1.689 Z-80.733
N1302 X8.951 Y-.759 Z-80.867
N1303 X9. Y.182 Z-81.
N1304 X8.951 Y1.123 Z-81.133
N1305 X8.803 Y2.053 Z-81.267
N1306 X8.56 Y2.963 Z-81.4
N1307 X8.222 Y3.843 Z-81.533
N1308 X7.794 Y4.682 Z-81.667
N1309 X7.281 Y5.472 Z-81.8
N1310 X6.688 Y6.204 Z-81.933
N1311 X6.022 Y6.87 Z-82.067
N1312 X5.29 Y7.463 Z-82.2
N1313 X4.5 Y7.976 Z-82.333
N1314 X3.661 Y8.404 Z-82.467
N1315 X2.781 Y8.742 Z-82.6
N1316 X1.871 Y8.985 Z-82.733
N1317 X.941 Y9.133 Z-82.867
N1318 X0. Y9.182 Z-83.
N1319 X-.941 Y9.133 Z-83.133
N1320 X-1.871 Y8.985 Z-83.267
N1321 X-2.781 Y8.742 Z-83.4
N1322 X-3.661 Y8.404 Z-83.533
N1323 X-4.5 Y7.976 Z-83.667
N1324 X-5.29 Y7.463 Z-83.8
N1325 X-6.022 Y6.87 Z-83.933
N1326 X-6.688 Y6.204 Z-84.067
N1327 X-7.281 Y5.472 Z-84.2
N1328 X-7.794 Y4.682 Z-84.333
N1329 X-8.222 Y3.843 Z-84.467
N1330 X-8.559 Y2.963 Z-84.6
N1331 X-8.803 Y2.053 Z-84.733
N1332 X-8.951 Y1.123 Z-84.867
N1333 X-9. Y.182 Z-85.
N1334 X-8.951 Y-.759 Z-85.133
N1335 X-8.803 Y-1.689 Z-85.267
N1336 X-8.559 Y-2.599 Z-85.4
N1337 X-8.222 Y-3.479 Z-85.533
N1338 X-7.794 Y-4.318 Z-85.667
N1339 X-7.281 Y-5.108 Z-85.8
N1340 X-6.688 Y-5.84 Z-85.933
N1341 X-6.022 Y-6.506 Z-86.067
N1342 X-5.29 Y-7.099 Z-86.2
N1343 X-4.5 Y-7.612 Z-86.333
N1344 X-3.661 Y-8.04 Z-86.467
N1345 X-2.781 Y-8.377 Z-86.6
N1346 X-1.871 Y-8.621 Z-86.733
N1347 X-.941 Y-8.769 Z-86.867
N1348 X0. Y-8.818 Z-87.
N1349 X.941 Y-8.769 Z-87.133
N1350 X1.871 Y-8.621 Z-87.267
N1351 X2.781 Y-8.377 Z-87.4
N1352 X3.661 Y-8.04 Z-87.533
N1353 X4.5 Y-7.612 Z-87.667
N1354 X5.29 Y-7.099 Z-87.8
N1355 X6.022 Y-6.506 Z-87.933
N1356 X6.688 Y-5.84 Z-88.067
N1357 X7.281 Y-5.108 Z-88.2
N1358 X7.794 Y-4.318 Z-88.333
N1359 X8.222 Y-3.479 Z-88.467
N1360 X8.56 Y-2.599 Z-88.6
N1361 X8.803 Y-1.689 Z-88.733
N1362 X8.951 Y-.759 Z-88.867
N1363 X9. Y.182 Z-89.
N1364 G03 X0. Y9.182 L9.
N1365 X-9. Y.182 L9.
N1366 X0. Y-8.818 L9.
N1367 X9. Y.182 L9.
N1368 G01 X8.956 Y1.073 Z-88.856
N1369 X8.824 Y1.955 Z-88.711
N1370 X8.605 Y2.819 Z-88.567
N1371 X8.302 Y3.658 Z-88.423
N1372 X7.917 Y4.463 Z-88.279
N1373 X7.454 Y5.225 Z-88.134
N1374 X6.919 Y5.938 Z-87.99
N1375 G03 X5.39 Y6.655 L1.988
N1376 X3.402 Y4.667 L1.988
N1377 X3.862 Y3.395 L1.988
N1378 X5.39 Y2.679 L1.988 F5000.
N1379 X6.662 Y3.138 L1.988
N1380 X7.378 Y4.667 L1.988
N1381 X6.919 Y5.938 L1.988
N1382 G01 X6.315 Y6.595 Z-88.134
N1383 X5.649 Y7.188 Z-88.279
N1384 X4.928 Y7.713 Z-88.423
N1385 X4.159 Y8.164 Z-88.567
N1386 X3.348 Y8.536 Z-88.711
N1387 X2.505 Y8.826 Z-88.856
N1388 X1.637 Y9.032 Z-89.
N1389 G03 X.499 Y9.136 L6.258
N1390 X-2.525 Y8.357 L6.258
N1391 G02 X-3.894 Y7.801 L6.258
N1392 G03 X-7.346 Y5.381 L6.258
N1393 X-9.076 Y1.795 L8.726
N1394 X-9.307 Y-.285 L9.485
N1395 X-6.345 Y-7.171 L9.485
N1396 X.544 Y-9.915 L10.019
N1397 X2.974 Y-9.616 L10.019
N1398 X10.278 Y-3.101 L10.573
N1399 X10.991 Y.811 L11.094
N1400 X9.28 Y6.729 L11.094
N1401 X.343 Y12.148 L11.705
N1402 X-.691 Y12.192 L12.089
N1403 X-9.968 Y7.855 L12.089
N1404 X-12.956 Y-.372 L12.817
N1405 X-12.709 Y-2.879 L12.817
N1406 X-5.464 Y-12.264 L13.365
N1407 X.625 Y-13.668 L13.902
N1408 X7.168 Y-12.032 L13.902
N1409 X14.649 Y-1.596 L14.47
N1410 X14.85 Y.858 L15.084
N1411 X11.003 Y10.92 L15.084
N1412 X-.731 Y16.161 L15.755
N1413 X-2.504 Y16.061 L15.755
N1414 X-14.371 Y8.63 L16.266
N1415 X-17.009 Y-.446 L16.934
N1416 X-16.258 Y-5.435 L16.934
N1417 X-5.468 Y-16.733 L17.517
N1418 X.673 Y-17.806 L18.093
N1419 X10.236 Y-15.073 L18.093
N1420 X16.233 Y-9.078 L18.564
N1421 X16.526 Y-8.383 L2.318
N1422 G01 X16.755 Y-7.519
N1423 G03 X17.345 Y-4.638 L29.608
N1424 X17.653 Y-1.654 L30.429
N1425 X17.698 Y0. L30.729
N1426 X17.667 Y1.371 L30.729
N1427 X17.384 Y4.375 L30.479
N1428 X16.423 Y8.705 L27.003
N1429 X13.48 Y13.931 L15.479
N1430 X6.052 Y19.138 L18.23
N1431 X-.927 Y20.408 L19.812
N1432 X-7.381 Y19.327 L19.812
N1433 X-12.006 Y17.057 L20.402
N1434 X-12.668 Y16.374 L2.284
N1435 G01 X-13.176 Y15.639
N1436 G03 X-15.08 Y12.238 L22.817
N1437 X-16.539 Y8.313 L25.315
N1438 X-17.205 Y5.471 L29.286
N1439 X-17.595 Y2.511 L30.246
N1440 X-17.698 Y0. L30.699
N1441 X-17.694 Y-.509 L30.699
N1442 X-17.495 Y-3.525 L30.606
N1443 X-17.003 Y-6.475 L29.97
N1444 X-15.755 Y-10.645 L26.227
N1445 X-13.667 Y-14.868 L23.925
N1446 X-10.621 Y-18.174 L14.098
N1447 X-4.412 Y-21.308 L17.9
N1448 X1.199 Y-22.072 L20.996
N1449 X5.7 Y-21.584 L20.996
N1450 X7.766 Y-21.028 L21.952
N1451 X8.392 Y-20.707 L1.988
N1452 X12.15 Y-17.049 L19.66
N1453 X14.22 Y-13.931 L21.608
N1454 X15.907 Y-10.242 L24.373
N1455 X16.755 Y-7.519 L28.33
N1456 X16.905 Y-6.371 L4.473
N1457 X14.313 Y-2.313 L4.473
N1458 X12.432 Y-1.898 L4.473 F6000.
N1459 X11.518 Y-1.992 L4.473
N1460 G01 X-11.534 Y-6.803
N1461 G03 X-13.283 Y-7.588 L4.473
N1462 X-15.093 Y-11.182 L4.473 F5000.
N1463 X-14.622 Y-13.18 L4.473
N1464 X-11.608 Y-17.714 L22.888
N1465 G01 X-11.009 Y-18.378
N1466 G03 X-6.722 Y-21.784 L17.897
N1467 X-1.72 Y-23.487 L14.05
N1468 X.014 Y-23.606 L12.7
N1469 X3.147 Y-23.214 L12.7
N1470 X7.457 Y-21.347 L14.835
N1471 G01 X8.199 Y-20.849
N1472 G03 X8.309 Y-20.771 L2.202
N1473 G01 X9.019 Y-20.228
N1474 G03 X9.981 Y-19.403 L15.251
N1475 X11.207 Y-17.267 L4.473
N1476 G01 X12.106 Y-13.626
N1477 X15.794 Y1.308 F6000.
N1478 X16.778 Y5.291 F5000.
N1479 G03 X16.909 Y6.384 L4.609
N1480 X16.702 Y7.751 L4.609
N1481 X16.296 Y9.133 L28.654
N1482 X15.83 Y10.468 L27.907
N1483 X14.056 Y14.234 L28.084
N1484 G01 X13.591 Y14.998
N1485 G03 X9.569 Y19.771 L20.961
N1486 G01 X8.879 Y20.34
N1487 G03 X4.569 Y22.778 L15.899
N1488 X.023 Y23.605 L13.251
N1489 X-5.995 Y22.166 L13.526
N1490 X-10.172 Y19.221 L17.213
N1491 X-13.176 Y15.639 L21.083
N1492 X-13.871 Y14.031 L4.473
N1493 G01 X-14.81 Y9.648
N1494 X-15.065 Y8.454 F6000.
N1495 G00 Z50.

(Operation # 9)
N1496 X-7.391 Y-2.879
N1497 Z-86.
N1498 G01 X-7.021 Y-3.652 Z-86.136 F5000.
N1499 X-6.571 Y-4.381 Z-86.273
N1500 X-6.046 Y-5.057 Z-86.409
N1501 X-5.451 Y-5.673 Z-86.545
N1502 X-4.794 Y-6.222 Z-86.682
N1503 X-4.082 Y-6.698 Z-86.818
N1504 X-3.323 Y-7.095 Z-86.955
N1505 X-2.526 Y-7.409 Z-87.091
N1506 X-1.7 Y-7.635 Z-87.227
N1507 X-.855 Y-7.772 Z-87.364
N1508 X0. Y-7.818 Z-87.5
N1509 X.836 Y-7.774 Z-87.633
N1510 X1.663 Y-7.643 Z-87.767
N1511 X2.472 Y-7.426 Z-87.9
N1512 X3.254 Y-7.126 Z-88.033
N1513 X4. Y-6.746 Z-88.167
N1514 X4.702 Y-6.29 Z-88.3
N1515 X5.353 Y-5.763 Z-88.433
N1516 X5.945 Y-5.171 Z-88.567
N1517 X6.472 Y-4.52 Z-88.7
N1518 X6.928 Y-3.818 Z-88.833
N1519 X7.308 Y-3.072 Z-88.967
N1520 X7.608 Y-2.29 Z-89.1
N1521 X7.825 Y-1.481 Z-89.233
N1522 X7.956 Y-.654 Z-89.367
N1523 X8. Y.182 Z-89.5
N1524 G03 X0. Y8.182 L8.
N1525 X-8. Y.182 L8.
N1526 X0. Y-7.818 L8.
N1527 X8. Y.182 L8.
N1528 G01 X8.01 Y.299
N1529 G03 X8.033 Y.922 L8.519
N1530 X5.289 Y7.184 L8.519
N1531 X-1.009 Y9.644 L9.294
N1532 X-1.636 Y9.622 L9.294
N1533 X-8.596 Y6.162 L10.161
N1534 X-11.318 Y-1.114 L11.087
N1535 X-11.312 Y-1.498 L11.087
N1536 X-8.105 Y-9.283 L12.067
N1537 X-.479 Y-13.344 L13.158
N1538 X1.717 Y-13.515 L14.193
N1539 X8.183 Y-11.956 L14.193
N1540 X13.65 Y-7.27 L15.437
N1541 X16.583 Y.781 L14.968
N1542 X16.613 Y1.76 L16.363
N1543 X14.736 Y9.368 L16.363
N1544 X7.183 Y16.843 L17.566
N1545 X-1.271 Y18.878 L18.577
N1546 X-4.269 Y18.635 L18.577
N1547 X-14.075 Y13.949 L19.428
N1548 X-14.649 Y13.14 L2.351
N1549 X-17.017 Y6.447 L27.589
N1550 X-17.297 Y4.986 L29.661
N1551 X-17.505 Y3.499 L30.123
N1552 X-17.641 Y1.996 L30.458
N1553 X-17.702 Y.483 L30.66
N1554 X-17.706 Y0. L30.724
N1555 X-17.688 Y-1.031 L30.724
N1556 X-17.601 Y-2.539 L30.649
N1557 X-17.439 Y-4.032 L30.438
N1558 X-17.206 Y-5.503 L30.094
N1559 X-16.904 Y-6.945 L29.623
N1560 X-16.535 Y-8.35 L29.037
N1561 X-16.103 Y-9.713 L28.344
N1562 X-14.42 Y-13.579 L28.718
N1563 X-10.477 Y-18.44 L16.37
N1564 X-4.062 Y-21.975 L19.154
N1565 X2.529 Y-23.01 L21.499
N1566 X3.731 Y-22.977 L21.499
N1567 X4.302 Y-22.866 L1.988
N1568 X7.457 Y-21.347 L14.781
N1569 G01 X8.199 Y-20.849
N1570 G03 X8.309 Y-20.771 L2.202
N1571 G01 X9.019 Y-20.228
N1572 G03 X12.874 Y-16.078 L19.722
N1573 X14.832 Y-12.761 L22.635
N1574 X16.362 Y-8.903 L24.997
N1575 X17.084 Y-6.094 L29.02
N1576 X17.535 Y-3.155 L30.081
N1577 X17.698 Y-.143 L30.647
N1578 X17.698 Y.001 L30.673
N1579 X17.563 Y2.88 L30.673
N1580 X17.133 Y5.849 L30.151
N1581 X15.969 Y10.072 L26.481
N1582 X13.385 Y15.333 L25.308
N1583 G01 X12.88 Y16.071
N1584 G03 X8.748 Y20.443 L19.95
N1585 G01 X8.026 Y20.97
N1586 G03 X3.734 Y23.054 L15.241
N1587 X-.006 Y23.606 L12.946
N1588 X-4.382 Y22.844 L12.946
N1589 X-8.672 Y20.501 L15.771
N1590 G01 X-9.369 Y19.941
N1591 G03 X-13.176 Y15.639 L20.143
N1592 X-15.08 Y12.238 L22.817
N1593 X-15.513 Y10.319 L4.473
N1594 X-15.512 Y10.232 L4.473
N1595 G01 X-15.431 Y6.058
N1596 X-15.176 Y-7.009 F6000.
N1597 X-15.092 Y-11.269 F5000.
N1598 G03 X-14.469 Y-13.487 L4.666
N1599 X-12.361 Y-16.785 L25.077
N1600 G01 X-11.8 Y-17.481
N1601 G03 X-7.56 Y-21.282 L18.955
N1602 X-2.67 Y-23.324 L14.595
N1603 X.012 Y-23.607 L12.839
N1604 X4.01 Y-22.969 L12.839
N1605 X5.737 Y-22.29 L14.394
N1606 X7.974 Y-19.699 L4.473
N1607 G01 X8.151 Y-19.165
N1608 G00 Z50.

(Operation # 10)
N1609 SB=10000 M242
N1610 X2.183 Y18.289
N1611 Z2.
N1612 G01 Z-29.833
N1613 G41 X2.1 Y22.264
N1614 G03 X.112 Y24.21 L1.988
N1615 X.07 Y24.209 L1.988
N1616 G01 X-.567 Y24.196
N1617 G03 X-4.532 Y23.433 L13.829
N1618 X-7.357 Y22.117 L15.517
N1619 X-10.118 Y20.094 L17.834
N1620 X-12.206 Y17.942 L20.427
N1621 X-14.107 Y15.323 L23.104
N1622 X-15.736 Y12.271 L25.731
N1623 X-17.274 Y7.948 L28.224
N1624 X-18.227 Y2.266 L30.555
N1625 X-18.309 Y.003 L31.236
N1626 X-17.824 Y-5.48 L31.236
N1627 X-16.636 Y-10.019 L29.635
N1628 X-14.841 Y-14.069 L27.144
N1629 X-12.583 Y-17.482 L24.007
N1630 X-10.021 Y-20.179 L20.711
N1631 X-7.303 Y-22.148 L17.965
N1632 X-3.984 Y-23.611 L15.352
N1633 X-.064 Y-24.209 L13.825
N1634 X-.038 Y-24.209 L13.837
N1635 X4.481 Y-23.451 L13.837
N1636 X7.307 Y-22.146 L15.483
N1637 X10.07 Y-20.137 L17.786
N1638 X12.161 Y-17.996 L20.358
N1639 X14.067 Y-15.387 L23.045
N1640 X15.703 Y-12.344 L25.675
N1641 X17.252 Y-8.03 L28.178
N1642 X18.22 Y-2.354 L30.529
N1643 X18.309 Y-.003 L31.244
N1644 X17.839 Y5.395 L31.244
N1645 X16.663 Y9.941 L29.671
N1646 X14.877 Y14.002 L27.195
N1647 X12.626 Y17.427 L24.065
N1648 X10.069 Y20.137 L20.752
N1649 X7.353 Y22.119 L18.015
N1650 X4.034 Y23.596 L15.385
N1651 X.07 Y24.209 L13.79
N1652 G01 X-.43 Y24.199
N1653 G03 X-4.322 Y20.224 L3.976
N1654 X-4.321 Y20.14 L3.976
N1655 G01 G40 X-4.279 Y18.152
N1656 X2.183 Y18.289
N1657 Z-59.667
N1658 G41 X2.1 Y22.264
N1659 G03 X.112 Y24.21 L1.988
N1660 X.07 Y24.209 L1.988
N1661 G01 X-.567 Y24.196
N1662 G03 X-4.532 Y23.433 L13.829
N1663 X-7.357 Y22.117 L15.517
N1664 X-10.118 Y20.094 L17.834
N1665 X-12.206 Y17.942 L20.427
N1666 X-14.107 Y15.323 L23.104
N1667 X-15.736 Y12.271 L25.731
N1668 X-17.274 Y7.948 L28.224
N1669 X-18.227 Y2.266 L30.555
N1670 X-18.309 Y.003 L31.236
N1671 X-17.824 Y-5.48 L31.236
N1672 X-16.636 Y-10.019 L29.635
N1673 X-14.841 Y-14.069 L27.144
N1674 X-12.583 Y-17.482 L24.007
N1675 X-10.021 Y-20.179 L20.711
N1676 X-7.303 Y-22.148 L17.965
N1677 X-3.984 Y-23.611 L15.352
N1678 X-.064 Y-24.209 L13.825
N1679 X-.038 Y-24.209 L13.837
N1680 X4.481 Y-23.451 L13.837
N1681 X7.307 Y-22.146 L15.483
N1682 X10.07 Y-20.137 L17.786
N1683 X12.161 Y-17.996 L20.358
N1684 X14.067 Y-15.387 L23.045
N1685 X15.703 Y-12.344 L25.675
N1686 X17.252 Y-8.03 L28.178
N1687 X18.22 Y-2.354 L30.529
N1688 X18.309 Y-.003 L31.244
N1689 X17.839 Y5.395 L31.244
N1690 X16.663 Y9.941 L29.671
N1691 X14.877 Y14.002 L27.195
N1692 X12.626 Y17.427 L24.065
N1693 X10.069 Y20.137 L20.752
N1694 X7.353 Y22.119 L18.015
N1695 X4.034 Y23.596 L15.385
N1696 X.07 Y24.209 L13.79
N1697 G01 X-.43 Y24.199
N1698 G03 X-4.322 Y20.224 L3.976
N1699 X-4.321 Y20.14 L3.976
N1700 G01 G40 X-4.279 Y18.152
N1701 X2.183 Y18.289
N1702 Z-89.5
N1703 G41 X2.1 Y22.264
N1704 G03 X.112 Y24.21 L1.988
N1705 X.07 Y24.209 L1.988
N1706 G01 X-.567 Y24.196
N1707 G03 X-4.532 Y23.433 L13.829
N1708 X-7.357 Y22.117 L15.517
N1709 X-10.118 Y20.094 L17.834
N1710 X-12.206 Y17.942 L20.427
N1711 X-14.107 Y15.323 L23.104
N1712 X-15.736 Y12.271 L25.731
N1713 X-17.274 Y7.948 L28.224
N1714 X-18.227 Y2.266 L30.555
N1715 X-18.309 Y.003 L31.236
N1716 X-17.824 Y-5.48 L31.236
N1717 X-16.636 Y-10.019 L29.635
N1718 X-14.841 Y-14.069 L27.144
N1719 X-12.583 Y-17.482 L24.007
N1720 X-10.021 Y-20.179 L20.711
N1721 X-7.303 Y-22.148 L17.965
N1722 X-3.984 Y-23.611 L15.352
N1723 X-.064 Y-24.209 L13.825
N1724 X-.038 Y-24.209 L13.837
N1725 X4.481 Y-23.451 L13.837
N1726 X7.307 Y-22.146 L15.483
N1727 X10.07 Y-20.137 L17.786
N1728 X12.161 Y-17.996 L20.358
N1729 X14.067 Y-15.387 L23.045
N1730 X15.703 Y-12.344 L25.675
N1731 X17.252 Y-8.03 L28.178
N1732 X18.22 Y-2.354 L30.529
N1733 X18.309 Y-.003 L31.244
N1734 X17.839 Y5.395 L31.244
N1735 X16.663 Y9.941 L29.671
N1736 X14.877 Y14.002 L27.195
N1737 X12.626 Y17.427 L24.065
N1738 X10.069 Y20.137 L20.752
N1739 X7.353 Y22.119 L18.015
N1740 X4.034 Y23.596 L15.385
N1741 X.07 Y24.209 L13.79
N1742 G01 X-.43 Y24.199
N1743 G03 X-4.322 Y20.224 L3.976
N1744 X-4.321 Y20.14 L3.976
N1745 G01 G40 X-4.279 Y18.152
N1746 G00 Z50.

(Operation # 11)
N1747 SB=8000 M242
N1748 X25.39 Y61.806
N1749 Z2.
N1750 G01 Z0.
N1751 Y37.95
N1752 Y-37.95
N1753 G02 X19.45 Y-43.89 L5.94
N1754 G01 X-19.45
N1755 G02 X-25.39 Y-37.95 L5.94
N1756 G01 Y37.95
N1757 G02 X-19.45 Y43.89 L5.94
N1758 G01 X19.45
N1759 G02 X25.39 Y37.95 L5.94
N1760 G01 Y37.45
N1761 G00 Z50.

(Operation # 12)
N1762 X4.268 Y20.281
N1763 Z2.
N1764 G01 Z0.
N1765 X4.059 Y30.219
N1766 G03 X.083 Y34.111 L3.976
N1767 X0. Y34.11 L3.976
N1768 G01 X-.984 Y34.089
N1769 X-1.966 Y34.027
N1770 X-2.946 Y33.924
N1771 X-3.922 Y33.779
N1772 X-4.894 Y33.593
N1773 X-5.861 Y33.366
N1774 X-6.821 Y33.098
N1775 X-7.774 Y32.789
N1776 X-8.719 Y32.44
N1777 X-9.655 Y32.05
N1778 X-10.581 Y31.62
N1779 X-11.496 Y31.149
N1780 X-12.399 Y30.639
N1781 X-13.288 Y30.089
N1782 X-14.163 Y29.5
N1783 X-15.022 Y28.872
N1784 X-15.864 Y28.205
N1785 X-16.689 Y27.501
N1786 X-17.495 Y26.759
N1787 X-18.28 Y25.98
N1788 X-19.045 Y25.164
N1789 X-19.786 Y24.314
N1790 X-20.504 Y23.428
N1791 X-21.196 Y22.509
N1792 X-21.863 Y21.557
N1793 X-22.502 Y20.573
N1794 X-23.112 Y19.559
N1795 X-23.692 Y18.515
N1796 X-24.242 Y17.444
N1797 X-24.76 Y16.346
N1798 X-25.245 Y15.222
N1799 X-25.696 Y14.075
N1800 X-26.113 Y12.906
N1801 X-26.493 Y11.717
N1802 X-26.838 Y10.51
N1803 X-27.145 Y9.286
N1804 X-27.414 Y8.047
N1805 X-27.645 Y6.795
N1806 X-27.836 Y5.533
N1807 X-27.989 Y4.261
N1808 X-28.102 Y2.984
N1809 X-28.175 Y1.701
N1810 X-28.208 Y.416
N1811 X-28.201 Y-.869
N1812 X-28.154 Y-2.153
N1813 X-28.067 Y-3.432
N1814 X-27.94 Y-4.706
N1815 X-27.774 Y-5.972
N1816 X-27.569 Y-7.228
N1817 X-27.326 Y-8.471
N1818 X-27.045 Y-9.701
N1819 X-26.727 Y-10.915
N1820 X-26.372 Y-12.111
N1821 X-25.982 Y-13.288
N1822 X-25.556 Y-14.443
N1823 X-25.097 Y-15.576
N1824 X-24.605 Y-16.684
N1825 X-24.081 Y-17.767
N1826 X-23.527 Y-18.822
N1827 X-22.942 Y-19.849
N1828 X-22.329 Y-20.846
N1829 X-21.689 Y-21.812
N1830 X-21.023 Y-22.746
N1831 X-20.331 Y-23.647
N1832 X-19.616 Y-24.514
N1833 X-18.879 Y-25.346
N1834 G03 X-17.341 Y-26.905 L30.309
N1835 X-15.728 Y-28.317 L29.106
N1836 X-14.049 Y-29.58 L27.981
N1837 X-12.313 Y-30.69 L26.953
N1838 X-10.53 Y-31.645 L26.035
N1839 X-8.708 Y-32.444 L25.24
N1840 X-6.854 Y-33.088 L24.576
N1841 X-4.978 Y-33.575 L24.05
N1842 X-2.136 Y-34.012 L23.614
N1843 X0. Y-34.11 L23.35
N1844 X.896 Y-34.093 L23.35
N1845 G01 X1.878 Y-34.034
N1846 X2.858 Y-33.935
N1847 X3.835 Y-33.793
N1848 X4.807 Y-33.611
N1849 X5.774 Y-33.388
N1850 X6.735 Y-33.124
N1851 X7.689 Y-32.819
N1852 X8.635 Y-32.473
N1853 X9.572 Y-32.087
N1854 X10.499 Y-31.66
N1855 X11.415 Y-31.193
N1856 X12.318 Y-30.686
N1857 X13.209 Y-30.14
N1858 X14.085 Y-29.555
N1859 X14.946 Y-28.93
N1860 X15.79 Y-28.267
N1861 X16.616 Y-27.565
N1862 X17.424 Y-26.827
N1863 X18.211 Y-26.051
N1864 X18.977 Y-25.239
N1865 X19.72 Y-24.391
N1866 X20.44 Y-23.509
N1867 X21.135 Y-22.593
N1868 X21.804 Y-21.644
N1869 X22.445 Y-20.663
N1870 X23.058 Y-19.651
N1871 X23.642 Y-18.61
N1872 X24.194 Y-17.541
N1873 X24.715 Y-16.445
N1874 X25.203 Y-15.324
N1875 X25.657 Y-14.179
N1876 X26.077 Y-13.012
N1877 X26.461 Y-11.825
N1878 X26.808 Y-10.619
N1879 X27.119 Y-9.396
N1880 X27.391 Y-8.158
N1881 X27.626 Y-6.908
N1882 X27.821 Y-5.646
N1883 X27.977 Y-4.376
N1884 X28.093 Y-3.098
N1885 X28.17 Y-1.816
N1886 X28.207 Y-.531
N1887 X28.203 Y.754
N1888 X28.16 Y2.038
N1889 X28.076 Y3.318
N1890 X27.953 Y4.592
N1891 X27.791 Y5.859
N1892 X27.589 Y7.115
N1893 X27.35 Y8.36
N1894 X27.072 Y9.591
N1895 X26.757 Y10.807
N1896 X26.405 Y12.005
N1897 X26.018 Y13.183
N1898 X25.596 Y14.341
N1899 X25.14 Y15.476
N1900 X24.651 Y16.586
N1901 X24.13 Y17.671
N1902 X23.578 Y18.729
N1903 X22.996 Y19.758
N1904 X22.385 Y20.758
N1905 X21.748 Y21.726
N1906 X21.083 Y22.663
N1907 X20.394 Y23.567
N1908 X19.681 Y24.437
N1909 X18.946 Y25.273
N1910 G03 X17.411 Y26.838 L30.364
N1911 X15.801 Y28.257 L29.158
N1912 X14.125 Y29.526 L28.03
N1913 X12.392 Y30.643 L26.997
N1914 X10.611 Y31.605 L26.074
N1915 X8.79 Y32.412 L25.273
N1916 X6.938 Y33.062 L24.603
N1917 X5.063 Y33.556 L24.07
N1918 X2.221 Y34.004 L23.627
N1919 X0. Y34.11 L23.359
N1920 G01 X-.5 Y34.099
N1921 G03 X-4.392 Y30.124 L3.976
N1922 X-4.392 Y30.041 L3.976
N1923 G01 X-4.308 Y26.065
N1924 G00 Z50.
N1925 G136
N1926 M146
N1927 G20HP=1.

(Operation # 13)
N1928 G20HP=1.
N1929 ()
N1930 BA=0
N1931 SB=8000 M13 M242
N1932 G138
N1933 G149
N1934 M625
N1935 G00 B5. C90. M15
N1936 X30.527 Y-2.004 Z81.675
N1937 G94
N1938 M867
N1939 G255 X2.004 Y30.527 Z81.675 B5. C90. TDS=7
N1940 G17
N1941 Y22.683 Z-7.983
N1942 Y21.985 Z-15.952
N1943 G01 Y21.811 Z-17.945
N1944 X1.85 Y22.573 Z-18.011
N1945 X1.415 Y23.219 Z-18.068
N1946 X.766 Y23.649 Z-18.105
N1947 X0. Y23.799 Z-18.118
N1948 X-.055 C90.251
N1949 X-.945 Y23.764 C94.213
N1950 X-1.845 Y23.667 C98.093
N1951 X-2.797 Y23.497 C102.186
N1952 X-3.705 Y23.267 C106.197
N1953 X-4.637 Y22.96 C110.21
N1954 X-5.57 Y22.58 C114.074
N1955 X-6.492 Y22.131 C117.839
N1956 X-7.391 Y21.619 C121.557
N1957 X-8.253 Y21.05 C125.179
N1958 X-9.112 Y20.405 C128.673
N1959 X-9.95 Y19.692 C132.021
N1960 X-10.807 Y18.871 C135.445
N1961 X-11.625 Y17.99 C138.782
N1962 X-12.373 Y17.088 C141.963
N1963 X-13.107 Y16.093 C145.108
N1964 X-13.798 Y15.045 C148.148
N1965 X-14.473 Y13.887 C151.274
N1966 X-15.087 Y12.694 C154.283
N1967 X-15.65 Y11.444 C157.236
N1968 X-16.152 Y10.156 C160.124
N1969 X-16.588 Y8.851 C162.926
N1970 X-16.967 Y7.5 C165.701
N1971 X-17.298 Y6.052 C168.575
N1972 X-17.552 Y4.612 C171.368
N1973 X-17.74 Y3.127 C174.18
N1974 X-17.856 Y1.632 C176.972
N1975 X-17.899 Y.153 C179.723
N1976 X-17.87 Y-1.349 C182.502
N1977 X-17.768 Y-2.846 C185.287
N1978 X-17.593 Y-4.333 C188.099
N1979 X-17.356 Y-5.758 C190.852
N1980 X-17.039 Y-7.211 C193.716
N1981 X-16.674 Y-8.567 C196.479
N1982 X-16.245 Y-9.896 C199.308
N1983 X-15.754 Y-11.19 C202.186
N1984 X-15.203 Y-12.449 C205.123
N1985 X-14.595 Y-13.664 C208.145
N1986 X-13.939 Y-14.815 C211.231
N1987 X-13.258 Y-15.874 C214.251
N1988 X-12.53 Y-16.883 C217.355
N1989 X-11.761 Y-17.834 C220.571
N1990 X-10.947 Y-18.731 C223.962
N1991 X-10.101 Y-19.557 C227.41
N1992 X-9.268 Y-20.279 C230.749
N1993 X-8.411 Y-20.938 C234.205
N1994 X-7.536 Y-21.528 C237.829
N1995 X-6.643 Y-22.051 C241.545
N1996 X-5.724 Y-22.511 C245.298
N1997 X-4.791 Y-22.903 C249.142
N1998 X-3.858 Y-23.222 C253.128
N1999 X-2.938 Y-23.465 C257.2
N2000 X-1.988 Y-23.646 C261.294
N2001 X-1.088 Y-23.753 C265.166
N2002 X-.195 Y-23.798 C269.11
N2003 X.721 Y-23.779 C273.232
N2004 X1.62 Y-23.697 C277.127
N2005 X2.574 Y-23.543 C281.223
N2006 X3.487 Y-23.328 C285.225
N2007 X4.417 Y-23.039 C289.281
N2008 X5.351 Y-22.676 C293.176
N2009 X6.277 Y-22.243 C296.959
N2010 X7.182 Y-21.745 C300.683
N2011 X8.049 Y-21.192 C304.332
N2012 X8.911 Y-20.563 C307.865
N2013 X9.755 Y-19.865 C311.245
N2014 X10.62 Y-19.059 C314.693
N2015 X11.447 Y-18.191 C318.045
N2016 X12.229 Y-17.269 C321.344
N2017 X12.988 Y-16.263 C324.591
N2018 X13.686 Y-15.223 C327.648
N2019 X14.37 Y-14.073 C330.785
N2020 X14.993 Y-12.888 C333.81
N2021 X15.565 Y-11.644 C336.775
N2022 X16.077 Y-10.361 C339.671
N2023 X16.522 Y-9.061 C342.483
N2024 X16.912 Y-7.715 C345.266
N2025 X17.237 Y-6.344 C348.003
N2026 X17.506 Y-4.907 C350.802
N2027 X17.709 Y-3.425 C353.62
N2028 X17.839 Y-1.932 C356.414
N2029 X17.896 Y-.453 C359.166
N2030 X17.881 Y1.049 C1.946
N2031 X17.794 Y2.548 C4.729
N2032 X17.634 Y4.037 C7.534
N2033 X17.41 Y5.465 C10.282
N2034 X17.108 Y6.922 C13.14
N2035 X16.756 Y8.284 C15.893
N2036 X16.341 Y9.617 C18.703
N2037 X15.863 Y10.921 C21.576
N2038 X15.324 Y12.187 C24.499
N2039 X14.727 Y13.412 C27.501
N2040 X14.083 Y14.573 C30.568
N2041 X13.413 Y15.642 C33.573
N2042 X12.696 Y16.663 C36.656
N2043 X11.935 Y17.628 C39.845
N2044 X11.129 Y18.54 C43.204
N2045 X10.292 Y19.379 C46.637
N2046 X9.417 Y20.156 C50.152
N2047 X8.564 Y20.827 C53.585
N2048 X7.691 Y21.429 C57.169
N2049 X6.803 Y21.963 C60.888
N2050 X5.887 Y22.434 C64.631
N2051 X4.956 Y22.839 C68.455
N2052 X4.022 Y23.171 C72.412
N2053 X3.104 Y23.427 C76.475
N2054 X2.157 Y23.619 C80.572
N2055 X1.257 Y23.737 C84.436
N2056 X.362 Y23.794 C88.363
N2057 X0. Y23.799 C90.
N2058 X-.766 Y23.648 Z-18.105
N2059 X-1.415 Y23.217 Z-18.068
N2060 X-1.849 Y22.571 Z-18.011
N2061 X-2.002 Y21.809 Z-17.944
N2062 G00 Y30.525 Z81.675
N2063 G254 X30.525 Y2.002 Z81.675 B5. C90.
N2064 M866
N2065 G00 X9999.
N2066 G00 B0.
N2067 M12
N2068 G148
N2069 M404
N2070 G136
N2071 M50
N2072 G20HP=1.
N2073 M109
N2074 M01

(Operation # 14)
(4212  | EB. 3T DIAM. 12  | DIA. -  12)
N2075 M110
N2076 G20HP=1.
N2077 TD=074212 M323 (B0.)
N2078 MT=000501
N2079 SB=8000 M13 M242
N2080 G20 HP=4 (SAFE MOVE -- NOT SIMULATED)
N2081 G00 C0. M16
N2082 M147
N2083 G138
N2084 M51
N2085 G94 G17 Z50.5
N2086 X-35.95 Y-49.95
N2087 Z2.5
N2088 G01 Z.5 F5000.
N2089 G41 Y-37.95 F4000.
N2090 Y37.95
N2091 G02 X-19.45 Y54.45 L16.5
N2092 G01 X19.45
N2093 G02 X35.95 Y37.95 L16.5
N2094 G01 Y-37.95
N2095 G02 X19.45 Y-54.45 L16.5
N2096 G01 X-19.45
N2097 G02 X-35.95 Y-37.95 L16.5
N2098 G01 Y-37.45
N2099 G03 X-37.15 Y-36.25 L1.2
N2100 G01 G40 X-39.55
N2101 G00 Z50.5

(Operation # 15)
N2102 X-1.189 Y-28.411
N2103 Z2.5
N2104 G01 Z.5 F5000.
N2105 G41 X-1.16 Y-29.611 F4000.
N2106 G03 X.04 Y-30.782 L1.2
N2107 X.069 Y-30.782 L1.2
N2108 G01 X.902 Y-30.762
N2109 G03 X4.293 Y-30.318 L20.052
N2110 X6.03 Y-29.859 L19.992
N2111 X8.505 Y-28.919 L21.23
N2112 X10.861 Y-27.681 L22.267
N2113 X13.808 Y-25.587 L24.262
N2114 X16.402 Y-23.123 L26.369
N2115 X18.761 Y-20.193 L28.753
N2116 X20.259 Y-17.845 L30.569
N2117 X21.684 Y-15.071 L32.529
N2118 X23.017 Y-11.672 L34.259
N2119 X24.168 Y-7.304 L36.139
N2120 X24.845 Y-1.669 L37.365
N2121 X24.882 Y.004 L37.765
N2122 X24.462 Y5.62 L37.765
N2123 X23.93 Y8.415 L36.652
N2124 X23.189 Y11.139 L36.371
N2125 X22.24 Y13.778 L35.248
N2126 X21.075 Y16.337 L33.879
N2127 X19.714 Y18.754 L31.776
N2128 X18.542 Y20.5 L30.924
N2129 X16.383 Y23.144 L28.719
N2130 X14.938 Y24.596 L26.67
N2131 X12.981 Y26.242 L25.872
N2132 X10.043 Y28.151 L23.783
N2133 X6.863 Y29.581 L22.038
N2134 X5.213 Y30.096 L21.482
N2135 X2.619 Y30.61 L20.44
N2136 X-.002 Y30.782 L19.979
N2137 X-2.453 Y30.631 L19.979
N2138 X-6.001 Y29.869 L20.462
N2139 X-8.48 Y28.93 L21.384
N2140 X-10.871 Y27.675 L22.377
N2141 X-13.096 Y26.155 L23.782
N2142 X-15.174 Y24.373 L25.497
N2143 X-17.065 Y22.377 L27.156
N2144 X-18.981 Y19.876 L29.179
N2145 X-20.28 Y17.808 L30.563
N2146 X-21.568 Y15.323 L32.215
N2147 X-22.645 Y12.733 L33.677
N2148 X-23.522 Y10.019 L35.177
N2149 X-24.462 Y5.622 L36.726
N2150 X-24.882 Y.005 L37.748
N2151 X-24.882 Y-.008 L37.748
N2152 X-24.775 Y-2.85 L37.733
N2153 X-24.453 Y-5.681 L38.073
N2154 X-23.921 Y-8.456 L37.364
N2155 X-22.808 Y-12.283 L35.784
N2156 X-21.049 Y-16.388 L33.923
N2157 X-19.68 Y-18.809 L32.145
N2158 X-17.883 Y-21.377 L30.119
N2159 X-16.338 Y-23.192 L28.644
N2160 X-14.955 Y-24.58 L27.3
N2161 X-12.525 Y-26.581 L25.304
N2162 X-9.98 Y-28.185 L23.823
N2163 X-7.613 Y-29.299 L22.36
N2164 X-6.032 Y-29.86 L21.623
N2165 X-2.561 Y-30.618 L20.724
N2166 X-.003 Y-30.782 L20.053
N2167 X.069 Y-30.782 L20.053
N2168 G01 X.569 Y-30.77
N2169 G03 X1.74 Y-29.57 L1.2
N2170 X1.739 Y-29.541 L1.2
N2171 G01 G40 X1.711 Y-28.341
N2172 G00 Z50.5
N2173 G136
N2174 M146
N2175 M50
N2176 G20HP=1.
N2177 M12
N2178 M109
N2179 M01
N2180 M89

(Operation # 17)
(5  | 2 Fraise Sph?rique/Torique  | DIA. -  2)
N2181 M110
N2182 G20HP=1.
N2183 TD=070005 M323 (B0.)
N2184 MT=302001
N2185 SB=8000 M13 M242
N2186 G20 HP=4 (SAFE MOVE -- NOT SIMULATED)
N2187 G00 C0. M16
N2188 M147
N2189 G138
N2190 M51
N2191 G94 G17 Z50.
N2192 X9.566 Y-44.128
N2193 Z.5
N2194 G01 Z-.2 F3000.
N2195 X9.729 Y-44.395
N2196 X9.95 Y-44.658
N2197 X10.187 Y-44.865
N2198 G03 X10.742 Y-45.189 L2.6
N2199 G01 X11.039 Y-45.294
N2200 X11.345 Y-45.359
N2201 X11.646 Y-45.381
N2202 X11.984 Y-45.361
N2203 X12.306 Y-45.302
N2204 G03 X13.007 Y-45.02 L2.785
N2205 G01 X13.312 Y-44.827
N2206 G03 X13.678 Y-44.523 L3.233
N2207 X14.066 Y-44.056 L2.713
N2208 X14.307 Y-43.604 L2.857
N2209 G01 X14.405 Y-43.331
N2210 X14.483 Y-43.004
N2211 G03 X14.532 Y-42.427 L3.404
N2212 X14.523 Y-42.181 L3.404
N2213 G01 X14.477 Y-41.834
N2214 X14.394 Y-41.506
N2215 G03 X14.192 Y-41.026 L3.031
N2216 G01 X14.011 Y-40.723
N2217 G03 X13.712 Y-40.348 L3.053
N2218 X12.873 Y-39.74 L2.703
N2219 X12.563 Y-39.618 L2.64
N2220 G01 X12.25 Y-39.539
N2221 G03 X11.733 Y-39.492 L2.832
N2222 G01 X11.729
N2223 X11.356 Y-39.518
N2224 X10.988 Y-39.585
N2225 G03 X10.164 Y-39.886 L3.759
N2226 G01 X9.839 Y-40.073
N2227 X9.541 Y-40.291
N2228 X9.373 Y-40.437
N2229 Y-42.145
N2230 X11.435
N2231 G00 Z.3
N2232 Z.5
N2233 X8.004 Y-41.476
N2234 G01 Z-.2
N2235 X6.219
N2236 G00 Z.3
N2237 Z.5
N2238 X1.403 Y-40.803
N2239 G01 Z-.2
N2240 X1.301 Y-41.397
N2241 X1.241 Y-41.985
N2242 X1.221 Y-42.568
N2243 X1.242 Y-43.149
N2244 G03 X1.341 Y-43.973 L8.521
N2245 G01 X1.419 Y-44.261
N2246 X1.539 Y-44.533
N2247 G03 X1.763 Y-44.85 L1.553
N2248 X1.991 Y-45.051 L1.588
N2249 X2.353 Y-45.246 L1.581
N2250 X2.897 Y-45.381 L2.315
N2251 G01 X3.155 Y-45.365
N2252 X3.389 Y-45.311
N2253 X3.476 Y-45.28
N2254 X3.73 Y-45.157
N2255 X3.959 Y-45.001
N2256 X4.162 Y-44.814
N2257 X4.335 Y-44.599
N2258 X4.407 Y-44.479
N2259 X4.486 Y-44.282
N2260 G03 X4.624 Y-43.488 L9.497
N2261 G01 X4.677 Y-42.918
N2262 X4.688 Y-42.351
N2263 X4.66 Y-41.784
N2264 G03 X4.47 Y-40.578 L8.852
N2265 X4.253 Y-40.157 L1.382
N2266 G01 X4.083 Y-39.959
N2267 G03 X3.498 Y-39.586 L1.581
N2268 X2.961 Y-39.492 L1.574
N2269 G01 X2.959
N2270 X2.704 Y-39.512
N2271 X2.406 Y-39.586
N2272 G03 X2.065 Y-39.753 L1.455
N2273 G01 X1.933 Y-39.856
N2274 X1.748 Y-40.048
N2275 X1.586 Y-40.276
N2276 G03 X1.439 Y-40.611 L1.295
N2277 G01 X1.403 Y-40.798
N2278 G00 Z.3
N2279 Z.5
N2280 X-.314 Y-43.862
N2281 G01 Z-.2
N2282 X-.66 Y-44.041
N2283 X-.97 Y-44.246
N2284 X-1.277 Y-44.504
N2285 X-1.556 Y-44.798
N2286 G03 X-1.994 Y-45.408 L4.42
N2287 G01 Y-39.466
N2288 G00 Z.3
N2289 Z.5
N2290 X-3.39 Y-40.61
N2291 G01 Z-.2
N2292 X-3.504 Y-40.37
N2293 X-3.659 Y-40.145
N2294 X-3.84 Y-39.953
N2295 X-4.046 Y-39.795
N2296 X-4.277 Y-39.669
N2297 G03 X-4.807 Y-39.512 L2.056
N2298 G01 X-5.076 Y-39.492
N2299 X-5.342 Y-39.512
N2300 G03 X-5.9 Y-39.699 L1.737
N2301 X-6.433 Y-40.127 L1.859
N2302 X-6.721 Y-40.56 L2.013
N2303 G01 X-6.789 Y-40.723
N2304 X-6.85 Y-40.961
N2305 G03 X-6.877 Y-41.267 L1.784
N2306 X-6.857 Y-41.534 L1.784
N2307 X-6.641 Y-42.129 L1.712
N2308 G01 X-6.485 Y-42.363
N2309 G03 X-6.211 Y-42.644 L1.689
N2310 X-5.605 Y-42.958 L1.772
N2311 G01 X-5.343 Y-43.015
N2312 X-5.092 Y-43.032
N2313 X-4.792 Y-43.012
N2314 X-4.517 Y-42.954
N2315 G03 X-4.151 Y-42.802 L1.657
N2316 G01 X-3.948 Y-42.663
N2317 G03 X-3.708 Y-42.422 L1.855
N2318 G01 X-4.214 Y-45.324
N2319 X-6.699
N2320 G00 Z.3
N2321 Z.5
N2322 X-8.357 Y-44.207
N2323 G01 Z-.2
N2324 X-8.441 Y-44.455
N2325 X-8.563 Y-44.682
N2326 X-8.708 Y-44.87
N2327 X-8.91 Y-45.052
N2328 X-9.11 Y-45.176
N2329 X-9.372 Y-45.277
N2330 X-9.647 Y-45.331
N2331 G02 X-9.886 Y-45.346 L1.959
N2332 X-10.165 Y-45.326 L1.959
N2333 G01 X-10.414 Y-45.268
N2334 X-10.479 Y-45.246
N2335 X-10.71 Y-45.139
N2336 X-10.959 Y-44.964
N2337 X-11.122 Y-44.797
N2338 G02 X-11.296 Y-44.522 L1.398
N2339 G01 X-11.376 Y-44.312
N2340 G02 X-11.427 Y-43.951 L1.44
N2341 G01 X-11.407 Y-43.715
N2342 X-11.338 Y-43.471
N2343 X-11.236 Y-43.268
N2344 X-11.085 Y-43.071
N2345 G02 X-10.698 Y-42.773 L1.566
N2346 G01 X-10.505 Y-42.689
N2347 G02 X-10.21 Y-42.634 L1.19
N2348 G00 Z.3
N2349 Z.5
N2350 X-9.908 Y-42.645
N2351 G01 Z-.2
N2352 X-10.184 Y-42.625
N2353 G02 X-10.579 Y-42.522 L1.915
N2354 G01 X-10.831 Y-42.406
N2355 X-11.046 Y-42.264
N2356 X-11.137 Y-42.186
N2357 X-11.322 Y-41.989
N2358 G02 X-11.526 Y-41.68 L1.976
N2359 G01 X-11.617 Y-41.467
N2360 G02 X-11.682 Y-41.058 L1.321
N2361 G01 Y-41.054
N2362 X-11.662 Y-40.823
N2363 G02 X-11.549 Y-40.465 L1.468
N2364 G01 X-11.429 Y-40.251
N2365 G02 X-11.171 Y-39.959 L1.546
N2366 G01 X-10.953 Y-39.794
N2367 G02 X-10.612 Y-39.617 L1.97
N2368 G01 X-10.368 Y-39.541
N2369 G02 X-9.921 Y-39.492 L2.045
N2370 X-9.636 Y-39.512 L2.045
N2371 X-9.367 Y-39.573 L1.852
N2372 G01 X-9.086 Y-39.68
N2373 G02 X-8.678 Y-39.933 L1.765
N2374 X-8.479 Y-40.15 L1.41
N2375 X-8.206 Y-40.625 L2.804
N2376 G00 Z.3
N2377 Z.5
N2378 X-18.892 Y37.742
N2379 G01 Z-.2
N2380 X-15.101
N2381 Y43.518
N2382 X-18.892
N2383 G00 Z.3
N2384 Z.5
N2385 X-18.672 Y40.504
N2386 G01 Z-.2
N2387 X-15.101
N2388 G00 Z.3
N2389 Z.5
N2390 X-9.615 Y40.838
N2391 G01 Z-.2
N2392 X-11.901
N2393 X-12.176 Y40.818
N2394 X-12.531 Y40.739
N2395 G03 X-12.931 Y40.564 L1.798
N2396 X-13.244 Y40.325 L1.722
N2397 X-13.546 Y39.938 L1.746
N2398 G01 X-13.62 Y39.789
N2399 X-13.685 Y39.577
N2400 X-13.713 Y39.293
N2401 X-13.693 Y39.055
N2402 X-13.635 Y38.837
N2403 G03 X-13.335 Y38.35 L1.55
N2404 X-13.121 Y38.147 L1.856
N2405 G01 X-12.987 Y38.05
N2406 G03 X-12.368 Y37.798 L1.848
N2407 G01 X-12.07 Y37.75
N2408 X-11.901 Y37.742
N2409 X-9.615
N2410 Y43.601
N2411 G00 Z.3
N2412 Z.5
N2413 X1.036 Y43.518
N2414 G01 Z-.2
N2415 X4.356
N2416 Y37.658
N2417 G00 Z.3
N2418 Z.5
N2419 X5.738 Y43.601
N2420 G01 Z-.2
N2421 Y37.685
N2422 X6.155
N2423 X8.389 Y43.601
N2424 X10.619 Y37.685
N2425 X11.042
N2426 Y43.601
N2427 G00 Z.3
N2428 Z.5
N2429 X12.744 Y42.268
N2430 G01 Z-.2
N2431 X12.79 Y42.488
N2432 G02 X12.927 Y42.791 L1.305
N2433 G01 X13.095 Y43.024
N2434 G02 X13.454 Y43.343 L1.496
N2435 X13.747 Y43.48 L1.495
N2436 G01 X14.009 Y43.548
N2437 X14.301 Y43.574
N2438 X14.553 Y43.554
N2439 X14.839 Y43.48
N2440 X15.071 Y43.375
N2441 X15.312 Y43.21
N2442 X15.495 Y43.032
N2443 X15.674 Y42.791
N2444 X15.778 Y42.583
N2445 X15.841 Y42.369
N2446 X15.956 Y41.697
N2447 X16.013 Y41.128
N2448 X16.031 Y40.56
N2449 X16.008 Y39.993
N2450 G02 X15.825 Y38.775 L8.415
N2451 G01 X15.742 Y38.576
N2452 X15.676 Y38.467
N2453 X15.504 Y38.253
N2454 X15.301 Y38.065
N2455 X15.075 Y37.911
N2456 X14.818 Y37.786
N2457 X14.593 Y37.718
N2458 G02 X14.27 Y37.685 L1.587
N2459 X14.239 Y37.685 L1.587
N2460 G01 X13.937 Y37.743
N2461 G02 X13.465 Y37.929 L1.942
N2462 X13.225 Y38.1 L1.563
N2463 G01 X13.055 Y38.273
N2464 G02 X12.88 Y38.533 L1.582
N2465 G01 X12.769 Y38.783
N2466 X12.682 Y39.093
N2467 X12.604 Y39.674
N2468 X12.567 Y40.253
N2469 X12.569 Y40.835
N2470 X12.612 Y41.418
N2471 G02 X12.744 Y42.263 L8.966
N2472 G00 Z.3
N2473 Z.5
N2474 X17.887
N2475 G01 Z-.2
N2476 X17.785 Y41.669
N2477 X17.725 Y41.081
N2478 X17.706 Y40.498
N2479 X17.727 Y39.917
N2480 G03 X17.825 Y39.093 L8.521
N2481 G01 X17.904 Y38.805
N2482 X18.023 Y38.533
N2483 G03 X18.247 Y38.216 L1.553
N2484 X18.475 Y38.015 L1.588
N2485 X18.838 Y37.82 L1.581
N2486 X19.382 Y37.685 L2.315
N2487 G01 X19.639 Y37.701
N2488 X19.873 Y37.755
N2489 X19.96 Y37.786
N2490 X20.214 Y37.909
N2491 X20.444 Y38.065
N2492 X20.646 Y38.252
N2493 X20.819 Y38.467
N2494 X20.891 Y38.587
N2495 X20.97 Y38.785
N2496 G03 X21.109 Y39.578 L9.497
N2497 G01 X21.161 Y40.148
N2498 X21.173 Y40.716
N2499 X21.145 Y41.282
N2500 G03 X20.954 Y42.488 L8.852
N2501 X20.737 Y42.909 L1.382
N2502 G01 X20.568 Y43.107
N2503 G03 X19.982 Y43.48 L1.581
N2504 X19.445 Y43.574 L1.574
N2505 G01 X19.444
N2506 X19.189 Y43.554
N2507 X18.89 Y43.48
N2508 G03 X18.55 Y43.313 L1.455
N2509 G01 X18.418 Y43.21
N2510 X18.232 Y43.018
N2511 X18.07 Y42.791
N2512 G03 X17.923 Y42.455 L1.295
N2513 G01 X17.887 Y42.268
N2514 G00 Z.3
N2515 Z.5
N2516 X22.707 Y41.955
N2517 G01 Z-.2
N2518 X26.549
N2519 X23.542 Y37.658
N2520 Y43.601
N2521 G00 Z.3
N2522 Z.5
N2523 X-20.255 Y37.742
N2524 G01 Z-.2
N2525 X-24.631
N2526 G00 Z.3
N2527 Z.5
N2528 X-22.458
N2529 G01 Z-.2
N2530 Y43.601
N2531 G00 Z50.
N2532 G136
N2533 M146
N2534 M50
N2535 G20HP=1.
N2536 M12
N2537 M109
N2538 M01
N2539 M88






N2540 (TRANSFERT VERS GAUCHE)
(TRANSFERT CHARGE A GAUCHE W-32.5)
G140


G20 HP=1
T1000
G50 S500
G141
G50 S500
G140
M185 ( ANNUL SECU MORS G )
M84 ( OUVERTURE MORS G )
M89 M289 ( SOUFFLAGE G+D )
M151 ( SYNCHRO BROCHE )
M3 M41 S10
G00 W565.56 (GARDE W20)
M88 M288 ( SOUFFLAGE OFF )
N0118 G29 PW=50  ( CHARGE MAXI )
N0119 G94 G22 W513.06 D5 L2 F500 PW=20 (CYCLE DE TRANFERT D5 RALENTISSEMENT L2 PLAGE PW=20 CHARGE A TROUVER )
N0120 G29 PW=5 ( RELACHEMENT A 5% DE CHARGE )
M83 ( FERMETURE MORS G )
M184 ( SECU MORS GAUCHE ON )
G28 ( ANNULATION CYCLE G29 )

G4F1
M247 ( SECU MORS DROIT OFF )
M249 ( OUVERTURE MORS DROIT )
G04 F1
G94 G00 W3000 (G95 SI TOURNAGE)
M05 ( ARRET ROTATION )
M150 ( ARRET SYNCHRO )
 M184 ( SECU MORS OUVERT OFF )















N2541 G140
(Operation # 19)
(3020  | 19.88 Fraise torique  | DIA. -  19.88)
N2542 M110
N2543 G20HP=1.
N2544 TD=013020 M323 (B0.)
N2545 MT=331001
N2546 SB=8000 M13 M242
N2547 M146
N2548 G20 HP=4 (SAFE MOVE -- NOT SIMULATED)
N2549 G00 C0. M16
N2550 M147
N2551 G138
N2552 M51
N2553 G94 G17 Z50.
N2554 X-35.689 Y-67.445
N2555 Z12.
N2556 G01 Z0. F5000.
N2557 X-38.223 Y-61.3
N2558 X-38.806 Y-59.886
N2559 G03 X-39.779 Y-58.429 L4.473
N2560 G01 X-40.082 Y-57.986
N2561 X-40.578 Y-57.069
N2562 X-40.929 Y-56.187
N2563 X-41.154 Y-55.428
N2564 X-41.442 Y-54.151
N2565 G02 X-41.77 Y-50.979 L19.453
N2566 X-41.778 Y-50.149 L43.342
N2567 X-41.7 Y-47.548 L43.342
N2568 G01 X-41.654 Y-46.743
N2569 X-41.366 Y-42.778
N2570 X-40.127 Y-28.268
N2571 X-33.984 Y42.368
N2572 G02 X-33.844 Y43.544 L9.792
N2573 X-33.073 Y45.579 L6.409
N2574 X-31.89 Y47.168 L8.749
N2575 X-30.127 Y48.713 L11.52
N2576 X-27.136 Y50.376 L15.619
N2577 X-22.883 Y51.692 L22.863
N2578 X-17.552 Y52.402 L37.918
N2579 X-13.244 Y52.532 L71.498
N2580 X-10.4 Y52.475 L71.498
N2581 G01 X-9.506 Y52.442
N2582 X-5.929 Y52.255
N2583 X-.551 Y51.879
N2584 X8.462 Y51.145
N2585 X24.769 Y49.732
N2586 G02 X25.872 Y49.531 L10.434
N2587 X27.359 Y48.931 L6.798
N2588 X29.11 Y47.684 L8.944
N2589 X30.769 Y45.823 L11.665
N2590 X32.505 Y42.702 L15.794
N2591 X33.633 Y39.229 L22.462
N2592 X34.455 Y33.848 L35.138
N2593 X34.632 Y29.146 L62.608
N2594 X34.612 Y27.579 L62.608
N2595 G01 X34.591 Y26.687
N2596 X34.484 Y24.014
N2597 X34.276 Y20.453
N2598 X33.886 Y15.103
N2599 X32.994 Y4.344
N2600 X29.495 Y-36.04
N2601 X29.306 Y-38.843
N2602 X29.037 Y-44.382
N2603 X28.975 Y-45.274
N2604 G02 X28.66 Y-46.585 L7.08
N2605 G01 X28.367 Y-47.32
N2606 X27.975 Y-48.078
N2607 X27.485 Y-48.837
N2608 X26.903 Y-49.578
N2609 X26.238 Y-50.285
N2610 G02 X24.707 Y-51.557 L12.701
N2611 X22.088 Y-53.042 L15.418
N2612 X18.368 Y-54.297 L21.339
N2613 X13.722 Y-55.044 L31.927
N2614 X8.837 Y-55.254 L56.93
N2615 X7.408 Y-55.236 L56.93
N2616 X5.637 Y-55.187 L98.957
N2617 G01 X4.754 Y-55.151
N2618 X1.238 Y-54.96
N2619 X-4.023 Y-54.585
N2620 X-13.694 Y-53.79
N2621 X-23.881 Y-52.906
N2622 G02 X-26.343 Y-52.014 L6.33
N2623 X-27.938 Y-50.75 L8.518
N2624 X-29.444 Y-48.878 L11.18
N2625 X-30.975 Y-45.731 L15.181
N2626 X-31.88 Y-42.228 L21.332
N2627 X-32.31 Y-37.72 L31.388
N2628 X-32.324 Y-36.488 L53.563
N2629 X-32.086 Y-31.443 L53.563
N2630 X-31.585 Y-27.007 L98.561
N2631 G01 X-31.465 Y-26.123
N2632 X-30.944 Y-22.588
N2633 X-29.939 Y-16.396
N2634 X-27.793 Y-3.935
N2635 X-21.743 Y30.646
N2636 X-21.271 Y33.444
N2637 G02 X-19.965 Y36.047 L6.347
N2638 X-18.243 Y37.653 L9.169
N2639 X-15.761 Y39.062 L13.184
N2640 X-11.942 Y40.241 L18.739
N2641 X-6.856 Y40.801 L30.649
N2642 X-5.413 Y40.821 L53.181
N2643 X-.679 Y40.61 L53.181
N2644 X3.796 Y40.122 L93.464
N2645 G01 X4.695 Y40.002
N2646 X8.304 Y39.474
N2647 X13.753 Y38.594
N2648 G02 X15.038 Y38.362 L14.732
N2649 X17.927 Y36.768 L6.442
N2650 X19.429 Y34.971 L9.714
N2651 X20.97 Y31.777 L14.135
N2652 X21.891 Y27.893 L21.306
N2653 X22.231 Y23.031 L34.937
N2654 X22.231 Y22.795 L34.937
N2655 X21.88 Y16.601 L61.117
N2656 X21.679 Y14.805 L95.371
N2657 G01 X21.566 Y13.903
N2658 X21.057 Y10.277
N2659 X20.335 Y5.708
N2660 X19.254 Y-.75
N2661 X18.839 Y-3.519
N2662 X18.359 Y-7.178
N2663 X17.836 Y-11.711
N2664 X17.189 Y-18.01
N2665 X16.35 Y-26.959
N2666 X15.976 Y-31.471
N2667 X15.623 Y-36.243
N2668 G02 X14.331 Y-39.36 L6.354
N2669 X12.511 Y-41.16 L9.365
N2670 X9.879 Y-42.708 L13.308
N2671 X6.726 Y-43.776 L18.427
N2672 X2.442 Y-44.444 L26.746
N2673 X-.8 Y-44.564 L43.799
N2674 X-2.863 Y-44.515 L43.799
N2675 X-9.993 Y-43.859 L82.201
N2676 G01 X-10.886 Y-43.74
N2677 G02 X-13.248 Y-43.391 L88.452
N2678 X-16.232 Y-41.883 L6.483
N2679 X-17.82 Y-40.051 L9.186
N2680 X-19.126 Y-37.492 L12.853
N2681 X-20.103 Y-33.616 L17.943
N2682 X-20.368 Y-29.708 L28.962
N2683 X-20.344 Y-28.51 L28.962
N2684 X-19.711 Y-22.374 L49.545
N2685 X-18.491 Y-16.194 L95.274
N2686 G01 X-18.288 Y-15.309
N2687 X-17.214 Y-10.871
N2688 X-15.378 Y-3.725
N2689 X-12.281 Y8.02
N2690 X-11.618 Y10.746
N2691 X-10.813 Y14.353
N2692 X-9.892 Y18.827
N2693 X-9.173 Y22.474
N2694 G02 X-7.797 Y25.115 L6.345
N2695 X-5.902 Y26.776 L9.13
N2696 X-3.203 Y28.137 L13.037
N2697 X-.001 Y28.982 L17.895
N2698 X3.289 Y29.291 L22.324
N2699 X6.483 Y28.404 L6.296
N2700 X8.009 Y27.237 L8.068
N2701 X9.439 Y25.519 L10.397
N2702 X10.924 Y22.572 L13.849
N2703 X11.799 Y19.191 L18.643
N2704 X12.135 Y14.959 L26.801
N2705 X12.134 Y14.749 L26.801
N2706 X11.764 Y9.397 L43.717
N2707 X10.924 Y4.099 L94.489
N2708 G01 X10.761 Y3.22
N2709 X8.022 Y-10.92
N2710 X6.366 Y-19.865
N2711 X5.42 Y-25.282
N2712 G02 X4.049 Y-28.265 L6.308
N2713 X2.343 Y-29.835 L8.659
N2714 X-.847 Y-31.443 L12.369
N2715 X-2.291 Y-31.839 L12.549
N2716 X-3.409 Y-31.94 L6.258
N2717 X-5.728 Y-31.494 L6.258
N2718 G01 X-6.418 Y-31.169
N2719 X-7.116 Y-30.734
N2720 X-7.799 Y-30.19
N2721 X-8.444 Y-29.544
N2722 X-9.034 Y-28.81
N2723 X-9.56 Y-28.003
N2724 X-10.015 Y-27.139
N2725 G02 X-10.716 Y-25.302 L13.159
N2726 X-11.304 Y-22.424 L16.84
N2727 X-11.462 Y-19.649 L24.534
N2728 X-11.381 Y-17.663 L24.534
N2729 X-10.533 Y-12.231 L38.075
N2730 X-9.651 Y-8.757 L71.278
N2731 G03 X-8.478 Y-3.46 L63.984
N2732 G01 X-8.313 Y-2.559
N2733 X-6.855 Y5.504
N2734 X-6.043 Y9.939
N2735 G03 X-5.751 Y11.729 L85.762
N2736 G02 X-5.371 Y13.388 L10.808
N2737 G03 X-4.98 Y14.94 L10.637
N2738 G02 X1.068 Y19.592 L6.258
N2739 X7.326 Y13.334 L6.258
N2740 X3.176 Y7.442 L6.258
N2741 G03 X-.974 Y1.549 L6.258
N2742 X2.571 Y-4.09 L6.258
N2743 G01 X3.815 Y-5.191
N2744 X4.75 Y-6.474
N2745 X5.464 Y-7.787
N2746 X5.981 Y-9.075
N2747 X6.325 Y-10.281
N2748 X6.539 Y-11.385
N2749 G02 X6.722 Y-13.91 L17.455
N2750 X6.698 Y-14.831 L17.455
N2751 X6.473 Y-17.242 L36.141
N2752 G01 X6.369 Y-17.672
N2753 X6. Y-19.189 Z.199
N2754 X5.314 Y-22.019
N2755 G00 Z50.
N2756 G136
N2757 M146
N2758 M50
N2759 G20HP=1.
N2760 M12
N2761 M109
N2762 M01

(Operation # 20)
(3310  | 10 Fraise 2 tailles droite  | DIA. -  10)
N2763 M110
N2764 G20HP=1.
N2765 TD=013310 M323 (B0.)
N2766 MT=421201
N2767 SB=2000 M13 M241
N2768 G20 HP=4 (SAFE MOVE -- NOT SIMULATED)
N2769 G00 C0. M16
N2770 G138
N2771 M51
N2772 G94 G17 Z50.
N2773 X0. Y0.
N2774 G183 X0. Y0. Z-12. C0. K48. D5. L5. F2000.
N2775 G180

(Operation # 21)
N2776 SB=8000 M241
N2777 M147
N2778 G00 Z50.
N2779 Z10.
N2780 G01 Z-14. F5000.
N2781 X.525 Y.525 F600.
N2782 G03 X0. Y1.05 L.525
N2783 X-1.05 Y0. L1.05
N2784 X0. Y-1.05 L1.05
N2785 X1.05 Y0. L1.05
N2786 X0. Y1.05 L1.05
N2787 X-.052 Y1.049 L1.05
N2788 X-.551 Y.524 L.525
N2789 X-.55 Y.498 L.525
N2790 G01 X0. Y0.
N2791 G00 Z25.
N2792 Z50.
N2793 G136
N2794 M146
N2795 G20HP=1.

(Operation # 22)
N2796 G20HP=1.
N2797 TD=053310 M323 (B90.)
N2798 SB=2000 M13 M241
N2799 G138
N2800 G00 G19 Z-18.2
N2801 X100. Y0.
N2802 G183 X21.45 Y0. Z-18.2 C0. I66.55 D5. L5. F2000.
N2803 G180

(Operation # 23)
N2804 SB=8000 M241
N2805 M147
N2806 G00 X81.45
N2807 X33.45
N2808 G01 X19.45 F5000.
N2809 G41 Y1. Z-17.7 F2400.
N2810 Z-16.7
N2811 G03 Y0. Z-15.7 L1.
N2812 G01 Y-15.
N2813 G03 Y-17.5 Z-18.2 L2.5
N2814 Y-15. Z-20.7 L2.5
N2815 G01 Y15.
N2816 G03 Y17.5 Z-18.2 L2.5
N2817 Y15. Z-15.7 L2.5
N2818 G01 Y0.
N2819 Y-.5
N2820 G03 Y-1.5 Z-16.7 L1.
N2821 G01 Z-18.7
N2822 G40 Y0. Z-18.2
N2823 G00 X81.45

(Operation # 24)
N2824 SB=2000 M241
N2825 X100.
N2826 M146
N2827 C180. M16
N2828 G183 X21.45 Y0. Z-18.2 C180. I66.55 D5. L5. F2000.
N2829 G180

(Operation # 25)
N2830 SB=8000 M241
N2831 M147
N2832 G00 X81.45
N2833 X33.45
N2834 G01 X19.45 F5000.
N2835 G41 Y1. Z-17.7 F2400.
N2836 Z-16.7
N2837 G03 Y0. Z-15.7 L1.
N2838 G01 Y-15.
N2839 G03 Y-17.5 Z-18.2 L2.5
N2840 Y-15. Z-20.7 L2.5
N2841 G01 Y15.
N2842 G03 Y17.5 Z-18.2 L2.5
N2843 Y15. Z-15.7 L2.5
N2844 G01 Y0.
N2845 Y-.5
N2846 G03 Y-1.5 Z-16.7 L1.
N2847 G01 Z-18.7
N2848 G40 Y0. Z-18.2
N2849 G00 X81.45
N2850 G136
N2851 M146
N2852 M50
N2853 G20HP=1.
N2854 M12
N2855 M109
N2856 M01

(Operation # 26)
(4212  | EB. 3T DIAM. 12  | DIA. -  12)
N2857 M110
N2858 G20HP=1.
N2859 TD=014212 M323 (B0.)
N2860 SB=8000 M13 M242
N2861 G20 HP=4 (SAFE MOVE -- NOT SIMULATED)
N2862 G00 C0. M16
N2863 M147
N2864 G138
N2865 M51
N2866 G94 G17 Z50.5
N2867 X-34.95 Y-49.95
N2868 Z2.5
N2869 G01 Z.5 F5000.
N2870 G41 Y-37.95 F4000.
N2871 Y37.95
N2872 G02 X-19.45 Y53.45 L15.5
N2873 G01 X19.45
N2874 G02 X34.95 Y37.95 L15.5
N2875 G01 Y-37.95
N2876 G02 X19.45 Y-53.45 L15.5
N2877 G01 X-19.45
N2878 G02 X-34.95 Y-37.95 L15.5
N2879 G01 Y-37.45
N2880 G03 X-37.35 Y-35.05 L2.4
N2881 G01 G40 X-38.55
N2882 G00 Z50.5

(Operation # 27)
N2883 X-.6 Y-1.3 Z52.
N2884 Z4.
N2885 G01 Z2. F5000.
N2886 Y-1.9 F4000.
N2887 G03 X0. Y-2.5 L.6
N2888 X2.5 Y0. L2.5
N2889 X0. Y2.5 L2.5
N2890 X-2.5 Y0. L2.5
N2891 X0. Y-2.5 L2.5
N2892 X.497 Y-2.45 L2.5
N2893 X.977 Y-1.862 L.6
N2894 X.966 Y-1.743 L.6
N2895 G01 X.846 Y-1.155
N2896 G00 Z52.

(Operation # 28)
N2897 X0. Y0. Z50.
N2898 Z2.
N2899 G01 Z-12.4 F5000.
N2900 X-.6 Y-1.3 F4000.
N2901 Y-1.9
N2902 G03 X0. Y-2.5 L.6
N2903 X2.5 Y0. L2.5
N2904 X0. Y2.5 L2.5
N2905 X-2.5 Y0. L2.5
N2906 X0. Y-2.5 L2.5
N2907 X.497 Y-2.45 L2.5
N2908 X.977 Y-1.862 L.6
N2909 X.966 Y-1.743 L.6
N2910 G01 X.846 Y-1.155
N2911 X0. Y0.
N2912 G00 Z50.
N2913 G136
N2914 M146
N2915 G20HP=1.

(Operation # 29)
N2916 G20HP=1.
N2917 TD=054212 M323 (B90.)
N2918 SB=8000 M13 M242
N2919 M147
N2920 G138
N2921 G00 G19 Z-18.8
N2922 X81.95 Y2.4
N2923 X33.95
N2924 G01 X31.95 F5000.
N2925 Z-17.6 F4000.
N2926 G03 Y0. Z-15.2 L2.4
N2927 G01 Y-15.
N2928 G03 Y-18. Z-18.2 L3.
N2929 Y-15. Z-21.2 L3.
N2930 G01 Y15.
N2931 G03 Y18. Z-18.2 L3.
N2932 Y15. Z-15.2 L3.
N2933 G01 Y0.
N2934 Y-.5
N2935 G03 Y-2.9 Z-17.6 L2.4
N2936 G01 Z-18.8
N2937 G00 X81.95
N2938 M146
N2939 C180. M16
N2940 M147
N2941 Y2.4
N2942 X33.95
N2943 G01 X31.95 F5000.
N2944 Z-17.6 F4000.
N2945 G03 Y0. Z-15.2 L2.4
N2946 G01 Y-15.
N2947 G03 Y-18. Z-18.2 L3.
N2948 Y-15. Z-21.2 L3.
N2949 G01 Y15.
N2950 G03 Y18. Z-18.2 L3.
N2951 Y15. Z-15.2 L3.
N2952 G01 Y0.
N2953 Y-.5
N2954 G03 Y-2.9 Z-17.6 L2.4
N2955 G01 Z-18.8
N2956 G00 X81.95
N2957 G136
N2958 M146
N2959 M50
N2960 G20HP=1.
N2961 M12
N2962 M109
N2963 M01
N2964 T1000
N2965 M91
N2966 M215
N2967 M02
