N100 G140
N101 M90
(DATE=DD-MM-YY -  04/30/2020  TIME=HH:MM -  14:32)
(MCAM FILE -  \\SRV-CEGID\Bureautique\999\ARTICLES\005846\FAB\U3000-GODET 50ML G0144_99-190717-02.mcam)
(NC FILE -  C:\Users\u3000\Documents\My Mastercam 2020\Mastercam\Lathe\NC\U3000-GODET 50ML G0144_99-190717-02.MIN)

(TOOLS USED IN STREAM  1)
(3312  | FR D12 PLAST  | DIA. -  12)
(3308  | FR D8 PLAST  | DIA. -  7.95)
(4258  | EBAV-3T D8  | DIA. -  8)
(3802  | FR  D2 GRAVURE PLAST  | DIA. -  2)
(4102  | FR 3T D16.5 PLAST EP3  | DIA. -  16.5)


+++++++ (CASCME P-99-190717-02)
+++++++G140
+++++++VSZOZ=299.27
+++++++VSZOW=529.36
+++++++VSZOC=88.043
+++++++VSZOX=0
+++++++VSZOY=0

+++++++G141
+++++++VSZOZ=247.09
+++++++VSZOC=221.18
+++++++VSZOX=0
+++++++VSZOY=0

+++++++M108 (ASPIRO)


N102 G140
N103 G00 W9999. (MOVE SUB SPINDLE HOME)
N104 M216
N105 G20 HP=1
N106 G50 S2000 (MAX SPINDLE SPEED FOR MAIN SPINDLE)
N107 G141
N108 G50 S2000 (MAX SPINDLE SPEED FOR SUB SPINDLE)

+++++++V10=15 (ANGLE CHARGEMENT)
+++++++CALL OCROB1 (CHARGEMENT)
+++++++M244 (CONVOYEUR)


*********V50=3 (NOMBRE DE PIECES)
*********V51=0 (COMPTEUR DE PIECE)


*********NREPET

N122 G140
(Operation # 3)
(3312  | FR D12 PLAST  | DIA. -  12)
N123 M110
N124 MT=331201
N125 G20HP=1.
N126 TD=013312 M323 (B0.)
N127 MT=330801
N128 SB=8000 M13 M242
N129 M146
N130 G20 HP=4 (SAFE MOVE -- NOT SIMULATED)
N131 G00 C0. M15
N132 M147
N133 G138
N134 M175 M142
N135 G94 G17 Z50.
N136 X0. Y0.
N137 Z5.
N138 G01 Z0. F5000.
N139 G03 G41 X2.5 Y2.5 L2.5 F7200.
N140 X0. Y5. L2.5
N141 X-5. Y0. Z-.75 I0. J-5.
N142 X0. Y-5. Z-1.5 I5. J0.
N143 X5. Y0. Z-2.25 I0. J5.
N144 X0. Y5. Z-3. I-5. J0.
N145 X-5. Y0. Z-3.75 I0. J-5.
N146 X0. Y-5. Z-4.5 I5. J0.
N147 X5. Y0. Z-5.25 I0. J5.
N148 X0. Y5. Z-6. I-5. J0.
N149 X-5. Y0. Z-6.75 I0. J-5.
N150 X0. Y-5. Z-7.5 I5. J0.
N151 X5. Y0. Z-8.25 I0. J5.
N152 X0. Y5. Z-9. I-5. J0.
N153 X-5. Y0. Z-9.75 I0. J-5.
N154 X0. Y-5. Z-10.5 I5. J0.
N155 X5. Y0. Z-11.25 I0. J5.
N156 X0. Y5. Z-12. I-5. J0.
N157 X-5. Y0. Z-12.75 I0. J-5.
N158 X0. Y-5. Z-13.5 I5. J0.
N159 X5. Y0. Z-14.25 I0. J5.
N160 X0. Y5. Z-15. I-5. J0.
N161 X-5. Y0. Z-15.75 I0. J-5.
N162 X0. Y-5. Z-16.5 I5. J0.
N163 X5. Y0. Z-17.25 I0. J5.
N164 X0. Y5. Z-18. I-5. J0.
N165 X-5. Y0. Z-18.75 I0. J-5.
N166 X0. Y-5. Z-19.5 I5. J0.
N167 X5. Y0. Z-20.25 I0. J5.
N168 X0. Y5. Z-21. I-5. J0.
N169 X-5. Y0. Z-21.75 I0. J-5.
N170 X0. Y-5. Z-22.5 I5. J0.
N171 X5. Y0. Z-23.25 I0. J5.
N172 X0. Y5. Z-24. I-5. J0.
N173 X-5. Y0. Z-24.75 I0. J-5.
N174 X0. Y-5. Z-25.5 I5. J0.
N175 X5. Y0. Z-26.25 I0. J5.
N176 X0. Y5. Z-27. I-5. J0.
N177 X-5. Y0. Z-27.75 I0. J-5.
N178 X0. Y-5. Z-28.5 I5. J0.
N179 X5. Y0. Z-29.25 I0. J5.
N180 X0. Y5. Z-30. I-5. J0.
N181 X-5. Y0. L5. F2400.
N182 X0. Y-5. L5.
N183 X5. Y0. L5.
N184 X0. Y5. L5.
N185 G40 X-2.5 Y2.5 L2.5
N186 X0. Y0. L2.5
N187 G00 Z10.
N188 Z50.

(Operation # 4)
N189 X3.415 Y-2.199
N190 Z2.
N191 G01 Z-14.4 F5000.
N192 X3.442 Y-2.186 F4800.
N193 G03 X5.009 Y.686 L3.416
N194 X4.401 Y2.632 L3.416
N195 X-.45 Y5.39 L5.645
N196 X-6.095 Y-.255 L5.645
N197 X-5.769 Y-2.145 L5.645
N198 X.624 Y-6.65 L6.788
N199 X7.412 Y.138 L6.788
N200 X7.327 Y1.209 L6.788
N201 X-.559 Y7.953 L7.983
N202 X-8.465 Y1.077 L7.983
N203 X-8.55 Y-.174 L9.207
N204 X.657 Y-9.381 L9.207
N205 X8.55 Y-4.913 L9.207
N206 X9.99 Y.377 L10.435
N207 X-.445 Y10.812 L10.435
N208 X-6.237 Y9.057 L10.435
N209 X-11.423 Y-.636 L11.651
N210 X.229 Y-12.287 L11.651
N211 X1.487 Y-12.219 L11.651
N212 X13.059 Y.636 L12.926
N213 X5.546 Y12.373 L12.926
N214 X-.345 Y13.651 L14.224
N215 X-14.569 Y-.573 L14.224
N216 X-11.527 Y-9.364 L14.224
N217 X.702 Y-15.303 L15.56
N218 X16.262 Y.256 L15.56
N219 X15.81 Y3.977 L15.56
N220 X-.655 Y16.929 L16.942
N221 X-17.069 Y4.183 L16.942
N222 X-17.626 Y-.303 L18.332
N223 X.706 Y-18.634 L18.332
N224 X13.923 Y-13.006 L18.332
N225 X19.403 Y.616 L19.67
N226 X-.267 Y20.286 L19.67
N227 X-5.138 Y19.673 L19.67
N228 X-21.033 Y-.722 L21.033
N229 X-7.3 Y-20.447 L21.033
N230 X.618 Y-21.918 L22.05
N231 X22.668 Y.132 L22.05
N232 X19.624 Y11.311 L22.05
N233 X15.855 Y16.176 L22.65
N234 G02 X14.64 Y17.507 L17.851
N235 G03 X8.453 Y21.567 L15.386
N236 G02 X8.014 Y21.554 L7.2
N237 X6.081 Y21.818 L7.2
N238 G03 X0. Y22.65 L22.65
N239 X-16.176 Y15.855 L22.65
N240 G02 X-18.642 Y13.871 L15.365
N241 G03 X-21.707 Y9.651 L11.617
N242 X-21.707 Y9.612 L1.2
N243 X-21.685 Y9.383 L1.2
N244 G02 X-21.554 Y8.014 L7.2
N245 X-21.818 Y6.081 L7.2
N246 G03 X-22.65 Y0. L22.65
N247 X-15.855 Y-16.176 L22.65
N248 G02 X-13.184 Y-19.894 L17.849
N249 G03 X-10.638 Y-21.905 L7.243
N250 X-10.494 Y-21.908 L3.134
N251 X-9.292 Y-21.668 L3.134
N252 G02 X-8.014 Y-21.554 L7.2
N253 X-6.081 Y-21.818 L7.2
N254 G03 X0. Y-22.65 L22.65
N255 X16.176 Y-15.855 L22.65
N256 G02 X20.015 Y-13.544 L11.402
N257 G03 X22.076 Y-11.512 L7.129
N258 X22.086 Y-11.161 L6.325
N259 X21.587 Y-8.698 L6.325
N260 G02 X21.554 Y-8.014 L7.2
N261 X21.818 Y-6.081 L7.2
N262 G03 X22.075 Y-4.913 L2.79
N263 X20.453 Y-2.38 L2.79
N264 X19.353 Y-2.145 L2.7 F5000.
N265 X16.789 Y-3.999 L2.7
N266 G01 X14.432 Y-11.142
N267 G03 X14.296 Y-11.988 L2.7
N268 X14.808 Y-13.57 L2.7
N269 X16.996 Y-14.688 L2.7 F4800.
N270 X18.174 Y-14.417 L2.7
N271 G02 X21.98 Y-13.235 L13.973
N272 G03 X22.46 Y-12.275 L1.2
N273 X22.374 Y-11.829 L1.2
N274 X20.625 Y-8.055 L7.063
N275 G02 X20.035 Y-6.611 L2.72
N276 G01 X17.555 Y12.38 F5000.
N277 G03 X17.496 Y12.687 L2.7
N278 X17.392 Y13.012 L2.7 F4800.
N279 X14.648 Y17.737 L9.364
N280 G02 X13.389 Y20.683 L10.695
N281 G03 X11.31 Y22.184 L2.191
N282 X11.292 Y22.184 L2.191
N283 G02 X7.879 Y21.565 L9.719
N284 X7.5 Y21.572 L9.719
N285 G03 X7.307 Y21.579 L2.7
N286 X4.688 Y19.537 L2.7
N287 X4.607 Y18.879 L2.7 F5000.
N288 X6.509 Y16.3 L2.7
N289 G01 X10.962 Y14.924
N290 G03 X11.759 Y14.803 L2.7
N291 X13.216 Y15.23 L2.7
N292 X14.459 Y17.503 L2.7 F4800.
N293 X14.25 Y18.544 L2.7
N294 G02 X13.235 Y21.98 L13.775
N295 G03 X12.275 Y22.46 L1.2
N296 X11.829 Y22.374 L1.2
N297 X8.445 Y20.636 L6.443
N298 G02 X7.221 Y20.078 L2.7
N299 G01 X-13.225 Y16.379 F5000.
N300 X-14.33 Y16.179 F4800.
N301 G03 X-18.601 Y14.227 L9.351
N302 X-21.854 Y12.915 L10.683
N303 X-22.339 Y11.951 L1.2
N304 X-22.27 Y11.552 L1.2
N305 G02 X-21.587 Y8.698 L15.355
N306 G03 X-19.113 Y6.263 L2.7
N307 X-18.899 Y6.255 L2.7 F5000.
N308 X-16.215 Y8.659 L2.7
N309 X-15.976 Y10.628 L8.225
N310 X-16.201 Y12.538 L8.225
N311 X-18.633 Y14.066 L2.7 F4800.
N312 X-19.365 Y13.964 L2.7
N313 X-21.98 Y13.235 L19.864
N314 X-22.46 Y12.275 L1.2
N315 X-22.374 Y11.829 L1.2
N316 X-20.636 Y8.445 L6.443
N317 G02 X-20.077 Y7.222 L2.715
N318 G01 X-15.807 Y-13.693 F5000.
N319 X-15.512 Y-15.135 F4800.
N320 G03 X-14.205 Y-18.655 L6.797
N321 X-13.239 Y-21.778 L46.319
N322 X-12.175 Y-22.421 L1.2
N323 X-11.744 Y-22.341 L1.2
N324 G02 X-9.292 Y-21.668 L19.014
N325 G03 X-7.072 Y-19.011 L2.7
N326 X-7.072 Y-19.001 L2.7
N327 X-9.772 Y-16.311 L2.7 F5000.
N328 X-10.808 Y-16.518 L2.7
N329 X-12.255 Y-17.122 L37.082
N330 X-13.814 Y-19.569 L2.7 F4800.
N331 X-13.722 Y-20.268 L2.7
N332 X-12.772 Y-22.352 L2.928
N333 X-12.275 Y-22.46 L1.2
N334 X-11.829 Y-22.374 L1.2
N335 G02 X-11.02 Y-22.106 L7.2
N336 G03 X-8.875 Y-20.671 L4.597
N337 G00 Z50.

(Operation # 5)
N338 X3.415 Y-2.199
N339 Z-12.5
N340 G01 Z-29.9 F5000.
N341 X3.442 Y-2.186 F4800.
N342 G03 X5.009 Y.686 L3.416
N343 X4.401 Y2.632 L3.416
N344 X-.45 Y5.39 L5.645
N345 X-6.095 Y-.255 L5.645
N346 X-5.769 Y-2.145 L5.645
N347 X.624 Y-6.65 L6.788
N348 X7.412 Y.138 L6.788
N349 X7.327 Y1.209 L6.788
N350 X-.559 Y7.953 L7.983
N351 X-8.465 Y1.077 L7.983
N352 X-8.55 Y-.174 L9.207
N353 X.657 Y-9.381 L9.207
N354 X8.55 Y-4.913 L9.207
N355 X9.99 Y.377 L10.435
N356 X-.445 Y10.812 L10.435
N357 X-6.237 Y9.057 L10.435
N358 X-11.423 Y-.636 L11.651
N359 X.229 Y-12.287 L11.651
N360 X1.487 Y-12.219 L11.651
N361 X13.059 Y.636 L12.926
N362 X5.546 Y12.373 L12.926
N363 X-.345 Y13.651 L14.224
N364 X-14.569 Y-.573 L14.224
N365 X-11.527 Y-9.364 L14.224
N366 X.702 Y-15.303 L15.56
N367 X16.262 Y.256 L15.56
N368 X15.81 Y3.977 L15.56
N369 X-.655 Y16.929 L16.942
N370 X-17.069 Y4.183 L16.942
N371 X-17.699 Y-.535 L17.958
N372 X.259 Y-18.493 L17.958
N373 X3.719 Y-18.156 L17.958
N374 G01 X4.298 Y-18.001
N375 G03 X19.482 Y.673 L19.075
N376 X13.616 Y14.435 L19.075
N377 X2.638 Y19.859 L18.537
N378 G01 X2.058 Y19.704
N379 X-11.832 Y15.781
N380 G03 X-21.035 Y.019 L18.099
N381 X-20.997 Y-1.167 L18.099
N382 X-6.011 Y-20.757 L20.904
N383 X-4.734 Y-20.421 L13.163
N384 G01 X-4.155 Y-20.266
N385 X3.38 Y-18.247
N386 G03 X5.381 Y-15.639 L2.7
N387 X5.371 Y-15.404 L2.7
N388 X5.206 Y-14.685 L2.7 F5000.
N389 G01 X-6.019 Y15.022
N390 G03 X-6.097 Y15.209 L2.7
N391 X-8.544 Y16.768 L2.7 F4800.
N392 X-9.243 Y16.676 L2.7
N393 G01 X-10.113 Y16.443
N394 G03 X-17.487 Y14.102 L40.129
N395 X-21.645 Y9.346 L11.55
N396 X-21.648 Y9.265 L1.2
N397 X-21.634 Y9.086 L1.2
N398 G02 X-21.554 Y8.014 L7.2
N399 X-21.818 Y6.081 L7.2
N400 G03 X-22.65 Y0. L22.65
N401 X-15.855 Y-16.176 L22.65
N402 G02 X-13.184 Y-19.893 L17.84
N403 G03 X-10.63 Y-21.905 L7.22
N404 X-4.943 Y-20.477 L50.772
N405 X-2.942 Y-17.869 L2.7
N406 X-2.952 Y-17.634 L2.7
N407 X-4.889 Y-15.276 L2.7 F5000.
N408 G01 X-11.899 Y-13.241
N409 G03 X-12.652 Y-13.134 L2.7
N410 X-14.515 Y-13.88 L2.7
N411 X-15.352 Y-15.834 L2.7 F4800.
N412 X-14.9 Y-17.329 L2.7
N413 G02 X-13.266 Y-21.726 L10.919
N414 G03 X-12.075 Y-22.417 L1.371
N415 X-11.308 Y-22.183 L1.371
N416 G01 X-10.728 Y-22.027
N417 X-10.727
N418 G03 X-7.578 Y-18.878 L3.149
N419 G01 Y-18.873
N420 G03 X-10.268 Y-16.409 L2.7 F5000.
N421 X-11.553 Y-16.734 L2.7
N422 G01 X-12.258 Y-17.115
N423 X-12.399 Y-17.192 F4800.
N424 G03 X-13.823 Y-19.788 L3.08
N425 X-13.511 Y-21.14 L3.08
N426 G02 X-13.47 Y-21.381 L7.2
N427 G03 X-12.164 Y-22.451 L1.331
N428 X-11.393 Y-22.205 L1.331
N429 X-8.815 Y-19.411 L2.803
N430 X-8.823 Y-19.207 L2.803
N431 G01 X-11.372 Y12.803 F5000.
N432 G03 X-11.616 Y13.73 L2.7
N433 X-14.063 Y15.289 L2.7 F4800.
N434 X-14.762 Y15.197 L2.7
N435 G01 X-15.631 Y14.964
N436 G03 X-21.431 Y13.094 L26.144
N437 X-22.316 Y11.768 L1.436
N438 X-22.106 Y11.02 L1.436
N439 G01 X-21.95 Y10.441
N440 G02 X-21.555 Y8.099 L8.188
N441 G03 X-19.292 Y5.467 L2.7
N442 X-18.855 Y5.431 L2.7 F5000.
N443 X-16.202 Y7.626 L2.7
N444 G01 X-15.565 Y10.971
N445 G03 X-15.517 Y11.476 L2.7
N446 X-15.77 Y12.617 L2.7
N447 X-18.217 Y14.176 L2.7 F4800.
N448 X-18.916 Y14.084 L2.7
N449 G01 X-19.785 Y13.851
N450 G03 X-22.067 Y13.088 L5.08
N451 X-22.438 Y12.219 L1.2
N452 X-22.356 Y11.782 L1.2
N453 X-19.662 Y7.491 L7.106
N454 G01 X2.139 Y-16.318 F5000.
N455 X2.695 Y-16.925 F4800.
N456 G03 X4.84 Y-17.833 L2.988
N457 X6.254 Y-17.477 L2.988
N458 G01 X6.834 Y-17.321
N459 G03 X15.204 Y-14.767 L59.051
N460 X22.717 Y-.323 L17.642
N461 X22.557 Y2.047 L17.642
N462 X15.855 Y16.176 L22.65
N463 G02 X14.642 Y17.505 L17.805
N464 G03 X8.713 Y21.456 L15.586
N465 X4.972 Y20.485 L93.24
N466 G01 X4.392 Y20.329
N467 X2.074 Y19.708
N468 G03 X.073 Y17.1 L2.7
N469 X.083 Y16.865 L2.7
N470 X2.093 Y14.487 L2.7 F5000.
N471 G01 X13.363 Y11.558
N472 G03 X14.042 Y11.472 L2.7
N473 X16.261 Y12.633 L2.7
N474 X16.742 Y14.172 L2.7 F4800.
N475 X15.942 Y16.09 L2.7
N476 X15.855 Y16.176 L22.65
N477 G02 X13.391 Y20.681 L9.785
N478 G03 X11.379 Y22.266 L2.069
N479 X10.173 Y21.879 L2.069
N480 G01 X9.594 Y21.723
N481 X7.855 Y21.257
N482 G03 X5.854 Y18.649 L2.7
N483 X5.864 Y18.414 L2.7
N484 X7.643 Y16.108 L2.7 F5000.
N485 G01 X10.849 Y14.959
N486 G03 X11.76 Y14.801 L2.7
N487 X13.218 Y15.228 L2.7
N488 X14.46 Y17.501 L2.7 F4800.
N489 X14.251 Y18.542 L2.7
N490 G02 X13.238 Y21.928 L13.978
N491 G03 X11.934 Y22.359 L2.189
N492 X10.814 Y22.05 L2.189
N493 X8.805 Y19.426 L2.718
N494 X8.814 Y19.206 L2.718
N495 G01 X8.994 Y-13.239 F5000.
N496 G03 X9.247 Y-14.365 L2.7
N497 X11.694 Y-15.924 L2.7 F4800.
N498 X12.393 Y-15.832 L2.7
N499 G01 X13.262 Y-15.599
N500 G03 X19.669 Y-13.548 L33.704
N501 X22.011 Y-11.288 L7.373
N502 X22.024 Y-10.91 L5.813
N503 X21.587 Y-8.698 L5.813
N504 G02 X21.554 Y-8.014 L7.2
N505 X21.818 Y-6.081 L7.2
N506 G03 X22.506 Y-2.551 L22.65
N507 X22.523 Y-2.247 L2.7
N508 X20.588 Y.342 L2.7
N509 X19.823 Y.453 L2.7 F5000.
N510 X17.282 Y-1.335 L2.7
N511 G01 X13.789 Y-11.07
N512 G03 X13.631 Y-11.982 L2.7
N513 X13.884 Y-13.123 L2.7
N514 X16.331 Y-14.682 L2.7 F4800.
N515 X17.029 Y-14.59 L2.7
N516 G01 X17.899 Y-14.357
N517 G03 X22.067 Y-13.088 L11.897
N518 X22.438 Y-12.219 L1.2
N519 X22.356 Y-11.782 L1.2
N520 X20.625 Y-8.055 L6.885
N521 G00 Z50.

(Operation # 6)
N522 X-32.556 Y-64.405
N523 Z2.7
N524 G01 Z-23. F5000.
N525 X-33.707 Y-58.283 F4800.
N526 G03 X-33.707 Y-58.258 L8.487
N527 X-34.955 Y-53.828 L8.487
N528 G02 X-36.92 Y-45.682 L93.24
N529 G01 X-37.034 Y-45.156
N530 X-42.664 Y-19.093
N531 G03 X-42.988 Y-17.876 L25.654
N532 G01 X-43.143 Y-17.297
N533 X-51.003 Y12.037
N534 G02 X-51.261 Y14.873 L15.739
N535 X-51.003 Y17.709 L15.739
N536 G03 X-51.591 Y24.667 L44.292
N537 G02 X-47.41 Y29.944 L8.804
N538 X-42.42 Y32.682 L43.894
N539 X-37.013 Y37.777 L17.291
N540 X-30.71 Y39.549 L97.215
N541 G01 X-30.131 Y39.704
N542 X12.037 Y51.003
N543 G02 X14.873 Y51.261 L15.739
N544 X17.709 Y51.003 L15.739
N545 G03 X24.667 Y51.591 L44.292
N546 G02 X29.944 Y47.41 L8.804
N547 X32.682 Y42.42 L43.894
N548 X37.777 Y37.013 L17.291
N549 X39.549 Y30.71 L97.215
N550 G01 X39.704 Y30.131
N551 X51.003 Y-12.037
N552 G02 X51.261 Y-14.873 L15.739
N553 X51.003 Y-17.709 L15.739
N554 G03 X51.591 Y-24.667 L44.292
N555 G02 X47.41 Y-29.944 L8.804
N556 X42.42 Y-32.682 L43.894
N557 X37.013 Y-37.777 L17.291
N558 X30.71 Y-39.549 L97.215
N559 G01 X30.131 Y-39.704
N560 X-12.037 Y-51.003
N561 G02 X-14.873 Y-51.261 L15.739
N562 X-17.709 Y-51.003 L15.739
N563 G03 X-24.528 Y-51.567 L44.691
N564 G02 X-29.3 Y-47.795 L7.934
N565 X-31.795 Y-43.091 L31.666
N566 G03 X-31.838 Y-43.057 L1.2
N567 G02 X-37.522 Y-37.556 L19.119
N568 X-40.17 Y-28.392 L93.207
N569 G01 X-40.326 Y-27.813
N570 X-42.966 Y-17.96
N571 G03 X-45.214 Y-14.983 L8.032
N572 X-47.574 Y-14.183 L3.884 F6000.
N573 X-51.458 Y-18.068 L3.884
N574 X-50.88 Y-20.106 L3.884
N575 G01 X-35.425 Y-45.168
N576 G03 X-13.909 Y-57.177 L25.279
N577 X-13.625 Y-57.175 L25.279
N578 X-10.996 Y-54.547 L2.629
N579 X-11.474 Y-53.036 L2.629
N580 X-12.399 Y-52.222 L2.629 F4800.
N581 G01 X-12.654 Y-52.087
N582 G03 X-16.72 Y-50.873 L8.158
N583 G02 X-32.564 Y-42.511 L53.55
N584 G03 X-35.104 Y-41.662 L5.11
N585 G02 X-36.129 Y-41.36 L10.636
N586 X-42.917 Y-33.976 L10.636 F6000.
N587 G01 X-52.978 Y5.037
N588 G02 X-53.315 Y7.693 L10.636
N589 X-52.702 Y11.251 L10.636
N590 X-52.087 Y12.654 L10.636 F4800.
N591 G03 X-50.873 Y16.72 L8.158
N592 G02 X-41.771 Y33.509 L53.55
N593 G03 X-40.865 Y36.028 L5.11
N594 G02 X-40.517 Y37.039 L7.338
N595 X-35.796 Y41.207 L7.338 F6000.
N596 G01 X4.87 Y52.89
N597 G02 X7.765 Y53.297 L10.483
N598 X11.251 Y52.7 L10.483
N599 X12.654 Y52.087 L10.483 F4800.
N600 G03 X16.72 Y50.873 L8.158
N601 G02 X33.509 Y41.771 L53.55
N602 G03 X36.028 Y40.865 L5.11
N603 G02 X37.039 Y40.517 L7.338
N604 X41.207 Y35.796 L7.338 F6000.
N605 G01 X52.89 Y-4.87
N606 G02 X53.297 Y-7.765 L10.483
N607 X52.7 Y-11.251 L10.483
N608 X52.087 Y-12.654 L10.483 F4800.
N609 G03 X50.873 Y-16.72 L8.158
N610 G02 X41.771 Y-33.509 L53.55
N611 G03 X40.865 Y-36.028 L5.11
N612 G00 Z50.
N613 G136
N614 M146
N615 M174 M142
N616 G20HP=1.
N617 M12
N618 M109
N619 M01

(Operation # 7)
(3308  | FR D8 PLAST  | DIA. -  7.95)
N620 M110
N621 TD=013308 M323 (B0.)
N622 MT=425801
N623 SB=10063 M13 M242
N624 G20 HP=4 (SAFE MOVE -- NOT SIMULATED)
N625 G00 C0. M15
N626 M147
N627 G138
N628 M175 M142
N629 G94 G17 Z50.
N630 X-13.197 Y-10.179
N631 Z2.
N632 G01 Z-11.65 F5000.
N633 X-15.166 Y-18.865 F4528.35
N634 G03 X-15.465 Y-21.259 L9.755
N635 X-14.967 Y-24.333 L9.755
N636 X-13.196 Y-25.405 L2.
N637 X-12.797 Y-25.364 L2.
N638 X-12.694 Y-25.283 L.795
N639 G02 X-12.075 Y-24.786 L5.175
N640 G03 X-11.294 Y-23.309 L1.789
N641 X-11.453 Y-22.572 L1.789
N642 X-11.543 Y-22.398 L1.789 F3000.
N643 X-13.851 Y-20.632 L2.391
N644 X-13.953 Y-20.634 L2.391
N645 X-15.414 Y-22.392 L1.789 F4528.35
N646 X-15.414 Y-22.41 L1.789
N647 G02 X-15.414 Y-22.429 L9.254
N648 X-15.608 Y-24.316 L9.254
N649 G03 X-13.634 Y-26.174 L1.977
N650 X-13.537 Y-26.172 L1.977
N651 X-13.302 Y-25.962 L.795
N652 G02 X-12.484 Y-25.097 L5.175
N653 G03 X-11.832 Y-23.657 L1.915
N654 X-12.029 Y-22.812 L1.915
N655 X-13.697 Y-21.67 L1.789 F3000.
N656 X-13.751 Y-21.671 L1.789
N657 X-15.467 Y-23.202 L1.789 F4528.35
N658 G02 X-15.946 Y-25.025 L8.106
N659 G03 X-15.964 Y-25.27 L1.658
N660 X-14.306 Y-26.928 L1.658
N661 X-13.978 Y-26.895 L1.658
N662 X-13.19 Y-25.817 L6.254
N663 G02 X-12.929 Y-25.517 L5.175
N664 G03 X-12.512 Y-24.463 L1.54
N665 X-13.056 Y-23.288 L1.54
N666 X-13.616 Y-22.986 L1.54 F3000.
N667 G01 X-13.642 Y-22.978
N668 X-13.732 Y-22.951 F4528.35
N669 G03 X-14.168 Y-22.888 L1.54
N670 X-15.641 Y-23.977 L1.54
N671 G02 X-16.364 Y-25.705 L6.866
N672 G03 X-16.406 Y-26.069 L1.615
N673 X-14.791 Y-27.684 L1.615
N674 X-14.396 Y-27.635 L1.615
N675 X-13.427 Y-26.136 L5.258
N676 X-13.279 Y-25.501 L1.438
N677 X-14.716 Y-24.063 L1.438
N678 X-15.984 Y-24.823 L1.438
N679 G02 X-16.674 Y-26.031 L30.772
N680 G03 X-16.838 Y-26.754 L1.678
N681 X-15.16 Y-28.432 L1.678
N682 X-14.857 Y-28.404 L1.678
N683 X-13.801 Y-26.754 L4.22
N684 X-13.693 Y-26.209 L1.431
N685 X-15.125 Y-24.778 L1.431
N686 X-16.376 Y-25.514 L1.431
N687 G01 X-16.674 Y-26.031
N688 G03 X-17.189 Y-27.357 L1.966
N689 X-15.669 Y-29.271 L1.966
N690 X-14.325 Y-27.053 L2.503
N691 X-14.421 Y-26.365 L2.503
N692 X-15.691 Y-25.557 L1.401
N693 X-17.072 Y-26.719 L1.401
N694 G01 X-17.271 Y-27.064
N695 G03 X-17.644 Y-28.032 L1.445
N696 X-16.199 Y-29.477 L1.445
N697 X-15.287 Y-29.154 L1.445
N698 X-14.354 Y-26.496 L4.249
N699 X-14.385 Y-25.979 L4.249
N700 G02 X-8.778 Y-20.1 L7.029 F3000.
N701 G01 X15.362 Y-15.387
N702 G02 X17.286 Y-15.201 L10.042
N703 X18.688 Y-15.299 L10.042
N704 X19.187 Y-15.382 L10.042 F4528.35
N705 G03 X21.159 Y-15.64 L7.681
N706 X22.924 Y-15.434 L7.681
N707 X23.009 Y-15.436 L2.37
N708 X25.379 Y-13.066 L2.37
N709 X25.363 Y-12.795 L2.37
N710 X25.284 Y-12.695 L.795
N711 G02 X24.787 Y-12.076 L5.175
N712 G03 X23.31 Y-11.296 L1.789
N713 X22.573 Y-11.455 L1.789
N714 X22.476 Y-11.503 L1.789 F3000.
N715 X20.527 Y-13.879 L2.423
N716 X20.529 Y-13.982 L2.423
N717 X22.282 Y-15.416 L1.789 F4528.35
N718 X22.328 Y-15.415 L1.789
N719 X23.589 Y-15.555 L5.75
N720 X25.169 Y-15.334 L5.75
N721 X26.181 Y-14.035 L1.339
N722 X25.963 Y-13.303 L1.339
N723 G02 X25.098 Y-12.486 L5.175
N724 G03 X23.664 Y-11.836 L1.906
N725 X22.814 Y-12.036 L1.906
N726 X21.684 Y-13.699 L1.789 F3000.
N727 X21.685 Y-13.75 L1.789
N728 X23.213 Y-15.468 L1.789 F4528.35
N729 G02 X25.038 Y-15.947 L8.277
N730 G03 X25.293 Y-15.967 L1.653
N731 X26.946 Y-14.314 L1.653
N732 X26.918 Y-14.012 L1.653
N733 X25.817 Y-13.19 L3.325
N734 G02 X25.517 Y-12.929 L5.175
N735 G03 X24.463 Y-12.512 L1.54
N736 X23.288 Y-13.056 L1.54
N737 X22.979 Y-13.64 L1.54 F3000.
N738 X22.946 Y-13.784 L1.54 F4528.35
N739 X22.915 Y-14.11 L1.746
N740 X24.546 Y-15.852 L1.746
N741 X25.84 Y-16.335 L1.978
N742 X27.775 Y-14.765 L1.978
N743 X26.136 Y-13.427 L2.226
N744 X25.501 Y-13.279 L1.438
N745 X24.063 Y-14.716 L1.438
N746 X24.827 Y-15.987 L1.438
N747 G02 X26.035 Y-16.677 L68.181
N748 G03 X26.757 Y-16.84 L1.677
N749 X28.434 Y-15.163 L1.677
N750 X28.406 Y-14.858 L1.677
N751 X26.757 Y-13.803 L4.229
N752 X26.212 Y-13.695 L1.431
N753 X24.78 Y-15.126 L1.431
N754 X25.519 Y-16.379 L1.431
N755 G01 X26.035 Y-16.677
N756 G03 X27.36 Y-17.19 L1.965
N757 X29.274 Y-15.671 L1.965
N758 X27.063 Y-14.328 L2.492
N759 X26.349 Y-14.433 L2.492
N760 X25.561 Y-15.693 L1.402
N761 X26.724 Y-17.074 L1.402
N762 G01 X27.068 Y-17.273
N763 G03 X28.033 Y-17.643 L1.444
N764 X29.477 Y-16.199 L1.444
N765 X29.154 Y-15.287 L1.444
N766 X26.48 Y-14.348 L4.275
N767 X25.98 Y-14.378 L4.275
N768 G02 X22.139 Y-10.666 L4.795 F3000.
N769 G01 X16.759 Y14.354
N770 G02 X16.535 Y16.489 L10.34
N771 G01 X16.509 Y17.406 F4528.35
N772 G03 X16.509 Y17.471 L6.958
N773 X15.69 Y20.746 L6.958
N774 G02 X15.291 Y23.109 L7.196
N775 X15.317 Y23.718 L7.196
N776 G03 X13.018 Y25.382 L2.42
N777 X12.81 Y25.373 L2.42
N778 X12.694 Y25.283 L.795
N779 G02 X12.394 Y25.022 L5.175
N780 G03 X11.677 Y23.452 L2.079
N781 X11.804 Y22.734 L2.079
N782 G01 X11.845 Y22.33 F3000.
N783 G03 X13.625 Y20.72 L1.789
N784 X13.923 Y20.745 L1.789
N785 X15.414 Y22.497 L1.789 F4528.35
N786 G02 X15.621 Y24.271 L8.48
N787 G03 X13.606 Y26.181 L2.018
N788 X13.549 Y26.18 L2.018
N789 X13.303 Y25.964 L.795
N790 G02 X12.173 Y24.855 L5.175
N791 G03 X11.426 Y23.401 L1.789
N792 X11.603 Y22.627 L1.789
N793 X13.215 Y21.612 L1.789 F3000.
N794 X13.76 Y21.697 L1.789
N795 X13.801 Y21.711 L1.789 F4528.35
N796 X15.732 Y24.196 L2.564
N797 X15.732 Y24.248 L2.564
N798 X15.966 Y25.132 L1.783
N799 X14.183 Y26.915 L1.783
N800 X13.988 Y26.904 L1.783
N801 X13.19 Y25.817 L6.197
N802 G02 X12.929 Y25.517 L5.175
N803 G03 X12.512 Y24.463 L1.54
N804 X13.056 Y23.288 L1.54
N805 X13.661 Y22.973 L1.54 F3000.
N806 X14.052 Y22.923 L1.54 F4528.35
N807 X14.727 Y23.078 L1.54
N808 X16.107 Y25.048 L3.126
N809 X16.412 Y26.008 L1.666
N810 X14.746 Y27.674 L1.666
N811 X14.396 Y27.637 L1.666
N812 X13.427 Y26.136 L5.304
N813 X13.286 Y25.515 L1.438
N814 X14.724 Y24.077 L1.438
N815 X15.991 Y24.837 L1.438
N816 G02 X16.682 Y26.045 L74.397
N817 G03 X16.843 Y26.76 L1.676
N818 X15.167 Y28.436 L1.676
N819 X14.857 Y28.407 L1.676
N820 X13.804 Y26.759 L4.159
N821 X13.696 Y26.215 L1.432
N822 X15.128 Y24.783 L1.432
N823 X16.384 Y25.528 L1.432
N824 G01 X16.682 Y26.045
N825 G03 X17.192 Y27.364 L1.962
N826 X15.67 Y29.276 L1.962
N827 X14.331 Y27.092 L2.45
N828 X14.458 Y26.314 L2.45
N829 X15.697 Y25.571 L1.404
N830 X17.08 Y26.733 L1.404
N831 G01 X17.278 Y27.077
N832 G03 X17.642 Y28.035 L1.443
N833 X16.199 Y29.478 L1.443
N834 X15.287 Y29.154 L1.443
N835 X14.354 Y26.496 L4.249
N836 X14.385 Y25.979 L4.249
N837 G02 X8.803 Y20.107 L7.026 F3000.
N838 G01 X-15.317 Y15.315
N839 G02 X-17.273 Y15.123 L10.037
N840 X-18.781 Y15.237 L10.037
N841 X-19.346 Y15.339 L10.037 F4528.35
N842 G03 X-21.404 Y15.604 L8.143
N843 X-23.014 Y15.443 L8.143
N844 X-25.497 Y13.174 L2.788
N845 X-25.285 Y12.696 L.795
N846 G02 X-24.788 Y12.077 L5.175
N847 G03 X-23.311 Y11.298 L1.789
N848 X-22.573 Y11.457 L1.789
N849 X-22.397 Y11.549 L1.789 F3000.
N850 X-20.644 Y13.85 L2.387
N851 X-20.646 Y13.949 L2.387
N852 X-22.405 Y15.414 L1.789 F4528.35
N853 X-22.419 Y15.414 L1.789
N854 G02 X-24.324 Y15.61 L9.346
N855 G03 X-26.177 Y13.639 L1.974
N856 X-26.174 Y13.539 L1.974
N857 X-25.964 Y13.304 L.795
N858 G02 X-25.099 Y12.487 L5.175
N859 G03 X-23.662 Y11.836 L1.911
N860 X-22.814 Y12.035 L1.911
N861 X-21.682 Y13.698 L1.789 F3000.
N862 X-21.683 Y13.75 L1.789
N863 X-23.211 Y15.468 L1.789 F4528.35
N864 G02 X-25.035 Y15.948 L8.219
N865 G03 X-25.276 Y15.965 L1.655
N866 X-26.931 Y14.311 L1.655
N867 X-26.897 Y13.978 L1.655
N868 X-25.817 Y13.19 L6.277
N869 G02 X-25.517 Y12.929 L5.175
N870 G03 X-24.463 Y12.512 L1.54
N871 X-23.288 Y13.056 L1.54
N872 X-22.979 Y13.64 L1.54 F3000.
N873 X-22.95 Y13.766 L1.54 F4528.35
N874 X-22.915 Y14.112 L1.743
N875 X-24.544 Y15.852 L1.743
N876 X-25.84 Y16.336 L1.978
N877 X-27.776 Y14.765 L1.978
N878 X-26.136 Y13.427 L2.229
N879 X-25.501 Y13.279 L1.438
N880 X-24.063 Y14.716 L1.438
N881 X-24.83 Y15.988 L1.438
N882 G02 X-26.038 Y16.678 L32.326
N883 G03 X-26.758 Y16.841 L1.677
N884 X-28.435 Y15.164 L1.677
N885 X-28.406 Y14.858 L1.677
N886 X-26.757 Y13.803 L4.235
N887 X-26.213 Y13.695 L1.431
N888 X-24.781 Y15.127 L1.431
N889 X-25.521 Y16.38 L1.431
N890 G01 X-26.038 Y16.678
N891 G03 X-27.361 Y17.191 L1.964
N892 X-29.274 Y15.67 L1.964
N893 X-27.068 Y14.33 L2.486
N894 X-26.34 Y14.439 L2.486
N895 X-25.564 Y15.694 L1.403
N896 X-26.726 Y17.076 L1.403
N897 G01 X-27.07 Y17.274
N898 G03 X-28.034 Y17.643 L1.444
N899 X-29.478 Y16.199 L1.444
N900 X-29.154 Y15.287 L1.444
N901 X-26.874 Y14.413 L3.411
N902 X-26.457 Y14.439 L3.411
N903 G00 Z50.
N904 X-13.443 Y-10.034
N905 Z-9.65
N906 G01 Z-23.3 F5000.
N907 X-15.239 Y-18.757 F4528.35
N908 G03 X-15.48 Y-21.022 L10.752
N909 X-14.973 Y-24.288 L10.752
N910 X-13.16 Y-25.385 L2.046
N911 X-12.784 Y-25.35 L2.046
N912 X-12.676 Y-25.266 L.795
N913 G02 X-12.054 Y-24.772 L5.175
N914 G03 X-11.267 Y-23.29 L1.789
N915 X-11.423 Y-22.561 L1.789
N916 X-11.535 Y-22.349 L1.789 F3000.
N917 X-13.848 Y-20.61 L2.407
N918 X-13.959 Y-20.613 L2.407
N919 X-15.414 Y-22.37 L1.789 F4528.35
N920 X-15.414 Y-22.393 L1.789
N921 G02 X-15.414 Y-22.441 L9.446
N922 X-15.599 Y-24.304 L9.446
N923 G03 X-13.627 Y-26.155 L1.976
N924 X-13.521 Y-26.152 L1.976
N925 X-13.29 Y-25.946 L.795
N926 G02 X-12.154 Y-24.842 L5.175
N927 G03 X-11.402 Y-23.384 L1.789
N928 X-11.575 Y-22.616 L1.789
N929 X-13.19 Y-21.595 L1.789 F3000.
N930 X-13.379 Y-21.605 L1.789
N931 G01 X-13.754 Y-21.645
N932 X-13.882 Y-21.658 F4528.35
N933 G03 X-15.465 Y-23.186 L1.789
N934 G02 X-15.937 Y-25.015 L9.119
N935 G03 X-15.956 Y-25.27 L1.655
N936 X-14.301 Y-26.926 L1.655
N937 X-14.001 Y-26.898 L1.655
N938 X-13.19 Y-25.817 L4.59
N939 G02 X-12.929 Y-25.517 L5.175
N940 G03 X-12.512 Y-24.463 L1.54
N941 X-13.056 Y-23.288 L1.54
N942 X-13.366 Y-23.084 L1.54 F3000.
N943 X-13.641 Y-22.959 L2.597
N944 X-14.162 Y-22.868 L1.54 F4528.35
N945 X-15.636 Y-23.961 L1.54
N946 G02 X-16.347 Y-25.657 L8.471
N947 G03 X-16.393 Y-26.042 L1.624
N948 X-14.769 Y-27.666 L1.624
N949 X-14.393 Y-27.622 L1.624
N950 X-13.427 Y-26.136 L5.132
N951 X-13.206 Y-25.405 L1.325
N952 X-14.532 Y-24.079 L1.325
N953 X-14.641 Y-24.084 L1.325
N954 X-14.81 Y-24.073 L1.292
N955 X-15.965 Y-24.784 L1.292
N956 X-16.78 Y-26.508 L2.228
N957 X-15.892 Y-28.288 L2.228
N958 X-15.326 Y-28.438 L1.146
N959 X-14.187 Y-27.423 L1.146
N960 G01 X-13.989 Y-27.079
N961 G03 X-13.602 Y-26.131 L1.357
N962 X-14.959 Y-24.774 L1.357
N963 X-15.37 Y-24.838 L1.357
N964 X-17.082 Y-27.412 L2.791
N965 X-16.84 Y-28.549 L2.791
N966 X-15.768 Y-29.206 L1.202
N967 X-14.568 Y-28.083 L1.202
N968 X-14.211 Y-27.077 L1.597
N969 X-15.119 Y-25.636 L1.597
N970 X-15.456 Y-25.605 L1.845
N971 X-17.253 Y-27.034 L1.845
N972 X-17.647 Y-28.027 L1.449
N973 X-16.198 Y-29.476 L1.449
N974 X-15.287 Y-29.154 L1.449
N975 X-14.354 Y-26.496 L4.249
N976 X-14.385 Y-25.979 L4.249
N977 G02 X-8.778 Y-20.1 L7.029 F3000.
N978 G01 X15.362 Y-15.387
N979 G02 X17.286 Y-15.201 L10.042
N980 X18.688 Y-15.299 L10.042
N981 X19.187 Y-15.382 L10.042 F4528.35
N982 G03 X21.159 Y-15.64 L7.681
N983 X22.924 Y-15.434 L7.681
N984 X22.987 Y-15.435 L2.38
N985 X25.367 Y-13.055 L2.38
N986 X25.352 Y-12.787 L2.38
N987 X25.266 Y-12.676 L.795
N988 G02 X24.772 Y-12.054 L5.175
N989 G03 X23.29 Y-11.266 L1.789
N990 X22.561 Y-11.421 L1.789
N991 X22.406 Y-11.499 L1.789 F3000.
N992 X20.529 Y-13.982 L2.604
N993 X22.282 Y-15.416 L1.789 F4528.35
N994 X22.328 Y-15.415 L1.789
N995 X23.574 Y-15.557 L5.547
N996 X25.103 Y-15.342 L5.547
N997 X26.184 Y-13.826 L1.603
N998 X26.157 Y-13.53 L1.603
N999 X25.945 Y-13.289 L.795
N1000 G02 X24.841 Y-12.154 L5.175
N1001 G03 X23.383 Y-11.401 L1.789
N1002 X22.616 Y-11.573 L1.789
N1003 X21.594 Y-13.189 L1.789 F3000.
N1004 X21.594 Y-13.212 L1.789
N1005 X21.602 Y-13.76 L19.629
N1006 X23.151 Y-15.46 L1.789 F4528.35
N1007 X24.865 Y-15.914 L3.464
N1008 X25.897 Y-15.757 L3.464
N1009 X26.903 Y-14.524 L1.259
N1010 X26.611 Y-13.719 L1.259
N1011 G02 X25.517 Y-12.929 L5.357
N1012 G03 X24.459 Y-12.512 L1.551
N1013 X23.283 Y-13.051 L1.551
N1014 X22.911 Y-13.638 L1.54 F3000.
N1015 X22.824 Y-14.149 L1.54 F4528.35
N1016 X23.927 Y-15.626 L1.54
N1017 G02 X25.658 Y-16.347 L8.266
N1018 G03 X26.041 Y-16.392 L1.624
N1019 X27.664 Y-14.769 L1.624
N1020 X27.62 Y-14.392 L1.624
N1021 X26.136 Y-13.427 L5.129
N1022 X25.405 Y-13.207 L1.326
N1023 X24.079 Y-14.532 L1.326
N1024 X24.082 Y-14.626 L1.326
N1025 X24.069 Y-14.809 L1.292
N1026 X24.782 Y-15.963 L1.292
N1027 X26.506 Y-16.78 L2.229
N1028 X28.285 Y-15.893 L2.229
N1029 X28.436 Y-15.325 L1.146
N1030 X27.422 Y-14.186 L1.146
N1031 G01 X27.077 Y-13.988
N1032 G03 X26.129 Y-13.601 L1.357
N1033 X24.773 Y-14.958 L1.357
N1034 X24.835 Y-15.365 L1.357
N1035 X27.41 Y-17.081 L2.789
N1036 X28.549 Y-16.838 L2.789
N1037 X29.205 Y-15.767 L1.202
N1038 X28.083 Y-14.568 L1.202
N1039 X27.077 Y-14.211 L1.598
N1040 X25.636 Y-15.118 L1.598
N1041 X25.605 Y-15.456 L1.845
N1042 X27.033 Y-17.253 L1.845
N1043 X28.027 Y-17.647 L1.449
N1044 X29.476 Y-16.198 L1.449
N1045 X29.154 Y-15.287 L1.449
N1046 X26.481 Y-14.348 L4.275
N1047 X25.98 Y-14.378 L4.275
N1048 G02 X22.127 Y-10.647 L4.806 F3000.
N1049 G01 X16.791 Y14.439
N1050 G02 X16.572 Y16.456 L10.342
N1051 G01 X16.539 Y17.373 F4528.35
N1052 G03 X16.539 Y17.4 L7.018
N1053 X15.69 Y20.746 L7.018
N1054 G02 X15.243 Y23.504 L8.737
N1055 X15.246 Y23.73 L8.737
N1056 G03 X12.882 Y25.306 L2.562
N1057 X12.736 Y25.302 L2.562
N1058 X12.62 Y25.215 L.795
N1059 G02 X12.315 Y24.96 L5.175
N1060 G03 X11.592 Y23.449 L1.941
N1061 X11.746 Y22.692 L1.941
N1062 G01 X11.867 Y22.043 F3000.
N1063 G03 X13.625 Y20.583 L1.789
N1064 X13.958 Y20.614 L1.789
N1065 X15.414 Y22.372 L1.789 F4528.35
N1066 X15.414 Y22.395 L1.789
N1067 G02 X15.413 Y22.476 L8.493
N1068 X15.587 Y24.183 L8.493
N1069 G03 X13.494 Y26.104 L2.1
N1070 G01 X13.49
N1071 G03 X13.254 Y25.899 L.795
N1072 G02 X12.106 Y24.808 L5.175
N1073 G03 X11.337 Y23.338 L1.789
N1074 X11.501 Y22.589 L1.789
N1075 X13.126 Y21.549 L1.789 F3000.
N1076 X13.437 Y21.577 L1.789
N1077 G01 X13.756 Y21.633
N1078 X14.005 Y21.677 F4528.35
N1079 G03 X15.465 Y23.187 L1.789
N1080 G02 X15.91 Y24.903 L6.402
N1081 G03 X15.922 Y25.11 L1.737
N1082 X14.185 Y26.847 L1.737
N1083 X13.947 Y26.831 L1.737
N1084 X13.19 Y25.817 L5.256
N1085 G02 X12.929 Y25.517 L5.175
N1086 G03 X12.512 Y24.463 L1.54
N1087 X13.056 Y23.288 L1.54
N1088 X13.384 Y23.075 L1.54 F3000.
N1089 X13.641 Y22.96 L2.724
N1090 X14.162 Y22.869 L1.54 F4528.35
N1091 X15.636 Y23.963 L1.54
N1092 G02 X16.299 Y25.53 L6.788
N1093 G03 X16.342 Y25.907 L1.695
N1094 X14.646 Y27.602 L1.695
N1095 X14.384 Y27.582 L1.695
N1096 X13.427 Y26.136 L4.812
N1097 X13.247 Y25.439 L1.442
N1098 X14.689 Y23.997 L1.442
N1099 X15.911 Y24.674 L1.442
N1100 G02 X16.637 Y25.978 L21.133
N1101 G03 X16.796 Y26.687 L1.669
N1102 X15.126 Y28.356 L1.669
N1103 X14.808 Y28.326 L1.669
N1104 X13.758 Y26.68 L4.197
N1105 X13.649 Y26.132 L1.432
N1106 X15.081 Y24.7 L1.432
N1107 X16.293 Y25.371 L1.432
N1108 G01 X16.592 Y25.888
N1109 G03 X17.152 Y27.267 L1.977
N1110 X15.593 Y29.2 L1.977
N1111 X14.307 Y27.118 L2.328
N1112 X14.489 Y26.216 L2.328
N1113 X15.675 Y25.564 L1.405
N1114 X17.051 Y26.684 L1.405
N1115 G01 X17.25 Y27.028
N1116 G03 X17.648 Y28.026 L1.45
N1117 X16.198 Y29.476 L1.45
N1118 X15.287 Y29.154 L1.45
N1119 X14.345 Y26.464 L4.31
N1120 X14.372 Y25.981 L4.31
N1121 G02 X11.504 Y23.008 L3.855 F3000.
N1122 G01 X3.35 Y21.031
N1123 G02 X2.442 Y20.922 L3.855
N1124 X2.211 Y20.929 L3.855
N1125 X1.734 Y20.988 L3.855 F4528.35
N1126 G03 X.083 Y21.218 L6.04
N1127 X-2.75 Y20.512 L6.04
N1128 G01 X-3.134 Y20.409
N1129 G03 X-10.362 Y18.291 L69.468
N1130 G02 X-11.69 Y17.238 L4.893
N1131 X-11.983 Y17.131 L1.789 F3000.
N1132 X-18.775 Y15.312 L46.319
N1133 X-18.976 Y15.301 L1.789 F4528.35
N1134 X-19.346 Y15.339 L1.789
N1135 G03 X-21.468 Y15.591 L9.061
N1136 X-23.163 Y15.431 L9.061
N1137 X-25.347 Y12.918 L2.539
N1138 X-25.343 Y12.772 L2.539
N1139 X-25.267 Y12.677 L.795
N1140 G02 X-24.773 Y12.055 L5.175
N1141 G03 X-23.291 Y11.268 L1.789
N1142 X-22.562 Y11.424 L1.789
N1143 X-22.326 Y11.551 L1.789 F3000.
N1144 X-20.645 Y13.871 L2.441
N1145 X-20.646 Y13.949 L2.441
N1146 X-22.405 Y15.414 L1.789 F4528.35
N1147 X-22.419 Y15.414 L1.789
N1148 X-23.573 Y15.53 L5.764
N1149 X-25.193 Y15.298 L5.764
N1150 X-26.177 Y14.031 L1.307
N1151 X-25.947 Y13.291 L1.307
N1152 G02 X-24.843 Y12.156 L5.175
N1153 G03 X-23.385 Y11.404 L1.789
N1154 X-22.617 Y11.577 L1.789
N1155 X-21.596 Y13.193 L1.789 F3000.
N1156 X-21.622 Y13.493 L1.789
N1157 G01 X-21.666 Y13.752
N1158 X-21.708 Y13.998 F4528.35
N1159 G03 X-23.211 Y15.468 L1.789
N1160 X-24.864 Y15.918 L3.26
N1161 X-25.985 Y15.72 L3.26
N1162 X-26.939 Y14.542 L1.204
N1163 X-26.615 Y13.721 L1.204
N1164 G02 X-25.517 Y12.929 L5.365
N1165 G03 X-24.463 Y12.512 L1.54
N1166 X-23.288 Y13.056 L1.54
N1167 X-22.979 Y13.64 L1.54 F3000.
N1168 X-22.95 Y13.766 L1.54 F4528.35
N1169 X-22.915 Y14.112 L1.743
N1170 X-24.544 Y15.852 L1.743
N1171 X-25.824 Y16.321 L1.979
N1172 X-27.758 Y14.763 L1.979
N1173 X-26.136 Y13.427 L2.187
N1174 X-25.5 Y13.278 L1.438
N1175 X-24.061 Y14.716 L1.438
N1176 X-24.789 Y15.967 L1.438
N1177 X-26.51 Y16.782 L2.225
N1178 X-28.292 Y15.89 L2.225
N1179 X-28.44 Y15.327 L1.146
N1180 X-27.425 Y14.189 L1.146
N1181 G01 X-27.081 Y13.99
N1182 G03 X-26.133 Y13.603 L1.356
N1183 X-24.776 Y14.96 L1.356
N1184 X-24.844 Y15.382 L1.356
N1185 X-27.416 Y17.083 L2.795
N1186 X-28.547 Y16.844 L2.795
N1187 X-29.208 Y15.77 L1.204
N1188 X-28.083 Y14.568 L1.204
N1189 X-27.076 Y14.211 L1.598
N1190 X-25.636 Y15.118 L1.598
N1191 X-25.604 Y15.456 L1.845
N1192 X-27.033 Y17.253 L1.845
N1193 X-28.027 Y17.647 L1.449
N1194 X-29.476 Y16.198 L1.449
N1195 X-29.154 Y15.287 L1.449
N1196 X-26.874 Y14.413 L3.411
N1197 X-26.457 Y14.439 L3.411
N1198 G00 Z50.

(Operation # 8)
N1199 X-1.584 Y13.591
N1200 Z2.
N1201 G01 Z0. F5000.
N1202 X-3.642 Y21.27 F3018.9
N1203 G03 X-5.561 Y22.743 L1.987
N1204 X-6.076 Y22.675 L1.987
N1205 G01 X-25.447 Y17.485
N1206 G03 X-27.866 Y13.296 L30.875
N1207 G01 X-17.485 Y-25.447
N1208 G03 X-13.296 Y-27.866 L30.875
N1209 G01 X25.447 Y-17.485
N1210 G03 X27.866 Y-13.296 L30.875
N1211 G01 X17.485 Y25.447
N1212 G03 X13.296 Y27.866 L30.875
N1213 G01 X-6.076 Y22.675
N1214 G03 X-7.549 Y20.755 L1.988
N1215 X-7.481 Y20.241 L1.988
N1216 G01 X-5.424 Y12.562
N1217 G00 Z10.
N1218 X-3.396 Y20.352
N1219 Z2.
N1220 G01 Z0. F5000.
N1221 X-5.453 Y28.031 F3018.9
N1222 G03 X-7.373 Y29.504 L1.988
N1223 X-7.888 Y29.437 L1.988
N1224 G01 X-29.611 Y23.616
N1225 G03 X-35.257 Y13.836 L37.875
N1226 G01 X-23.616 Y-29.611
N1227 G03 X-13.836 Y-35.257 L37.875
N1228 G01 X29.611 Y-23.616
N1229 G03 X35.257 Y-13.836 L37.875
N1230 G01 X23.616 Y29.611
N1231 G03 X13.836 Y35.257 L37.875
N1232 G01 X-7.888 Y29.437
N1233 G03 X-9.361 Y27.517 L1.988
N1234 X-9.293 Y27.002 L1.988
N1235 G01 X-7.235 Y19.323
N1236 G00 Z10.
N1237 X-5.207 Y27.114
N1238 Z2.
N1239 G01 Z0. F5000.
N1240 X-7.265 Y34.793 F3018.9
N1241 G03 X-9.185 Y36.266 L1.988
N1242 X-9.699 Y36.198 L1.988
N1243 G01 X-33.544 Y29.809
N1244 G03 X-42.587 Y14.145 L44.875
N1245 G01 X-29.809 Y-33.544
N1246 G03 X-14.145 Y-42.587 L44.875
N1247 G01 X33.544 Y-29.809
N1248 G03 X42.587 Y-14.145 L44.875
N1249 G01 X29.809 Y33.544
N1250 G03 X14.145 Y42.587 L44.875
N1251 G01 X-9.699 Y36.198
N1252 G03 X-11.172 Y34.278 L1.988
N1253 X-11.105 Y33.764 L1.988
N1254 G01 X-9.047 Y26.085
N1255 G00 Z50.

(Operation # 9)
N1256 X-41.247 Y-38.813
N1257 Z2.
N1258 G01 Z-11. F5000.
N1259 G41 X-37.408 Y-37.785 F3018.9
N1260 G03 X-35.935 Y-35.865 L1.988
N1261 X-36.002 Y-35.35 L1.988
N1262 G01 X-48.854 Y12.613
N1263 G02 X-49.058 Y14.16 L5.975
N1264 X-48.759 Y16.025 L5.975
N1265 X-38.258 Y34.214 L51.325
N1266 X-35.35 Y36.002 L5.975
N1267 G01 X12.613 Y48.854
N1268 G02 X14.16 Y49.058 L5.975
N1269 X16.025 Y48.759 L5.975
N1270 X34.214 Y38.258 L51.325
N1271 X36.002 Y35.35 L5.975
N1272 G01 X48.854 Y-12.613
N1273 G02 X49.058 Y-14.16 L5.975
N1274 X48.759 Y-16.025 L5.975
N1275 X38.258 Y-34.214 L51.325
N1276 X35.35 Y-36.002 L5.975
N1277 G01 X-12.613 Y-48.854
N1278 G02 X-14.16 Y-49.058 L5.975
N1279 X-16.025 Y-48.759 L5.975
N1280 X-34.214 Y-38.258 L51.325
N1281 X-36.002 Y-35.35 L5.975
N1282 G03 X-37.922 Y-33.877 L1.988
N1283 X-38.437 Y-33.945 L1.988
N1284 G01 G40 X-42.276 Y-34.974
N1285 G00 Z10.
N1286 X-41.247 Y-38.813
N1287 Z-9.
N1288 G01 Z-22. F5000.
N1289 G41 X-37.408 Y-37.785 F3018.9
N1290 G03 X-35.935 Y-35.865 L1.988
N1291 X-36.002 Y-35.35 L1.988
N1292 G01 X-48.854 Y12.613
N1293 G02 X-49.058 Y14.16 L5.975
N1294 X-48.759 Y16.025 L5.975
N1295 X-38.258 Y34.214 L51.325
N1296 X-35.35 Y36.002 L5.975
N1297 G01 X12.613 Y48.854
N1298 G02 X14.16 Y49.058 L5.975
N1299 X16.025 Y48.759 L5.975
N1300 X34.214 Y38.258 L51.325
N1301 X36.002 Y35.35 L5.975
N1302 G01 X48.854 Y-12.613
N1303 G02 X49.058 Y-14.16 L5.975
N1304 X48.759 Y-16.025 L5.975
N1305 X38.258 Y-34.214 L51.325
N1306 X35.35 Y-36.002 L5.975
N1307 G01 X-12.613 Y-48.854
N1308 G02 X-14.16 Y-49.058 L5.975
N1309 X-16.025 Y-48.759 L5.975
N1310 X-34.214 Y-38.258 L51.325
N1311 X-36.002 Y-35.35 L5.975
N1312 G03 X-37.922 Y-33.877 L1.988
N1313 X-38.437 Y-33.945 L1.988
N1314 G01 G40 X-42.276 Y-34.974
N1315 G00 Z50.

(Operation # 10)
N1316 X6.992 Y17.684
N1317 Z2.
N1318 G01 Z-14.5 F5000.
N1319 X8.059 Y21.514 F3018.9
N1320 G03 X8.132 Y22.047 L1.988 F1006.3
N1321 X6.679 Y23.962 L1.988
N1322 X0. Y24.875 L24.875 F2602.95
N1323 X-17.765 Y17.412 L24.875
N1324 G02 X-20.03 Y16.089 L4.975 F3018.9
N1325 G01 X-21.173 Y15.783
N1326 G02 X-22.46 Y15.613 L4.975
N1327 X-24.948 Y16.28 L4.975
N1328 G01 X-27.247 Y17.607
N1329 G03 X-28.059 Y17.825 L1.625 F876.02
N1330 X-29.684 Y16.2 L1.625
N1331 X-28.872 Y14.793 L1.625
N1332 G01 X-26.573 Y13.465 F3018.9
N1333 G02 X-24.255 Y10.445 L4.975
N1334 G01 X-23.949 Y9.302
N1335 G02 X-23.779 Y8.014 L4.975
N1336 X-23.962 Y6.679 L4.975
N1337 G03 X-24.875 Y0. L24.875 F2602.95
N1338 X-17.412 Y-17.765 L24.875
N1339 G02 X-16.089 Y-20.03 L4.975 F3018.9
N1340 G01 X-15.783 Y-21.173
N1341 G02 X-15.613 Y-22.46 L4.975
N1342 X-16.28 Y-24.948 L4.975
N1343 G01 X-17.607 Y-27.247
N1344 G03 X-17.825 Y-28.059 L1.625 F876.02
N1345 X-16.2 Y-29.684 L1.625
N1346 X-14.793 Y-28.872 L1.625
N1347 G01 X-13.465 Y-26.573 F3018.9
N1348 G02 X-10.445 Y-24.255 L4.975
N1349 G01 X-9.302 Y-23.949
N1350 G02 X-8.014 Y-23.779 L4.975
N1351 X-6.679 Y-23.962 L4.975
N1352 G03 X0. Y-24.875 L24.875 F2602.95
N1353 X17.765 Y-17.412 L24.875
N1354 G02 X20.03 Y-16.089 L4.975 F3018.9
N1355 G01 X21.173 Y-15.783
N1356 G02 X22.46 Y-15.613 L4.975
N1357 X24.948 Y-16.28 L4.975
N1358 G01 X27.247 Y-17.607
N1359 G03 X28.059 Y-17.825 L1.625 F876.02
N1360 X29.684 Y-16.2 L1.625
N1361 X28.872 Y-14.793 L1.625
N1362 G01 X26.573 Y-13.465 F3018.9
N1363 G02 X24.255 Y-10.445 L4.975
N1364 G01 X23.949 Y-9.302
N1365 G02 X23.779 Y-8.014 L4.975
N1366 X23.962 Y-6.679 L4.975
N1367 G03 X24.875 Y0. L24.875 F2602.95
N1368 X17.412 Y17.765 L24.875
N1369 G02 X16.089 Y20.03 L4.975 F3018.9
N1370 G01 X15.783 Y21.173
N1371 G02 X15.613 Y22.46 L4.975
N1372 X16.28 Y24.948 L4.975
N1373 G01 X17.607 Y27.247
N1374 G03 X17.825 Y28.059 L1.625 F876.02
N1375 X16.2 Y29.684 L1.625
N1376 X14.793 Y28.872 L1.625
N1377 G01 X13.465 Y26.573 F3018.9
N1378 G02 X10.445 Y24.255 L4.975
N1379 G01 X9.302 Y23.949
N1380 G02 X8.014 Y23.779 L4.975
N1381 X6.679 Y23.962 L4.975
N1382 G03 X6.145 Y24.035 L1.987 F1006.3
N1383 X4.23 Y22.581 L1.987
N1384 G01 X3.163 Y18.752 F3018.9
N1385 G00 Z50.

(Operation # 11)
N1386 X13.907 Y19.01
N1387 Z2.
N1388 G01 Z-23.5 F5000.
N1389 X12.879 Y22.849 F3018.9
N1390 G03 X10.959 Y24.322 L1.987 F1006.3
N1391 X10.445 Y24.255 L1.987
N1392 G01 X-21.17 Y15.784 F3018.9
N1393 G02 X-22.46 Y15.613 L4.975
N1394 X-24.948 Y16.28 L4.975
N1395 G01 X-27.247 Y17.607
N1396 G03 X-28.059 Y17.825 L1.625 F876.02
N1397 X-29.684 Y16.2 L1.625
N1398 X-28.872 Y14.793 L1.625
N1399 G01 X-26.573 Y13.465 F3018.9
N1400 G02 X-24.255 Y10.445 L4.975
N1401 G01 X-23.949 Y9.302
N1402 G02 X-23.779 Y8.014 L4.975
N1403 X-23.962 Y6.679 L4.975
N1404 G03 X-24.875 Y0. L24.875 F2602.95
N1405 X-17.412 Y-17.765 L24.875
N1406 G02 X-16.089 Y-20.03 L4.975 F3018.9
N1407 G01 X-15.783 Y-21.173
N1408 G02 X-15.613 Y-22.46 L4.975
N1409 X-16.28 Y-24.948 L4.975
N1410 G01 X-17.607 Y-27.247
N1411 G03 X-17.825 Y-28.059 L1.625 F876.02
N1412 X-16.2 Y-29.684 L1.625
N1413 X-14.793 Y-28.872 L1.625
N1414 G01 X-13.465 Y-26.573 F3018.9
N1415 G02 X-10.445 Y-24.255 L4.975
N1416 G01 X21.17 Y-15.784
N1417 G02 X22.46 Y-15.613 L4.975
N1418 X24.948 Y-16.28 L4.975
N1419 G01 X27.247 Y-17.607
N1420 G03 X28.059 Y-17.825 L1.625 F876.02
N1421 X29.684 Y-16.2 L1.625
N1422 X28.872 Y-14.793 L1.625
N1423 G01 X26.573 Y-13.465 F3018.9
N1424 G02 X24.255 Y-10.445 L4.975
N1425 G01 X23.949 Y-9.302
N1426 G02 X23.779 Y-8.014 L4.975
N1427 X23.962 Y-6.679 L4.975
N1428 G03 X24.875 Y0. L24.875 F2602.95
N1429 X17.412 Y17.765 L24.875
N1430 G02 X16.089 Y20.03 L4.975 F3018.9
N1431 G01 X15.783 Y21.173
N1432 G02 X15.613 Y22.46 L4.975
N1433 X16.28 Y24.948 L4.975
N1434 G01 X17.607 Y27.247
N1435 G03 X17.825 Y28.059 L1.625 F876.02
N1436 X16.2 Y29.684 L1.625
N1437 X14.793 Y28.872 L1.625
N1438 G01 X13.465 Y26.573 F3018.9
N1439 G02 X10.445 Y24.255 L4.975
N1440 G03 X8.971 Y22.335 L1.987 F1006.3
N1441 X9.039 Y21.821 L1.987
N1442 G01 X10.068 Y17.981 F3018.9
N1443 G00 Z50.

(Operation # 12)
N1444 X9.729 Y20.859
N1445 Z2.
N1446 G01 Z-29.5 F5000.
N1447 X13.551 Y21.952 F3018.9
N1448 G03 X14.992 Y23.863 L1.987 F1006.3
N1449 X14.916 Y24.409 L1.987
N1450 X13.93 Y25.152 L1.025 F618.87
N1451 X13.665 Y25.118 L1.025
N1452 G01 X-24.393 Y14.92 F3018.9
N1453 G03 X-25.152 Y13.93 L1.025 F618.87
N1454 X-25.122 Y13.681 L1.025
N1455 X-23.194 Y12.176 L1.987 F1006.3
N1456 X-22.711 Y12.236 L1.987
N1457 G01 X-18.855 Y13.2 F3018.9
N1458 G00 Z50.
N1459 X-9.729 Y-20.859
N1460 Z2.
N1461 G01 Z-29.5 F5000.
N1462 X-13.551 Y-21.952 F3018.9
N1463 G03 X-14.992 Y-23.863 L1.987 F1006.3
N1464 X-14.916 Y-24.409 L1.987
N1465 X-13.93 Y-25.152 L1.025 F618.87
N1466 X-13.665 Y-25.118 L1.025
N1467 G01 X24.393 Y-14.92 F3018.9
N1468 G03 X25.152 Y-13.93 L1.025 F618.87
N1469 X25.122 Y-13.681 L1.025
N1470 X23.194 Y-12.176 L1.988 F1006.3
N1471 X22.711 Y-12.236 L1.988
N1472 G01 X18.855 Y-13.2 F3018.9
N1473 G00 Z50.
N1474 G136
N1475 M146
N1476 M174 M142
N1477 G20HP=1.
N1478 M12
N1479 M109
N1480 M01

(Operation # 13)
(4258  | EBAV-3T D8  | DIA. -  8)
N1481 M110
N1482 G20HP=1.
N1483 TD=014258 M323 (B0.)
N1484 MT=380201
N1485 SB=7000 M13 M242
N1486 G20 HP=4 (SAFE MOVE -- NOT SIMULATED)
N1487 G00 C0. M15
N1488 M147
N1489 G138
N1490 M51
N1491 G94 G17 Z50.
N1492 X9.303 Y53.48
N1493 Z2.2
N1494 G01 Z.2 F5000.
N1495 X10.338 Y49.616 F4000.
N1496 G03 X12.27 Y48.134 L2. F1333.33
N1497 X12.788 Y48.202 L2.
N1498 G02 X14.16 Y48.383 L5.3 F6000.
N1499 X15.814 Y48.118 L5.3
N1500 X33.764 Y37.755 L50.65 F4342.98
N1501 X35.35 Y35.176 L5.3 F6000.
N1502 G01 X48.202 Y-12.788 F4000.
N1503 G02 X48.383 Y-14.16 L5.3 F6000.
N1504 X48.118 Y-15.814 L5.3
N1505 X37.755 Y-33.764 L50.65 F4342.98
N1506 X35.176 Y-35.35 L5.3 F6000.
N1507 G01 X-12.788 Y-48.202 F4000.
N1508 G02 X-14.16 Y-48.383 L5.3 F6000.
N1509 X-15.814 Y-48.118 L5.3
N1510 X-33.764 Y-37.755 L50.65 F4342.98
N1511 X-35.35 Y-35.176 L5.3 F6000.
N1512 G01 X-48.202 Y12.788 F4000.
N1513 G02 X-48.383 Y14.16 L5.3 F6000.
N1514 X-48.118 Y15.814 L5.3
N1515 X-37.755 Y33.764 L50.65 F4342.98
N1516 X-35.176 Y35.35 L5.3 F6000.
N1517 G01 X12.788 Y48.202 F4000.
N1518 G03 X14.27 Y50.134 L2. F1333.33
N1519 X14.202 Y50.652 L2.
N1520 G01 X13.167 Y54.515 F4000.
N1521 G00 Z50.
N1522 X7.175 Y18.295
N1523 Z2.2
N1524 G01 Z.2 F5000.
N1525 X8.249 Y22.148 F4000.
N1526 G03 X8.323 Y22.685 L2. F1333.33
N1527 X6.86 Y24.612 L2.
N1528 X0. Y25.55 L25.55 F3458.54
N1529 X-18.247 Y17.885 L25.55
N1530 G02 X-20.205 Y16.741 L4.3 F6000.
N1531 G01 X-21.347 Y16.435 F4000.
N1532 G02 X-22.46 Y16.288 L4.3 F6000.
N1533 X-24.61 Y16.865 L4.3
N1534 G01 X-26.909 Y18.192 F4000.
N1535 G03 X-28.059 Y18.5 L2.3 F1460.32
N1536 X-30.359 Y16.2 L2.3
N1537 X-29.209 Y14.208 L2.3
N1538 G01 X-26.91 Y12.881 F4000.
N1539 G02 X-24.907 Y10.27 L4.3 F6000.
N1540 G01 X-24.601 Y9.127 F4000.
N1541 G02 X-24.454 Y8.014 L4.3 F6000.
N1542 X-24.612 Y6.86 L4.3
N1543 G03 X-25.55 Y0. L25.55 F3458.54
N1544 X-17.885 Y-18.247 L25.55
N1545 G02 X-16.741 Y-20.205 L4.3 F6000.
N1546 G01 X-16.435 Y-21.347 F4000.
N1547 G02 X-16.288 Y-22.46 L4.3 F6000.
N1548 X-16.865 Y-24.61 L4.3
N1549 G01 X-18.192 Y-26.909 F4000.
N1550 G03 X-18.5 Y-28.059 L2.3 F1460.32
N1551 X-16.2 Y-30.359 L2.3
N1552 X-14.208 Y-29.209 L2.3
N1553 G01 X-12.881 Y-26.91 F4000.
N1554 G02 X-10.27 Y-24.907 L4.3 F6000.
N1555 G01 X-9.127 Y-24.601 F4000.
N1556 G02 X-8.014 Y-24.454 L4.3 F6000.
N1557 X-6.86 Y-24.612 L4.3
N1558 G03 X0. Y-25.55 L25.55 F3458.54
N1559 X18.247 Y-17.885 L25.55
N1560 G02 X20.205 Y-16.741 L4.3 F6000.
N1561 G01 X21.347 Y-16.435 F4000.
N1562 G02 X22.46 Y-16.288 L4.3 F6000.
N1563 X24.61 Y-16.865 L4.3
N1564 G01 X26.909 Y-18.192 F4000.
N1565 G03 X28.059 Y-18.5 L2.3 F1460.32
N1566 X30.359 Y-16.2 L2.3
N1567 X29.209 Y-14.208 L2.3
N1568 G01 X26.91 Y-12.881 F4000.
N1569 G02 X24.907 Y-10.27 L4.3 F6000.
N1570 G01 X24.601 Y-9.127 F4000.
N1571 G02 X24.454 Y-8.014 L4.3 F6000.
N1572 X24.612 Y-6.86 L4.3
N1573 G03 X25.55 Y0. L25.55 F3458.54
N1574 X17.885 Y18.247 L25.55
N1575 G02 X16.741 Y20.205 L4.3 F6000.
N1576 G01 X16.435 Y21.347 F4000.
N1577 G02 X16.288 Y22.46 L4.3 F6000.
N1578 X16.865 Y24.61 L4.3
N1579 G01 X18.192 Y26.909 F4000.
N1580 G03 X18.5 Y28.059 L2.3 F1460.32
N1581 X16.2 Y30.359 L2.3
N1582 X14.208 Y29.209 L2.3
N1583 G01 X12.881 Y26.91 F4000.
N1584 G02 X10.27 Y24.907 L4.3 F6000.
N1585 G01 X9.127 Y24.601 F4000.
N1586 G02 X8.014 Y24.454 L4.3 F6000.
N1587 X6.86 Y24.612 L4.3
N1588 G03 X6.323 Y24.685 L2. F1333.33
N1589 X4.396 Y23.222 L2.
N1590 G01 X3.322 Y19.369 F4000.
N1591 G00 Z50.

(Operation # 14)
N1592 X8.817 Y19.962
N1593 Z2.
N1594 G01 Z-14.3 F5000.
N1595 X7.782 Y23.826 F4000.
N1596 G03 X7.589 Y23.974 L.2 F400.
N1597 X7.537 Y23.967 L.2
N1598 G01 X-18.511 Y16.988 F4000.
N1599 G03 X-18.659 Y16.795 L.2 F400.
N1600 X-18.652 Y16.743 L.2
N1601 G01 X-17.617 Y12.879 F4000.
N1602 G00 Z50.
N1603 X-8.817 Y-19.962
N1604 Z2.
N1605 G01 Z-14.3 F5000.
N1606 X-7.782 Y-23.826 F4000.
N1607 G03 X-7.589 Y-23.974 L.2 F400.
N1608 X-7.537 Y-23.967 L.2
N1609 G01 X18.511 Y-16.988 F4000.
N1610 G03 X18.659 Y-16.795 L.2 F400.
N1611 X18.652 Y-16.743 L.2
N1612 G01 X17.617 Y-12.879 F4000.
N1613 G00 Z50.
N1614 G136
N1615 M146
N1616 M50
N1617 G20HP=1.
N1618 M12
N1619 M109
N1620 M01

(Operation # 15)
(3802  | FR  D2 GRAVURE PLAST  | DIA. -  2)
N1621 M110
N1622 G20HP=1.
N1623 TD=013802 M323 (B0.)
N1624 MT=331201
N1625 SB=10000 M13 M242
N1626 G20 HP=4 (SAFE MOVE -- NOT SIMULATED)
N1627 G00 C0. M15
N1628 M147
N1629 G138
N1630 M51
N1631 G94 G17 Z50.
N1632 X-15.295 Y-40.69
N1633 Z2.
N1634 G01 Z-.1 F3000.
N1635 X-15.146 Y-41.158 F2000.
N1636 X-14.879 Y-41.551
N1637 X-14.52 Y-41.868
N1638 X-14.109 Y-42.072
N1639 X-13.473 Y-42.177
N1640 X-13.264 Y-42.166
N1641 X-12.851 Y-42.087
N1642 X-12.46 Y-41.939
N1643 X-12.105 Y-41.722
N1644 X-11.796 Y-41.433
N1645 X-11.544 Y-41.073
N1646 X-11.358 Y-40.644
N1647 X-11.24 Y-39.97
N1648 X-11.246 Y-39.781
N1649 X-11.314 Y-39.365
N1650 X-11.454 Y-38.974
N1651 X-11.663 Y-38.62
N1652 X-11.939 Y-38.315
N1653 X-12.275 Y-38.071
N1654 X-12.664 Y-37.898
N1655 X-13.379 Y-37.78
N1656 X-13.625 Y-37.785
N1657 X-14.11 Y-37.858
N1658 X-14.564 Y-38.017
N1659 X-14.966 Y-39.232
N1660 X-13.497 Y-39.718
N1661 G00 Z2.
N1662 X-15.46 Y-38.461
N1663 G01 Z-.1 F3000.
N1664 X-16.693 Y-37.941 F2000.
N1665 G00 Z2.
N1666 X-19.485 Y-36.025
N1667 G01 Z-.1 F3000.
N1668 X-20.121 Y-36.99 F2000.
N1669 X-20.565 Y-38.024
N1670 X-20.598 Y-38.127
N1671 X-20.654 Y-38.569
N1672 X-20.57 Y-38.975
N1673 X-20.35 Y-39.322
N1674 X-20.031 Y-39.596
N1675 X-19.61 Y-39.723
N1676 X-19.192 Y-39.7
N1677 X-18.805 Y-39.558
N1678 X-18.491 Y-39.264
N1679 X-17.886 Y-38.327
N1680 X-17.467 Y-37.309
N1681 X-17.399 Y-37.074
N1682 X-17.345 Y-36.662
N1683 X-17.446 Y-36.259
N1684 X-17.671 Y-35.919
N1685 X-17.999 Y-35.674
N1686 X-18.402 Y-35.55
N1687 X-18.81 Y-35.571
N1688 X-19.184 Y-35.734
N1689 X-19.483 Y-36.022
N1690 G00 Z2.
N1691 X-20.869 Y-34.057
N1692 G01 Z-.1 F3000.
N1693 X-23.138 Y-37.893 F2000.
N1694 X-22.379 Y-37.596
N1695 X-22.329 Y-37.584
N1696 X-21.905 Y-37.524
N1697 X-21.463 Y-37.537
N1698 G00 Z2.
N1699 X-24.433 Y-33.169
N1700 G01 Z-.1 F3000.
N1701 X-22.055 Y-34.796 F2000.
N1702 X-25.737 Y-36.182
N1703 X-23.22 Y-32.504
N1704 G00 Z2.
N1705 X-25.912 Y-30.401
N1706 G01 Z-.1 F3000.
N1707 X-28.734 Y-33.851 F2000.
N1708 X-24.947 Y-32.785
N1709 X-27.178 Y-30.96
N1710 G00 Z50.
N1711 G136
N1712 M146
N1713 M50
N1714 G20HP=1.
N1715 M12
N1716 M109
N1717 M01

(OPERATION # 16)
(SEND UPPER TURRET LEFT PARK)
N1718 M01 (PARK HOME)
N1719 G20HP=1.
N1720 G00 BA=0.
N1721 M01

(OPERATION # 17)
(RIGHT SPINDLE UNCLAMP + EJECT)
N1722 M247 (OPPOSING SPINDLE CHUCK INTERLOCK RELEASE ON)
N1723 M249 (OPPOSING SPINDLE CHUCK UNCLAMP)
N1724 G04 F1.

(OPERATION # 18)
(SPINDLE SYNC)
N1725 G140
N1726 M151 (SYNC SPINDLES - MAIN IS MASTER)
N1727 G97 S100 M03

(OPERATION # 19)
(PICKOFF SPINDLE MOVE TO CLEARANCE)
N1728 M89 M289
N1729 G00 W10.7 (MOVE SECOND SPINDLE TO CLEARANCE POSITION)

(OPERATION # 20)
(RIGHT SPINDLE MOVE TO GRIP POSITION)
N1730 G29 PW=30
N1731 G22 W-12. D5. L2. F300. PW=20 (MOVE SECOND SPINDLE TO GRIP POSITION)
N1732 G29 PW=5

(OPERATION # 21)
(RIGHT SPINDLE CLAMP + TRANSFER)
N1733 M248 (OPPOSING SPINDLE CHUCK CLAMP)
N1734 M246 (OPPOSING SPINDLE CHUCK INTERLOCK RELEASE OFF)
N1735 G04 F1.
N1736 M88 M288
N1737 G28

(OPERATION # 22)
(LEFT SPINDLE UNCLAMP)
N1738 M185 (CHUCK INTERNAL INTERLOCK RELEASE ON)
N1739 M84 (MAIN SPINDLE CHUCK UNCLAMP)
N1740 G04 F1.

(OPERATION # 23)
(RIGHT SPINDLE RETRACT TO HOME)
N1741 G00 W9999. (MOVE SECOND SPINDLE HOME)
N1742 M05

(OPERATION # 24)
(CANCEL PHASE SYNC SPINDLES)
N1743 M150 (CANCEL SPINDLE SYNC MODE)

N1744 G141
(Operation # 25)
(3312  | FR D12 PLAST  | DIA. -  12)
N1745 M110
N1746 G20HP=1.
N1747 TD=073312 M323 (B0.)
N1748 MT=330801
N1749 SB=8000 M13 M242
N1750 M146
N1751 G20 HP=4 (SAFE MOVE -- NOT SIMULATED)
N1752 G00 C0. M15
N1753 M147
N1754 G138
N1755 M175 M142
N1756 G94 G17 Z50.
N1757 X-48.378 Y-44.744
N1758 Z2.
N1759 G01 Z-6.9 F5000.
N1760 X-52.596 Y-37.676 F4800.
N1761 G03 X-55.214 Y-33.973 L8.589
N1762 G02 X-56.565 Y-29.201 L9.101
N1763 X-56.127 Y-26.41 L9.101
N1764 X-54.527 Y-20.855 L99.162
N1765 G01 X-54.362 Y-20.32
N1766 X-37.194 Y34.703
N1767 X-33.053 Y47.548
N1768 G02 X-26.402 Y50.646 L8.689
N1769 X-25.828 Y50.627 L8.689
N1770 X-8.903 Y47.796 L68.649
N1771 G01 X-8.319 Y47.649
N1772 X47.163 Y32.764
N1773 G02 X50.49 Y26.238 L8.064
N1774 X50.483 Y25.883 L8.064
N1775 X48.084 Y10.093 L58.215
N1776 G01 X47.939 Y9.507
N1777 X32.768 Y-47.155
N1778 G02 X26.246 Y-50.485 L8.05
N1779 X25.899 Y-50.478 L8.05
N1780 X10.106 Y-48.087 L57.939
N1781 G01 X9.52 Y-47.942
N1782 X-46.627 Y-32.854
N1783 G02 X-49.747 Y-26.307 L8.431
N1784 X-49.74 Y-25.952 L8.431
N1785 X-47.055 Y-10.802 L50.064
N1786 G01 X-46.889 Y-10.221
N1787 X-31.03 Y40.596
N1788 G02 X-22.955 Y44.939 L10.326
N1789 X-20.834 Y44.984 L49.701
N1790 X-7.065 Y43.039 L49.701
N1791 G01 X-6.476 Y42.901
N1792 X40.304 Y30.433
N1793 G02 X44.759 Y22.531 L9.96
N1794 X44.823 Y20.051 L48.228
N1795 X42.918 Y6.63 L48.228
N1796 G01 X42.78 Y6.04
N1797 X30.486 Y-40.194
N1798 G02 X22.681 Y-44.739 L9.795
N1799 X19.779 Y-44.832 L45.012
N1800 X7.362 Y-43.086 L45.012
N1801 G01 X6.771 Y-42.95
N1802 X-39.469 Y-30.674
N1803 G02 X-43.902 Y-22.855 L9.56
N1804 X-43.934 Y-21.179 L43.343
N1805 X-41.749 Y-7.591 L43.343
N1806 G01 X-41.591 Y-7.005
N1807 X-38.91 Y2.19
N1808 G03 X-38.588 Y3.387 L38.195
N1809 G01 X-38.433 Y3.966
N1810 X-31.276 Y30.676
N1811 G02 X-25.623 Y38.132 L12.575
N1812 X-19.476 Y39.924 L18.514
N1813 G01 X-18.956 Y40.224
N1814 X-16.392 Y41.705
N1815 G02 X-12.531 Y42.668 L8.214
N1816 X-9.189 Y41.958 L8.214
N1817 G01 X-8.61 Y41.803
N1818 X30.676 Y31.276
N1819 G02 X39.724 Y19.823 L12.879
N1820 G01 X40.024 Y19.303
N1821 X41.705 Y16.392
N1822 G02 X42.668 Y12.544 L8.169
N1823 X41.975 Y9.251 L8.169
N1824 G01 X41.819 Y8.672
N1825 X31.276 Y-30.676
N1826 G02 X19.825 Y-39.722 L12.88
N1827 G01 X19.306 Y-40.022
N1828 X16.392 Y-41.705
N1829 G02 X12.531 Y-42.668 L8.214
N1830 X9.189 Y-41.958 L8.214
N1831 G01 X8.61 Y-41.803
N1832 X-30.676 Y-31.276
N1833 G02 X-38.522 Y-21.904 L11.531
N1834 G01 X-38.822 Y-21.384
N1835 X-41.705 Y-16.392
N1836 G02 X-42.668 Y-12.544 L8.169
N1837 X-41.975 Y-9.251 L8.169
N1838 G01 X-41.819 Y-8.672
N1839 X-38.714 Y2.919
N1840 G03 X-38.645 Y3.881 L6.82
N1841 X-39.213 Y6.607 L6.82
N1842 X-41.653 Y8.069 L2.765 F5000.
N1843 X-44.417 Y5.378 L2.765
N1844 G01 X-44.885 Y-12.081
N1845 G03 X-44.888 Y-12.293 L7.923
N1846 X-44.566 Y-14.529 L7.923
N1847 G01 X-39.121 Y-33.046
N1848 G03 X-33.8 Y-37.028 L5.546
N1849 X-31.677 Y-36.606 L5.546
N1850 X-29.981 Y-34.067 L2.747
N1851 X-30.014 Y-33.648 L2.747
N1852 X-30.567 Y-32.372 L2.747 F4800.
N1853 G01 X-30.671 Y-32.239
N1854 G03 X-33.43 Y-29.846 L7.524
N1855 G02 X-36.848 Y-24.804 L16.055
N1856 G01 X-37.148 Y-24.284
N1857 G03 X-39.697 Y-20.334 L12.208
N1858 G02 X-41.805 Y-18.744 L21.382
N1859 X-45.032 Y-11.565 L9.597 F5000.
N1860 X-44.721 Y-9.142 L9.597
N1861 G01 X-36.239 Y23.356
N1862 G02 X-33.467 Y28.717 L13.709
N1863 X-32.48 Y29.772 L13.709 F4800.
N1864 G03 X-30.284 Y32.849 L6.972
N1865 G02 X-25.323 Y36.548 L12.182
N1866 G01 X-24.804 Y36.848
N1867 X-18.568 Y40.448
N1868 G03 X-16.128 Y43.29 L9.03
N1869 G02 X-11.538 Y45.222 L6.418 F5000.
N1870 X-10.019 Y45.04 L6.418
N1871 G01 X23.464 Y36.883
N1872 G02 X29.627 Y33.417 L13.099
N1873 X30.671 Y32.239 L13.099 F4800.
N1874 G03 X33.43 Y29.846 L7.524
N1875 G02 X36.848 Y24.804 L16.054
N1876 G01 X37.148 Y24.284
N1877 X40.148 Y19.088
N1878 G03 X42.991 Y16.649 L9.027
N1879 G02 X44.945 Y12.016 L6.467 F5000.
N1880 X44.779 Y10.558 L6.467
N1881 G01 X36.954 Y-23.26
N1882 G02 X33.418 Y-29.627 L13.199
N1883 X32.239 Y-30.671 L13.199 F4800.
N1884 G03 X29.846 Y-33.43 L7.524
N1885 G02 X24.804 Y-36.848 L16.054
N1886 G01 X24.284 Y-37.148
N1887 X19.088 Y-40.148
N1888 G03 X17.245 Y-42.285 L5.018
N1889 G00 Z50.

(Operation # 26)
N1890 X1.746 Y2.969
N1891 Z2.
N1892 G01 Z.5 F5000.
N1893 G03 X-3.941 Y7.056 Z-.023 I-5.687 J-1.913 F7200.
N1894 X-9.941 Y1.056 Z-.682 I0. J-6.
N1895 X-3.941 Y-4.944 Z-1.341 I6. J0.
N1896 X2.059 Y1.056 Z-2. I0. J6.
N1897 X-3.941 Y7.056 L6.
N1898 X-9.941 Y1.056 L6.
N1899 X-3.941 Y-4.944 L6.
N1900 X2.059 Y1.056 L6.
N1901 G01 X2.067 Y1.139
N1902 G03 X2.07 Y1.364 L6.679
N1903 X-4.609 Y8.043 L6.679
N1904 X-7.282 Y7.485 L6.679
N1905 X-12.083 Y.127 L8.039
N1906 X-10.17 Y-5.079 L8.039
N1907 X-2.952 Y-8.484 L9.353
N1908 X6.248 Y-.818 L9.353
N1909 X6.48 Y1.442 L11.116
N1910 X-4.636 Y12.558 L11.116
N1911 X-8.06 Y12.018 L11.116
N1912 X-16.734 Y.069 L12.567
N1913 X-14.867 Y-6.523 L12.567
N1914 X-2.881 Y-13.283 L14.007
N1915 X10.086 Y-4.574 L14.007
N1916 X11.338 Y1.604 L15.864
N1917 X-4.526 Y17.468 L15.864
N1918 X-5.811 Y17.416 L15.864
N1919 X-21.755 Y.119 L17.354
N1920 X-20.763 Y-5.666 L17.354
N1921 X-14.652 Y-14.292 L18.496
N1922 X-13.051 Y-14.828 L3.429
N1923 G01 X-12.471 Y-14.983
N1924 X-3.017 Y-17.45
N1925 G03 X-1.113 Y-17.562 L16.338
N1926 X10.736 Y-12.473 L16.338
N1927 X16.512 Y1.771 L20.45
N1928 X11.689 Y14.961 L20.45
N1929 X9.915 Y15.668 L2.903
N1930 G01 X9.335 Y15.823
N1931 X-8.446 Y20.508
N1932 G03 X-9.786 Y20.587 L11.428
N1933 X-12.19 Y20.331 L11.428
N1934 X-13.167 Y19.247 L1.251
N1935 G02 X-15.295 Y15.604 L8.
N1936 G03 X-21.85 Y0. L21.85
N1937 X-21.048 Y-5.866 L21.85
N1938 G02 X-20.755 Y-8.266 L9.981
N1939 X-21. Y-10.462 L9.981
N1940 G03 X-21.023 Y-10.873 L3.628
N1941 X-20.601 Y-12.572 L3.628
N1942 X-18.824 Y-13.28 L2.893
N1943 G01 X-18.245 Y-13.436
N1944 X-13.608 Y-14.678
N1945 G03 X-12.909 Y-14.77 L2.7
N1946 X-10.462 Y-13.211 L2.7
N1947 X-10.209 Y-12.07 L2.7 F5000.
N1948 X-11.539 Y-9.743 L2.7
N1949 G01 X-16.731 Y-6.687
N1950 G03 X-18.101 Y-6.313 L2.7
N1951 X-18.319 Y-6.322 L2.7
N1952 X-20.789 Y-8.761 L2.7 F7200.
N1953 G02 X-21.364 Y-11.34 L13.694
N1954 G03 X-21.39 Y-11.606 L1.377
N1955 X-20.013 Y-12.983 L1.377
N1956 X-19.94 Y-12.981 L1.377
N1957 X-18.758 Y-13.239 L2.845
N1958 X-16.215 Y-11.67 L2.845
N1959 X-16.16 Y-11.543 L2.7 F5000.
N1960 G01 X-4.799 Y16.471
N1961 G03 X-4.611 Y17.25 L2.7
N1962 X-4.601 Y17.485 L2.7 F7200.
N1963 X-6.602 Y20.093 L2.7
N1964 G01 X-7.472 Y20.326
N1965 X-11.358 Y21.368
N1966 G03 X-11.668 Y21.409 L1.2
N1967 X-12.832 Y20.502 L1.2
N1968 G02 X-13.344 Y18.674 L47.003
N1969 G03 X-13.496 Y17.782 L2.7
N1970 X-13.441 Y17.242 L2.7
N1971 G01 X-12.978 Y14.971
N1972 X-7.035 Y-14.171 F5000.
N1973 X-6.879 Y-14.934 F7200.
N1974 G03 X-4.063 Y-17.236 L3.056
N1975 G01 X-3.483 Y-17.391
N1976 X4.756 Y-19.507
N1977 G03 X5.289 Y-19.518 L12.44
N1978 X13.204 Y-16.675 L12.44
N1979 X21.736 Y1.177 L22.943
N1980 X21.688 Y2.653 L22.943
N1981 X21.048 Y5.866 L21.85
N1982 G02 X20.504 Y8.737 L19.188
N1983 G03 X19.187 Y12.714 L22.154
N1984 X17.817 Y13.55 L1.591
N1985 G01 X17.238 Y13.706
N1986 X10.283 Y15.569
N1987 G03 X9.584 Y15.661 L2.7
N1988 X7.137 Y14.102 L2.7
N1989 X6.884 Y12.961 L2.7 F5000.
N1990 X7.838 Y10.902 L2.7
N1991 G01 X16.6 Y3.471
N1992 G03 X18.346 Y2.83 L2.7
N1993 X19.42 Y3.052 L2.7
N1994 X21.046 Y5.53 L2.7 F7200.
N1995 X20.973 Y6.157 L2.7
N1996 G02 X20.754 Y8.111 L8.854
N1997 X21.364 Y11.34 L8.854
N1998 G03 X21.39 Y11.606 L1.377
N1999 X20.013 Y12.983 L1.377
N2000 X19.94 Y12.981 L1.377
N2001 G01 X19.361 Y13.137
N2002 X17.622 Y13.603
N2003 G03 X16.923 Y13.695 L2.7
N2004 X14.476 Y12.136 L2.7
N2005 G01 X1.25 Y-15.345 F5000.
N2006 G03 X.993 Y-16.281 L2.7
N2007 X.983 Y-16.516 L2.7 F7200.
N2008 X2.984 Y-19.124 L2.7
N2009 G01 X3.853 Y-19.357
N2010 X10.485 Y-21.063
N2011 G03 X11.156 Y-21.124 L3.694
N2012 X12.371 Y-20.919 L3.694
N2013 X13.167 Y-19.247 L2.392
N2014 G02 X15.295 Y-15.604 L8.
N2015 G03 X21.85 Y0. L21.85
N2016 X21.716 Y2.415 L21.85
N2017 X19.205 Y4.811 L2.7
N2018 X19.033 Y4.817 L2.7 F5000.
N2019 X16.592 Y3.272 L2.7
N2020 G01 X7.038 Y-16.914
N2021 G03 X6.789 Y-17.834 L2.7
N2022 X6.778 Y-18.069 L2.7 F7200.
N2023 X8.78 Y-20.677 L2.7
N2024 G01 X9.649 Y-20.91
N2025 X11.358 Y-21.368
N2026 G03 X11.668 Y-21.409 L1.2
N2027 X12.832 Y-20.502 L1.2
N2028 X13.26 Y-18.465 L5.063
N2029 X13.056 Y-17.042 L5.063
N2030 G00 Z50.

(Operation # 27)
N2031 X40.578 Y-40.585
N2032 Z2.2
N2033 G01 Z.2 F5000.
N2034 G41 X11.601 Y-32.821 F4800.
N2035 X-26.457 Y-22.623
N2036 G02 X-33.114 Y-14.414 L9.
N2037 X-34.675 Y-11.244 L4.
N2038 X-32.675 Y-7.78 L4.
N2039 G01 X-32.007 Y-7.394
N2040 G02 X-32.85 Y0. L32.85
N2041 X-24.022 Y22.407 L32.85
N2042 G01 X-24.407 Y23.075
N2043 G02 X-24.943 Y25.075 L4.
N2044 X-21.471 Y29.04 L4.
N2045 X-13.93 Y33.127 L9.
N2046 X-11.601 Y32.821 L9.
N2047 G01 X26.457 Y22.623
N2048 G02 X33.114 Y14.414 L9.
N2049 X34.675 Y11.244 L4.
N2050 X32.675 Y7.78 L4.
N2051 G01 X32.007 Y7.394
N2052 G02 X32.85 Y0. L32.85
N2053 X24.022 Y-22.407 L32.85
N2054 G01 X24.407 Y-23.075
N2055 G02 X24.943 Y-25.075 L4.
N2056 X21.471 Y-29.04 L4.
N2057 X13.93 Y-33.127 L9.
N2058 X11.601 Y-32.821 L9.
N2059 G03 X11.342 Y-32.787 L1.
N2060 X10.376 Y-33.528 L1.
N2061 G01 G40 X4.164 Y-56.71
N2062 G00 Z50.

(Operation # 28)
N2063 X-50. Y2.527
N2064 Z2.
N2065 G01 Z-14.8 F5000.
N2066 G03 X-50.068 Y2.009 L2. F4800.
N2067 X-48.068 Y.009 L2.
N2068 X-46.136 Y1.492 L2.
N2069 G01 X-40.701 Y21.776
N2070 G03 X-40.633 Y22.294 L2.
N2071 X-42.633 Y24.294 L2.
N2072 X-44.6 Y22.655 L2.
N2073 G01 X-48.406 Y1.934
N2074 G03 X-48.439 Y1.573 L2.
N2075 X-46.439 Y-.427 L2.
N2076 X-44.508 Y1.055 L2.
N2077 G01 X-39.072 Y21.34
N2078 G03 X-39.004 Y21.857 L2.
N2079 X-41.004 Y23.857 L2.
N2080 X-42.971 Y22.219 L2.
N2081 G01 X-46.778 Y1.498
N2082 G03 X-46.811 Y1.137 L2.
N2083 X-44.811 Y-.863 L2.
N2084 X-42.879 Y.619 L2.
N2085 G01 X-37.444 Y20.903
N2086 G03 X-37.376 Y21.421 L2.
N2087 X-39.376 Y23.421 L2.
N2088 X-41.343 Y21.782 L2.
N2089 G01 X-45.15 Y1.062
N2090 G03 X-45.183 Y.7 L2.
N2091 X-43.183 Y-1.3 L2.
N2092 X-41.251 Y.183 L2.
N2093 G01 X-35.815 Y20.467
N2094 G03 X-35.747 Y20.985 L2.
N2095 X-37.747 Y22.985 L2.
N2096 X-39.714 Y21.346 L2.
N2097 G01 X-43.521 Y.625
N2098 G03 X-43.554 Y.264 L2.
N2099 X-41.554 Y-1.736 L2.
N2100 X-39.622 Y-.254 L2.
N2101 G01 X-34.187 Y20.031
N2102 G03 X-34.119 Y20.548 L2.
N2103 X-36.119 Y22.548 L2.
N2104 X-38.086 Y20.91 L2.
N2105 G01 X-41.893 Y.189
N2106 G03 X-41.926 Y-.172 L2.
N2107 X-39.926 Y-2.172 L2.
N2108 X-37.994 Y-.69 L2.
N2109 G01 X-32.559 Y19.594
N2110 G03 X-32.491 Y20.112 L2.
N2111 X-34.491 Y22.112 L2.
N2112 X-36.458 Y20.473 L2.
N2113 G01 X-40.264 Y-.247
N2114 G03 X-40.297 Y-.609 L2.
N2115 X-38.297 Y-2.609 L2.
N2116 X-36.365 Y-1.126 L2.
N2117 G01 X-30.93 Y19.158
N2118 G03 X-30.862 Y19.676 L2.
N2119 X-32.862 Y21.676 L2.
N2120 X-34.829 Y20.037 L2.
N2121 G01 X-38.636 Y-.684
N2122 G03 X-38.669 Y-1.045 L2.
N2123 X-36.669 Y-3.045 L2.
N2124 X-34.737 Y-1.563 L2.
N2125 G01 X-29.302 Y18.722
N2126 G03 X-29.234 Y19.239 L2.
N2127 X-31.234 Y21.239 L2.
N2128 X-33.201 Y19.601 L2.
N2129 G01 X-37.008 Y-1.12
N2130 G03 X-37.04 Y-1.481 L2.
N2131 X-35.04 Y-3.481 L2.
N2132 X-33.109 Y-1.999 L2.
N2133 G01 X-27.673 Y18.285
N2134 G03 X-27.605 Y18.803 L2.
N2135 X-29.605 Y20.803 L2.
N2136 X-31.572 Y19.164 L2.
N2137 G01 X-35.379 Y-1.556
N2138 G03 X-35.412 Y-1.918 L2.
N2139 X-33.412 Y-3.918 L2.
N2140 X-31.48 Y-2.435 L2.
N2141 G01 X-26.045 Y17.849
N2142 G03 X-25.977 Y18.367 L2.
N2143 X-27.977 Y20.367 L2.
N2144 X-29.944 Y18.728 L2.
N2145 G01 X-33.751 Y-1.993
N2146 G03 X-33.784 Y-2.354 L2.
N2147 X-31.784 Y-4.354 L2.
N2148 X-29.852 Y-2.872 L2.
N2149 G01 X-24.417 Y17.413
N2150 G03 X-24.348 Y17.93 L2.
N2151 X-26.348 Y19.93 L2.
N2152 X-28.315 Y18.292 L2.
N2153 G01 X-32.122 Y-2.429
N2154 G03 X-32.155 Y-2.79 L2.
N2155 X-30.155 Y-4.79 L2.
N2156 X-28.223 Y-3.308 L2.
N2157 G01 X-22.788 Y16.976
N2158 G03 X-22.72 Y17.494 L2.
N2159 X-24.72 Y19.494 L2.
N2160 X-26.687 Y17.855 L2.
N2161 G01 X-30.494 Y-2.865
N2162 G03 X-30.527 Y-3.227 L2.
N2163 X-28.527 Y-5.227 L2.
N2164 X-26.595 Y-3.744 L2.
N2165 G01 X-21.16 Y16.54
N2166 G03 X-21.092 Y17.058 L2.
N2167 X-23.092 Y19.058 L2.
N2168 X-25.023 Y17.575 L2.
N2169 G00 Z50.

(Operation # 29)
N2170 X50. Y-2.527
N2171 Z2.
N2172 G01 Z-14.8 F5000.
N2173 G03 X50.068 Y-2.009 L2. F4800.
N2174 X48.068 Y-.009 L2.
N2175 X46.136 Y-1.492 L2.
N2176 G01 X40.701 Y-21.776
N2177 G03 X40.633 Y-22.294 L2.
N2178 X42.633 Y-24.294 L2.
N2179 X44.6 Y-22.655 L2.
N2180 G01 X48.406 Y-1.934
N2181 G03 X48.439 Y-1.573 L2.
N2182 X46.439 Y.427 L2.
N2183 X44.508 Y-1.055 L2.
N2184 G01 X39.072 Y-21.34
N2185 G03 X39.004 Y-21.857 L2.
N2186 X41.004 Y-23.857 L2.
N2187 X42.971 Y-22.219 L2.
N2188 G01 X46.778 Y-1.498
N2189 G03 X46.811 Y-1.137 L2.
N2190 X44.811 Y.863 L2.
N2191 X42.879 Y-.619 L2.
N2192 G01 X37.444 Y-20.903
N2193 G03 X37.376 Y-21.421 L2.
N2194 X39.376 Y-23.421 L2.
N2195 X41.343 Y-21.782 L2.
N2196 G01 X45.15 Y-1.062
N2197 G03 X45.183 Y-.7 L2.
N2198 X43.183 Y1.3 L2.
N2199 X41.251 Y-.183 L2.
N2200 G01 X35.815 Y-20.467
N2201 G03 X35.747 Y-20.985 L2.
N2202 X37.747 Y-22.985 L2.
N2203 X39.714 Y-21.346 L2.
N2204 G01 X43.521 Y-.625
N2205 G03 X43.554 Y-.264 L2.
N2206 X41.554 Y1.736 L2.
N2207 X39.622 Y.254 L2.
N2208 G01 X34.187 Y-20.031
N2209 G03 X34.119 Y-20.548 L2.
N2210 X36.119 Y-22.548 L2.
N2211 X38.086 Y-20.91 L2.
N2212 G01 X41.893 Y-.189
N2213 G03 X41.926 Y.172 L2.
N2214 X39.926 Y2.172 L2.
N2215 X37.994 Y.69 L2.
N2216 G01 X32.559 Y-19.594
N2217 G03 X32.491 Y-20.112 L2.
N2218 X34.491 Y-22.112 L2.
N2219 X36.458 Y-20.473 L2.
N2220 G01 X40.264 Y.247
N2221 G03 X40.297 Y.609 L2.
N2222 X38.297 Y2.609 L2.
N2223 X36.365 Y1.126 L2.
N2224 G01 X30.93 Y-19.158
N2225 G03 X30.862 Y-19.676 L2.
N2226 X32.862 Y-21.676 L2.
N2227 X34.829 Y-20.037 L2.
N2228 G01 X38.636 Y.684
N2229 G03 X38.669 Y1.045 L2.
N2230 X36.669 Y3.045 L2.
N2231 X34.737 Y1.563 L2.
N2232 G01 X29.302 Y-18.722
N2233 G03 X29.234 Y-19.239 L2.
N2234 X31.234 Y-21.239 L2.
N2235 X33.201 Y-19.601 L2.
N2236 G01 X37.008 Y1.12
N2237 G03 X37.04 Y1.481 L2.
N2238 X35.04 Y3.481 L2.
N2239 X33.109 Y1.999 L2.
N2240 G01 X27.673 Y-18.285
N2241 G03 X27.605 Y-18.803 L2.
N2242 X29.605 Y-20.803 L2.
N2243 X31.572 Y-19.164 L2.
N2244 G01 X35.379 Y1.556
N2245 G03 X35.412 Y1.918 L2.
N2246 X33.412 Y3.918 L2.
N2247 X31.48 Y2.435 L2.
N2248 G01 X26.045 Y-17.849
N2249 G03 X25.977 Y-18.367 L2.
N2250 X27.977 Y-20.367 L2.
N2251 X29.944 Y-18.728 L2.
N2252 G01 X33.751 Y1.993
N2253 G03 X33.784 Y2.354 L2.
N2254 X31.784 Y4.354 L2.
N2255 X29.852 Y2.872 L2.
N2256 G01 X24.417 Y-17.413
N2257 G03 X24.348 Y-17.93 L2.
N2258 X26.348 Y-19.93 L2.
N2259 X28.315 Y-18.292 L2.
N2260 G01 X32.122 Y2.429
N2261 G03 X32.155 Y2.79 L2.
N2262 X30.155 Y4.79 L2.
N2263 X28.223 Y3.308 L2.
N2264 G01 X22.788 Y-16.976
N2265 G03 X22.72 Y-17.494 L2.
N2266 X24.72 Y-19.494 L2.
N2267 X26.687 Y-17.855 L2.
N2268 G01 X30.494 Y2.865
N2269 G03 X30.527 Y3.227 L2.
N2270 X28.527 Y5.227 L2.
N2271 X26.595 Y3.744 L2.
N2272 G01 X21.16 Y-16.54
N2273 G03 X21.092 Y-17.058 L2.
N2274 X23.092 Y-19.058 L2.
N2275 X25.023 Y-17.575 L2.
N2276 G00 Z50.
N2277 G136
N2278 M146
N2279 M174 M142
N2280 G20HP=1.
N2281 M12
N2282 M109
N2283 M01

(Operation # 30)
(3308  | FR D8 PLAST  | DIA. -  7.95)
N2284 M110
N2285 G20HP=1.
N2286 TD=073308 M323 (B0.)
N2287 MT=410201
N2288 SB=10063 M13 M242
N2289 G20 HP=4 (SAFE MOVE -- NOT SIMULATED)
N2290 G00 C0. M15
N2291 M147
N2292 G138
N2293 M175 M142
N2294 G94 G17 Z50.
N2295 X24.745 Y-18.951
N2296 Z2.
N2297 G01 Z0. F5000.
N2298 G41 X22.559 Y-26.595 F3018.9
N2299 G02 X13.93 Y-33.102 L8.975
N2300 X11.607 Y-32.797 L8.975
N2301 G01 X-26.45 Y-22.599
N2302 G02 X-33.102 Y-13.93 L8.975
N2303 X-32.834 Y-11.752 L8.975
N2304 G01 G40 X-30.905 Y-4.04
N2305 G00 Z10.
N2306 X-24.745 Y18.951
N2307 Z2.
N2308 G01 Z0. F5000.
N2309 G41 X-22.559 Y26.595 F3018.9
N2310 G02 X-13.93 Y33.102 L8.975
N2311 X-11.607 Y32.797 L8.975
N2312 G01 X26.45 Y22.599
N2313 G02 X33.102 Y13.93 L8.975
N2314 X32.834 Y11.752 L8.975
N2315 G01 G40 X30.905 Y4.04
N2316 G00 Z50.

(Operation # 31)
N2317 X34.983 Y-23.699
N2318 Z2.
N2319 G01 Z-7. F5000.
N2320 G41 X33.44 Y-29.459 F3018.9
N2321 X32.991 Y-31.135
N2322 G02 X28.809 Y-36.585 L8.975
N2323 G01 X17.279 Y-43.242
N2324 G02 X12.792 Y-44.444 L8.975
N2325 X10.469 Y-44.138 L8.975
N2326 G01 X-31.135 Y-32.991
N2327 G02 X-36.585 Y-28.809 L8.975
N2328 G01 X-43.242 Y-17.279
N2329 G02 X-44.444 Y-12.792 L8.975
N2330 X-44.138 Y-10.469 L8.975
N2331 G01 X-43.689 Y-8.792
N2332 G40 X-42.146 Y-3.033
N2333 G00 Z10.
N2334 X-34.983 Y23.699
N2335 Z2.
N2336 G01 Z-7. F5000.
N2337 G41 X-33.44 Y29.459 F3018.9
N2338 X-32.991 Y31.135
N2339 G02 X-28.809 Y36.585 L8.975
N2340 G01 X-17.279 Y43.242
N2341 G02 X-12.792 Y44.444 L8.975
N2342 X-10.469 Y44.138 L8.975
N2343 G01 X31.135 Y32.991
N2344 G02 X36.585 Y28.809 L8.975
N2345 G01 X43.242 Y17.279
N2346 G02 X44.444 Y12.792 L8.975
N2347 X44.138 Y10.469 L8.975
N2348 G01 X43.689 Y8.792
N2349 G40 X42.146 Y3.033
N2350 G00 Z50.

(Operation # 32)
N2351 X26.324 Y-19.418
N2352 Z2.
N2353 G01 Z-7. F5000.
N2354 G41 X25.707 Y-21.722 F3018.9
N2355 G03 X25.69 Y-21.85 L.497 F335.43
N2356 X26.058 Y-22.33 L.497
N2357 G02 X29.746 Y-27.136 L4.975 F3018.9
N2358 X29.576 Y-28.423 L4.975
N2359 G01 X29.127 Y-30.1
N2360 G02 X26.809 Y-33.121 L4.975
N2361 G01 X15.279 Y-39.778
N2362 G02 X12.792 Y-40.444 L4.975
N2363 X11.504 Y-40.275 L4.975
N2364 G01 X-30.1 Y-29.127
N2365 G02 X-33.121 Y-26.809 L4.975
N2366 G01 X-39.778 Y-15.279
N2367 G02 X-40.444 Y-12.792 L4.975
N2368 X-40.275 Y-11.504 L4.975
N2369 G01 X-39.826 Y-9.827
N2370 G02 X-35.02 Y-6.14 L4.975
N2371 X-33.732 Y-6.309 L4.975
N2372 G03 X-33.604 Y-6.326 L.497 F335.43
N2373 X-33.124 Y-5.958 L.497
N2374 G01 G40 X-32.507 Y-3.654 F3018.9
N2375 G00 Z10.
N2376 X-26.324 Y19.418
N2377 Z2.
N2378 G01 Z-7. F5000.
N2379 G41 X-25.707 Y21.722 F3018.9
N2380 G03 X-25.69 Y21.85 L.497 F335.43
N2381 X-26.058 Y22.33 L.497
N2382 G02 X-29.746 Y27.136 L4.975 F3018.9
N2383 X-29.576 Y28.423 L4.975
N2384 G01 X-29.127 Y30.1
N2385 G02 X-26.809 Y33.121 L4.975
N2386 G01 X-15.279 Y39.778
N2387 G02 X-12.792 Y40.444 L4.975
N2388 X-11.504 Y40.275 L4.975
N2389 G01 X30.1 Y29.127
N2390 G02 X33.121 Y26.809 L4.975
N2391 G01 X39.778 Y15.279
N2392 G02 X40.444 Y12.792 L4.975
N2393 X40.275 Y11.504 L4.975
N2394 G01 X39.826 Y9.827
N2395 G02 X35.02 Y6.14 L4.975
N2396 X33.732 Y6.309 L4.975
N2397 G03 X33.604 Y6.326 L.497 F335.43
N2398 X33.124 Y5.958 L.497
N2399 G01 G40 X32.507 Y3.654 F3018.9
N2400 G00 Z50.

(Operation # 33)
N2401 X-41.763 Y25.348
N2402 Z2.
N2403 G01 Z-15. F5000.
N2404 G41 X-34.083 Y23.29 F3018.9
N2405 X-22.27 Y20.125
N2406 G40 X-14.591 Y18.067
N2407 G00 Z10.
N2408 X-43.574 Y18.586
N2409 Z2.
N2410 G01 Z-15. F5000.
N2411 G41 X-35.895 Y16.529 F3018.9
N2412 X-24.082 Y13.363
N2413 G40 X-16.402 Y11.305
N2414 G00 Z10.
N2415 X-45.386 Y11.825
N2416 Z2.
N2417 G01 Z-15. F5000.
N2418 G41 X-37.707 Y9.767 F3018.9
N2419 X-25.893 Y6.602
N2420 G40 X-18.214 Y4.544
N2421 G00 Z10.
N2422 X-47.198 Y5.063
N2423 Z2.
N2424 G01 Z-15. F5000.
N2425 G41 X-39.519 Y3.006 F3018.9
N2426 X-27.705 Y-.16
N2427 G40 X-20.026 Y-2.217
N2428 G00 Z10.
N2429 X-49.01 Y-1.698
N2430 Z2.
N2431 G01 Z-15. F5000.
N2432 G41 X-41.33 Y-3.756 F3018.9
N2433 X-29.517 Y-6.921
N2434 G40 X-21.838 Y-8.979
N2435 G00 Z10.
N2436 X41.763 Y-25.348
N2437 Z2.
N2438 G01 Z-15. F5000.
N2439 G41 X34.083 Y-23.29 F3018.9
N2440 X22.27 Y-20.125
N2441 G40 X14.591 Y-18.067
N2442 G00 Z10.
N2443 X43.574 Y-18.586
N2444 Z2.
N2445 G01 Z-15. F5000.
N2446 G41 X35.895 Y-16.529 F3018.9
N2447 X24.082 Y-13.363
N2448 G40 X16.402 Y-11.305
N2449 G00 Z10.
N2450 X45.386 Y-11.825
N2451 Z2.
N2452 G01 Z-15. F5000.
N2453 G41 X37.707 Y-9.767 F3018.9
N2454 X25.893 Y-6.602
N2455 G40 X18.214 Y-4.544
N2456 G00 Z10.
N2457 X47.198 Y-5.063
N2458 Z2.
N2459 G01 Z-15. F5000.
N2460 G41 X39.519 Y-3.006 F3018.9
N2461 X27.705 Y.16
N2462 G40 X20.026 Y2.217
N2463 G00 Z10.
N2464 X49.01 Y1.698
N2465 Z2.
N2466 G01 Z-15. F5000.
N2467 G41 X41.33 Y3.756 F3018.9
N2468 X29.517 Y6.921
N2469 G40 X21.838 Y8.979
N2470 G00 Z50.

(Operation # 34)
N2471 X-50.465 Y-7.491
N2472 Z2.
N2473 G01 Z-15. F5000.
N2474 G41 X-48.161 Y-8.108 F3018.9
N2475 G03 X-48.033 Y-8.125 L.497 F335.43
N2476 X-47.553 Y-7.757 L.497
N2477 G02 X-42.747 Y-4.069 L4.975 F3018.9
N2478 X-41.46 Y-4.239 L4.975
N2479 G01 X-33.732 Y-6.309
N2480 X-28.66 Y-7.668
N2481 G02 X-24.973 Y-12.474 L4.975
N2482 X-25.122 Y-13.681 L4.975
N2483 G03 X-25.137 Y-13.802 L.497 F335.43
N2484 X-24.76 Y-14.284 L.497
N2485 G01 G40 X-22.447 Y-14.863 F3018.9
N2486 G00 Z10.
N2487 X12.008 Y-24.095
N2488 Z2.
N2489 G01 Z-15. F5000.
N2490 G41 X14.301 Y-24.75 F3018.9
N2491 G03 X14.438 Y-24.77 L.497 F335.43
N2492 X14.916 Y-24.409 L.497
N2493 G02 X19.699 Y-20.802 L4.975 F3018.9
N2494 X20.986 Y-20.971 L4.975
N2495 G01 X26.058 Y-22.33
N2496 X33.786 Y-24.401
N2497 G02 X37.473 Y-29.206 L4.975
N2498 X37.304 Y-30.494 L4.975
N2499 G03 X37.287 Y-30.623 L.497 F335.43
N2500 X37.655 Y-31.103 L.497
N2501 G01 G40 X39.959 Y-31.72 F3018.9
N2502 G00 Z10.
N2503 X50.465 Y7.491
N2504 Z2.
N2505 G01 Z-15. F5000.
N2506 G41 X48.161 Y8.108 F3018.9
N2507 G03 X48.033 Y8.125 L.497 F335.43
N2508 X47.553 Y7.757 L.497
N2509 G02 X42.747 Y4.069 L4.975 F3018.9
N2510 X41.46 Y4.239 L4.975
N2511 G01 X29.646 Y7.404
N2512 X28.66 Y7.668
N2513 G02 X24.973 Y12.474 L4.975
N2514 X25.122 Y13.681 L4.975
N2515 G03 X25.137 Y13.802 L.497 F335.43
N2516 X24.76 Y14.284 L.497
N2517 G01 G40 X22.447 Y14.863 F3018.9
N2518 G00 Z10.
N2519 X-12.008 Y24.095
N2520 Z2.
N2521 G01 Z-15. F5000.
N2522 G41 X-14.301 Y24.75 F3018.9
N2523 G03 X-14.438 Y24.77 L.497 F335.43
N2524 X-14.916 Y24.409 L.497
N2525 G02 X-19.699 Y20.802 L4.975 F3018.9
N2526 X-20.986 Y20.971 L4.975
N2527 G01 X-26.058 Y22.33
N2528 X-33.786 Y24.401
N2529 G02 X-37.473 Y29.206 L4.975
N2530 X-37.304 Y30.494 L4.975
N2531 G03 X-37.287 Y30.623 L.497 F335.43
N2532 X-37.655 Y31.103 L.497
N2533 G01 G40 X-39.959 Y31.72 F3018.9
N2534 G00 Z50.
N2535 G136
N2536 M146
N2537 M174 M142
N2538 G20HP=1.
N2539 M12
N2540 M109
N2541 M01

(Operation # 35)
(4102  | FR 3T D16.5 PLAST EP3  | DIA. -  16.5)
N2542 M110
N2543 G20HP=1.
N2544 TD=074102 M323 (B0.)
N2545 MT=425801
N2546 SB=2000 M13 M241
N2547 G20 HP=4 (SAFE MOVE -- NOT SIMULATED)
N2548 G00 C0. M15
N2549 M147
N2550 G138
N2551 M51
N2552 G94 G17 Z50.
N2553 X12.518 Y-19.697
N2554 Z2.
N2555 G01 Z-8.5 F5000.
N2556 X13.335 Y-20.514 F1200.
N2557 G03 X14.152 Y-20.852 L1.155
N2558 X14.968 Y-20.514 L1.155
N2559 G01 X16.383 Y-19.1
N2560 G03 X16.721 Y-18.283 L1.155
N2561 X16.383 Y-17.466 L1.155
N2562 G01 X15.566 Y-16.65
N2563 X12.518 Y-19.697
N2564 Z-10.65 F5000.
N2565 X13.335 Y-20.514 F1200.
N2566 G03 X14.152 Y-20.852 L1.155
N2567 X14.968 Y-20.514 L1.155
N2568 G01 X16.383 Y-19.1
N2569 G03 X16.721 Y-18.283 L1.155
N2570 X16.383 Y-17.466 L1.155
N2571 G01 X15.566 Y-16.65
N2572 X12.518 Y-19.697
N2573 Z-12.8 F5000.
N2574 X13.335 Y-20.514 F1200.
N2575 G03 X14.152 Y-20.852 L1.155
N2576 X14.968 Y-20.514 L1.155
N2577 G01 X16.383 Y-19.1
N2578 G03 X16.721 Y-18.283 L1.155
N2579 X16.383 Y-17.466 L1.155
N2580 G01 X15.566 Y-16.65
N2581 X12.518 Y-19.697
N2582 Z-14.95 F5000.
N2583 X13.335 Y-20.514 F1200.
N2584 G03 X14.152 Y-20.852 L1.155
N2585 X14.968 Y-20.514 L1.155
N2586 G01 X16.383 Y-19.1
N2587 G03 X16.721 Y-18.283 L1.155
N2588 X16.383 Y-17.466 L1.155
N2589 G01 X15.566 Y-16.65
N2590 G00 Z10.
N2591 X22.764 Y5.146
N2592 Z2.
N2593 G01 Z-8.5 F5000.
N2594 X23.809 Y5.639 F1200.
N2595 G03 X24.47 Y6.683 L1.155
N2596 X24.359 Y7.177 L1.155
N2597 G01 X23.504 Y8.985
N2598 G03 X22.46 Y9.647 L1.155
N2599 X21.967 Y9.536 L1.155
N2600 G01 X20.922 Y9.042
N2601 X22.764 Y5.146
N2602 Z-10.65 F5000.
N2603 X23.809 Y5.639 F1200.
N2604 G03 X24.47 Y6.683 L1.155
N2605 X24.359 Y7.177 L1.155
N2606 G01 X23.504 Y8.985
N2607 G03 X22.46 Y9.647 L1.155
N2608 X21.967 Y9.536 L1.155
N2609 G01 X20.922 Y9.042
N2610 X22.764 Y5.146
N2611 Z-12.8 F5000.
N2612 X23.809 Y5.639 F1200.
N2613 G03 X24.47 Y6.683 L1.155
N2614 X24.359 Y7.177 L1.155
N2615 G01 X23.504 Y8.985
N2616 G03 X22.46 Y9.647 L1.155
N2617 X21.967 Y9.536 L1.155
N2618 G01 X20.922 Y9.042
N2619 X22.764 Y5.146
N2620 Z-14.95 F5000.
N2621 X23.809 Y5.639 F1200.
N2622 G03 X24.47 Y6.683 L1.155
N2623 X24.359 Y7.177 L1.155
N2624 G01 X23.504 Y8.985
N2625 G03 X22.46 Y9.647 L1.155
N2626 X21.967 Y9.536 L1.155
N2627 G01 X20.922 Y9.042
N2628 G00 Z10.
N2629 X-12.518 Y19.697
N2630 Z2.
N2631 G01 Z-8.5 F5000.
N2632 X-13.335 Y20.514 F1200.
N2633 G03 X-14.152 Y20.852 L1.155
N2634 X-14.968 Y20.514 L1.155
N2635 G01 X-16.383 Y19.1
N2636 G03 X-16.721 Y18.283 L1.155
N2637 X-16.383 Y17.466 L1.155
N2638 G01 X-15.566 Y16.65
N2639 X-12.518 Y19.697
N2640 Z-10.65 F5000.
N2641 X-13.335 Y20.514 F1200.
N2642 G03 X-14.152 Y20.852 L1.155
N2643 X-14.968 Y20.514 L1.155
N2644 G01 X-16.383 Y19.1
N2645 G03 X-16.721 Y18.283 L1.155
N2646 X-16.383 Y17.466 L1.155
N2647 G01 X-15.566 Y16.65
N2648 X-12.518 Y19.697
N2649 Z-12.8 F5000.
N2650 X-13.335 Y20.514 F1200.
N2651 G03 X-14.152 Y20.852 L1.155
N2652 X-14.968 Y20.514 L1.155
N2653 G01 X-16.383 Y19.1
N2654 G03 X-16.721 Y18.283 L1.155
N2655 X-16.383 Y17.466 L1.155
N2656 G01 X-15.566 Y16.65
N2657 X-12.518 Y19.697
N2658 Z-14.95 F5000.
N2659 X-13.335 Y20.514 F1200.
N2660 G03 X-14.152 Y20.852 L1.155
N2661 X-14.968 Y20.514 L1.155
N2662 G01 X-16.383 Y19.1
N2663 G03 X-16.721 Y18.283 L1.155
N2664 X-16.383 Y17.466 L1.155
N2665 G01 X-15.566 Y16.65
N2666 G00 Z10.
N2667 X-22.764 Y-5.146
N2668 Z2.
N2669 G01 Z-8.5 F5000.
N2670 X-23.809 Y-5.639 F1200.
N2671 G03 X-24.47 Y-6.683 L1.155
N2672 X-24.359 Y-7.177 L1.155
N2673 G01 X-23.504 Y-8.985
N2674 G03 X-22.46 Y-9.647 L1.155
N2675 X-21.967 Y-9.536 L1.155
N2676 G01 X-20.922 Y-9.042
N2677 X-22.764 Y-5.146
N2678 Z-10.65 F5000.
N2679 X-23.809 Y-5.639 F1200.
N2680 G03 X-24.47 Y-6.683 L1.155
N2681 X-24.359 Y-7.177 L1.155
N2682 G01 X-23.504 Y-8.985
N2683 G03 X-22.46 Y-9.647 L1.155
N2684 X-21.967 Y-9.536 L1.155
N2685 G01 X-20.922 Y-9.042
N2686 X-22.764 Y-5.146
N2687 Z-12.8 F5000.
N2688 X-23.809 Y-5.639 F1200.
N2689 G03 X-24.47 Y-6.683 L1.155
N2690 X-24.359 Y-7.177 L1.155
N2691 G01 X-23.504 Y-8.985
N2692 G03 X-22.46 Y-9.647 L1.155
N2693 X-21.967 Y-9.536 L1.155
N2694 G01 X-20.922 Y-9.042
N2695 X-22.764 Y-5.146
N2696 Z-14.95 F5000.
N2697 X-23.809 Y-5.639 F1200.
N2698 G03 X-24.47 Y-6.683 L1.155
N2699 X-24.359 Y-7.177 L1.155
N2700 G01 X-23.504 Y-8.985
N2701 G03 X-22.46 Y-9.647 L1.155
N2702 X-21.967 Y-9.536 L1.155
N2703 G01 X-20.922 Y-9.042
N2704 G00 Z50.
N2705 G136
N2706 M146
N2707 M50
N2708 G20HP=1.
N2709 M12
N2710 M109
N2711 M01

(Operation # 36)
(4258  | EBAV-3T D8  | DIA. -  8)
N2712 M110
N2713 TD=074258 M323 (B0.)
N2714 SB=7000 M13 M242
N2715 G20 HP=4 (SAFE MOVE -- NOT SIMULATED)
N2716 G00 C0. M15
N2717 M147
N2718 G138
N2719 M51
N2720 G94 G17 Z50.
N2721 X25.595 Y-19.239
N2722 Z2.
N2723 G01 Z-6.8 F5000.
N2724 X27.995 Y-23.396 F4000.
N2725 G03 X28.299 Y-23.629 L.5 F444.44
N2726 G01 X33.611 Y-25.053 F4000.
N2727 G02 X36.798 Y-29.206 L4.3
N2728 X36.652 Y-30.319 L4.3
N2729 G01 X35.35 Y-35.176
N2730 G02 X33.764 Y-37.755 L5.3
N2731 X15.814 Y-48.118 L50.65
N2732 X14.16 Y-48.383 L5.3
N2733 X12.788 Y-48.202 L5.3
N2734 G01 X-35.176 Y-35.35
N2735 G02 X-37.755 Y-33.764 L5.3
N2736 X-48.118 Y-15.814 L50.65
N2737 X-48.383 Y-14.16 L5.3
N2738 X-48.202 Y-12.788 L5.3
N2739 G01 X-46.901 Y-7.931
N2740 G02 X-42.747 Y-4.744 L4.3
N2741 X-41.635 Y-4.891 L4.3
N2742 G01 X-36.322 Y-6.314
N2743 G03 X-36.193 Y-6.331 L.5 F444.44
N2744 X-35.943 Y-6.264 L.5
N2745 G01 X-31.786 Y-3.864 F4000.
N2746 G00 Z50.
N2747 X-25.595 Y19.239
N2748 Z2.
N2749 G01 Z-6.8 F5000.
N2750 X-27.995 Y23.396 F4000.
N2751 G03 X-28.299 Y23.629 L.5 F444.44
N2752 G01 X-33.611 Y25.053 F4000.
N2753 G02 X-36.798 Y29.206 L4.3
N2754 X-36.652 Y30.319 L4.3
N2755 G01 X-35.35 Y35.176
N2756 G02 X-33.764 Y37.755 L5.3
N2757 X-15.814 Y48.118 L50.65
N2758 X-14.16 Y48.383 L5.3
N2759 X-12.788 Y48.202 L5.3
N2760 G01 X35.176 Y35.35
N2761 G02 X37.755 Y33.764 L5.3
N2762 X48.118 Y15.814 L50.65
N2763 X48.383 Y14.16 L5.3
N2764 X48.202 Y12.788 L5.3
N2765 G01 X46.901 Y7.931
N2766 G02 X42.747 Y4.744 L4.3
N2767 X41.635 Y4.891 L4.3
N2768 G01 X36.322 Y6.314
N2769 G03 X36.193 Y6.331 L.5 F444.44
N2770 X35.943 Y6.264 L.5
N2771 G01 X31.786 Y3.864 F4000.
N2772 G00 Z50.

(Operation # 37)
N2773 X50.274 Y8.251
N2774 Z2.
N2775 G01 Z-14.8 F5000.
N2776 X46.809 Y6.251 F4000.
N2777 G03 X46.576 Y5.948 L.5 F444.44
N2778 G01 X37.362 Y-28.439 F4000.
N2779 G03 X37.345 Y-28.569 L.5 F444.44
N2780 X37.412 Y-28.819 L.5
N2781 G01 X39.412 Y-32.283 F4000.
N2782 G00 Z50.
N2783 X-50.274 Y-8.251
N2784 Z2.
N2785 G01 Z-14.8 F5000.
N2786 X-46.809 Y-6.251 F4000.
N2787 G03 X-46.576 Y-5.948 L.5 F444.44
N2788 G01 X-37.362 Y28.439 F4000.
N2789 G03 X-37.345 Y28.569 L.5 F444.44
N2790 X-37.412 Y28.819 L.5
N2791 G01 X-39.412 Y32.283 F4000.
N2792 G00 Z50.

(Operation # 38)
N2793 X-11.636 Y21.097
N2794 Z2.
N2795 G01 Z-14.8 F5000.
N2796 X-15.5 Y22.132 F4000.
N2797 G03 X-15.629 Y22.149 L.5 F444.44
N2798 X-16.112 Y21.778 L.5
N2799 G01 X-16.242 Y21.295 F4000.
N2800 X-16.548 Y20.153
N2801 G02 X-17.745 Y18.104 L4.5
N2802 G03 X-25.35 Y0. L25.35 F3454.86
N2803 X-24.419 Y-6.806 L25.35
N2804 G02 X-24.254 Y-8.014 L4.5 F4000.
N2805 X-24.407 Y-9.179 L4.5
N2806 G01 X-24.714 Y-10.322
N2807 X-24.843 Y-10.805
N2808 G03 X-24.86 Y-10.934 L.5 F444.44
N2809 X-24.489 Y-11.417 L.5
N2810 G01 X-20.626 Y-12.452 F4000.
N2811 G00 Z50.
N2812 X11.636 Y-21.097
N2813 Z2.
N2814 G01 Z-14.8 F5000.
N2815 X15.5 Y-22.132 F4000.
N2816 G03 X15.629 Y-22.149 L.5 F444.44
N2817 X16.112 Y-21.778 L.5
N2818 G01 X16.242 Y-21.295 F4000.
N2819 X16.548 Y-20.153
N2820 G02 X17.745 Y-18.104 L4.5
N2821 G03 X25.35 Y0. L25.35 F3454.86
N2822 X24.419 Y6.806 L25.35
N2823 G02 X24.254 Y8.014 L4.5 F4000.
N2824 X24.407 Y9.179 L4.5
N2825 G01 X24.714 Y10.322
N2826 X24.843 Y10.805
N2827 G03 X24.86 Y10.934 L.5 F444.44
N2828 X24.489 Y11.417 L.5
N2829 G01 X20.626 Y12.452 F4000.
N2830 G00 Z50.

(Operation # 39)
N2831 X-26.035 Y-4.815
N2832 Z2.
N2833 G01 Z-5.7 F5000.
N2834 X-27.896 Y-8.356 F4000.
N2835 G03 X-27.908 Y-8.402 L.1 F400.
N2836 X-27.854 Y-8.491 L.1
N2837 G02 X-25.448 Y-12.474 L4.5 F4000.
N2838 X-25.583 Y-13.566 L4.5
N2839 G03 X-25.627 Y-13.93 L1.5 F1090.91
N2840 X-24.516 Y-15.379 L1.5
N2841 G01 X-23.034 Y-15.776 F4000.
N2842 G03 X-22.905 Y-15.793 L.5 F444.44
N2843 X-22.422 Y-15.422 L.5
N2844 G01 X-21.387 Y-11.559 F4000.
N2845 G00 Z50.
N2846 X26.035 Y4.815
N2847 Z2.
N2848 G01 Z-5.7 F5000.
N2849 X27.896 Y8.356 F4000.
N2850 G03 X27.908 Y8.402 L.1 F400.
N2851 X27.854 Y8.491 L.1
N2852 G02 X25.448 Y12.474 L4.5 F4000.
N2853 X25.583 Y13.566 L4.5
N2854 G03 X25.627 Y13.93 L1.5 F1090.91
N2855 X25.619 Y14.093 L1.5
N2856 X25.122 Y14.539 L.5 F444.44
N2857 X25.067 Y14.536 L.5
N2858 G01 X21.091 Y14.101 F4000.
N2859 G00 Z50.

(Operation # 40)
N2860 X12.742 Y-20.703
N2861 Z2.
N2862 G01 Z-5.7 F5000.
N2863 X11.707 Y-24.567 F4000.
N2864 G03 X11.69 Y-24.696 L.5 F444.44
N2865 X12.06 Y-25.179 L.5
N2866 G01 X13.542 Y-25.576 F4000.
N2867 G03 X13.93 Y-25.627 L1.5 F1090.91
N2868 X15.372 Y-24.54 L1.5
N2869 G02 X19.699 Y-21.277 L4.5 F4000.
N2870 X19.877 Y-21.28 L4.5
N2871 G01 X19.881 F400.
N2872 G03 X19.981 Y-21.184 L.1
N2873 G01 X20.139 Y-17.187 F4000.
N2874 G00 Z50.
N2875 X-12.742 Y20.703
N2876 Z2.
N2877 G01 Z-5.7 F5000.
N2878 X-11.707 Y24.567 F4000.
N2879 G03 X-11.69 Y24.696 L.5 F444.44
N2880 X-12.06 Y25.179 L.5
N2881 G01 X-13.542 Y25.576 F4000.
N2882 G03 X-13.93 Y25.627 L1.5 F1090.91
N2883 X-15.372 Y24.54 L1.5
N2884 G02 X-19.699 Y21.277 L4.5 F4000.
N2885 X-19.877 Y21.28 L4.5
N2886 G01 X-19.881 F400.
N2887 G03 X-19.981 Y21.184 L.1
N2888 G01 X-20.139 Y17.187 F4000.
N2889 G00 Z50.
N2890 G136
N2891 M146
N2892 MT=331201 (PREPA OUTIL)
N2893 M89
N2894 M289

(Operation # 42)
N2895 G94 G00 C323.156 M16
N2896 G17 X51.065 Z50.
N2897 G137 C0.
N2898 G00 X20.433 Y-15.31
N2899 Z2.2
N2900 G101 Z.2 F5000.
N2901 X19.398 Y-19.174 F1000.
N2902 G103 X19.329 Y-19.691 L2.
N2903 X20.812 Y-21.623 L2.
N2904 G101 X25.884 Y-22.982
N2905 G102 X29.071 Y-27.136 L4.3
N2906 X28.924 Y-28.249 L4.3
N2907 G101 X28.475 Y-29.925
N2908 G102 X26.472 Y-32.536 L4.3
N2909 G101 X14.942 Y-39.193
N2910 G102 X12.792 Y-39.769 L4.3
N2911 X11.679 Y-39.623 L4.3
N2912 G101 X-29.925 Y-28.475
N2913 G102 X-32.536 Y-26.472 L4.3
N2914 G101 X-39.193 Y-14.942
N2915 G102 X-39.769 Y-12.792 L4.3
N2916 X-39.623 Y-11.679 L4.3
N2917 G101 X-39.174 Y-10.002
N2918 G102 X-35.02 Y-6.815 L4.3
N2919 X-33.907 Y-6.961 L4.3
N2920 G101 X-28.835 Y-8.32
N2921 G102 X-25.648 Y-12.474 L4.3
N2922 X-25.777 Y-13.517 L4.3
N2923 G103 X-25.827 Y-13.93 L1.7
N2924 X-24.567 Y-15.572 L1.7
N2925 G101 X13.49 Y-25.77
N2926 G103 X13.93 Y-25.827 L1.7
N2927 X15.565 Y-24.595 L1.7
N2928 G102 X19.699 Y-21.477 L4.3
N2929 X20.812 Y-21.623 L4.3
N2930 G103 X21.329 Y-21.691 L2.
N2931 X23.261 Y-20.209 L2.
N2932 G101 X24.297 Y-16.345
N2933 G00 Z50.
N2934 X29.214 Y2.007
N2935 Z2.2
N2936 G101 Z.2 F5000.
N2937 X30.249 Y5.871 F1000.
N2938 G103 X30.318 Y6.389 L2.
N2939 X28.835 Y8.32 L2.
N2940 G102 X25.648 Y12.474 L4.3
N2941 X25.777 Y13.517 L4.3
N2942 G103 X25.827 Y13.93 L1.7
N2943 X24.567 Y15.572 L1.7
N2944 G101 X-13.49 Y25.77
N2945 G103 X-13.93 Y25.827 L1.7
N2946 X-15.565 Y24.595 L1.7
N2947 G102 X-19.699 Y21.477 L4.3
N2948 X-20.812 Y21.623 L4.3
N2949 G101 X-25.884 Y22.982
N2950 G102 X-29.071 Y27.136 L4.3
N2951 X-28.924 Y28.249 L4.3
N2952 G101 X-28.475 Y29.925
N2953 G102 X-26.472 Y32.536 L4.3
N2954 G101 X-14.942 Y39.193
N2955 G102 X-12.792 Y39.769 L4.3
N2956 X-11.679 Y39.623 L4.3
N2957 G101 X29.925 Y28.475
N2958 G102 X32.536 Y26.472 L4.3
N2959 G101 X39.193 Y14.942
N2960 G102 X39.769 Y12.792 L4.3
N2961 X39.623 Y11.679 L4.3
N2962 G101 X39.174 Y10.002
N2963 G102 X35.02 Y6.815 L4.3
N2964 X33.907 Y6.961 L4.3
N2965 G101 X28.835 Y8.32
N2966 G103 X28.318 Y8.389 L2.
N2967 X26.386 Y6.906 L2.
N2968 G101 X25.35 Y3.042
N2969 G00 Z50.
N2970 G136
N2971 M50
N2972 M12
N2973 M109
N2974 M01
N2975 M88
N2976 M288
+++++V20=-105
*******V51=V51+1
*******CALL ODROB2M
*******IF[V51 LT V50]  NREPET
+++++++++N2978 CALL ODROB2 (DECHARGEMENT)
N2979 M215
+++++M107
N2980 M02
