%
O0001 ( REP10-102-POSTE1-PORTE MATRICE )
N100 G90
N110 G11(WIR,XS25)
N120 G11(TEC,2P28)
N130 H28.
N140 G949 X-76.853 Y242.273
N150 M31
N160 G10 P16 R0
N170 G92 X-76.853 Y242.273 I28. J0.
N180 M60
N190 S501
N200 G42 G1 X-87.069 Y232.581
N210 X-142.501
N220 G2 X-143.084 Y233.165 I-.321 J.262
N230 G1 Y357.027
N240 G2 X-142.5 Y357.611 I.262 J.322
N250 G1 X-89.069
N260 G40 Y357.111
N270 G0 X-89.069 Y357.111
N280 G42 G1 Y357.611
N290 X-87.069
N300 M00
N310 G40 Y357.111
N320 G0 X-87.069 Y357.111
N330 S502
N340 G41 G1 Y357.611
N350 X-142.501
N360 G3 X-143.084 Y357.027 I-.321 J-.262
N370 G1 Y233.165
N380 G3 X-142.5 Y232.581 I.262 J-.321
N390 G1 X-87.069
N400 G40 X-86.707 Y232.925
N410 M50
N420 G0 X-271.367 Y241.822
N430 G92 X-271.367 Y241.822
N440 M60
N450 S501
N460 G41 G1 X-264.069 Y232.581
N470 X-230.638
N480 G3 X-230.054 Y233.165 I.321 J.262
N490 G1 Y357.027
N500 G3 X-230.638 Y357.611 I-.263 J.322
N510 G1 X-262.069
N520 G40 Y357.111
N530 G0 X-262.069 Y357.111
N540 G41 G1 Y357.611
N550 X-264.069
N560 M00
N570 G40 Y357.111
N580 G0 X-264.069 Y357.111
N590 S502
N600 G42 G1 Y357.611
N610 X-230.638
N620 G2 X-230.054 Y357.027 I.321 J-.262
N630 G1 Y233.165
N640 G2 X-230.638 Y232.581 I-.263 J-.321
N650 G1 X-264.069
N660 G40 X-264.379 Y232.973
N670 M50
N680 G10 P16 R0
N690 M30
%
