%
O0000 ( FRAPE )
N100 ( HAAS_UMC500_5X )
N110 G0 G90 G80 G54
N120 ( T2. TOURTEAU D40 )
N130 ( T3. 8 FRAISE 2 TAILLES DROITE )
N140 ( T5. 4 FRAISE 2 TAILLES DROITE )
N150 ( T12. 8 FRAISE QUEUE D'ARONDE )
N160 ( T13. 10 FRAISE à CHANFREINER )
N170 M31
N180 M5
N190 G0 G53 Z0
N200 G255
N210 M1
N220  
N230 ( T2. TOURTEAU D40 )
N240 T2
N250 M6
N260 ( OPERATION #1 )
N270 G0 G53 Z0
N280 G0 G53 X-609 Y0
N290 T3
N300 M8
N310 M88
N320 M3 S3000
N330 G0 B0 C0
N340 G255
N350 G0 X-34.5 Y2.498
N360 G43 H2 D2 Z6
N370 G1 G94 Z0 F720
N380 X67.5
N390 Y-27.5
N400 X-12.5
N410 Y-57.498
N420 X89.5
N430 G0 Z5
N440 M89
N450 M5
N460 G0 G53 Z0
N470 G255
N480 M1
N490  
N500 ( T3. 8 Fraise 2 tailles droite )
N510 T3
N520 M6
N530 ( OPERATION #2 )
N540 G0 G53 Z0
N550 G0 G53 X-609 Y0
N560 T5
N570 M8
N580 M3 S3581
N590 G0 B0 C0
N600 G255
N610 G0 X-12 Y-38.814
N620 G43 H3 D3 Z5.1
N630 Z5
N640 G1 Z-8 F250
N650 G41 X-6.343 Y-33.157 F355
N660 G3 X-4 Y-27.5 R8
N670 G1 Y4
N680 X59
N690 Y-59
N700 X-4
N710 Y-27.5
N720 G3 X-6.343 Y-21.843 R8
N730 G1 G40 X-12 Y-16.186
N740 G0 Z5.1
N750 ( OPERATION #3 )
N760 X9.5 Y-7.5
N770 G0 G43 H3 Z5
N780 G81 X9.5 Y-7.5 Z-3.5 R5 F355
N790 X9.5 Y-47.5 R5
N800 X45.5 Y-7.5 R5
N810 X45.5 Y-47.5 R5
N820 G80
N830 G0 Z5
N840 M9
N850 M5
N860 G0 G53 Z0
N870 G255
N880 M1
N890  
N900 ( T5. 4 Fraise 2 tailles droite )
N910 T5
N920 M6
N930 ( OPERATION #4 )
N940 G0 G53 Z0
N950 G0 G53 X-609 Y0
N960 T12
N970 M8
N980 M3 S7162
N990 G0 B0 C0
N1000 G255
N1010 G0 X9.479 Y-48.024
N1020 G43 H5 D5 Z5
N1030 G1 Z-1.167 F250
N1040 G41 Y-44.024 F500
N1050 Y-10.976
N1060 G40 Y-6.976
N1070 G0 Z5
N1080 Y-48.024
N1090 G1 Z-2.333 F250
N1100 G41 Y-44.024 F500
N1110 Y-10.976
N1120 G40 Y-6.976
N1130 G0 Z5
N1140 Y-48.024
N1150 G1 Z-3.5 F250
N1160 G41 Y-44.024 F500
N1170 Y-10.976
N1180 G40 Y-6.976
N1190 G0 Z5
N1200 X45.479 Y-48.024
N1210 G1 Z-1.167 F250
N1220 G41 Y-44.024 F500
N1230 Y-10.976
N1240 G40 Y-6.976
N1250 G0 Z5
N1260 Y-48.024
N1270 G1 Z-2.333 F250
N1280 G41 Y-44.024 F500
N1290 Y-10.976
N1300 G40 Y-6.976
N1310 G0 Z5
N1320 Y-48.024
N1330 G1 Z-3.5 F250
N1340 G41 Y-44.024 F500
N1350 Y-10.976
N1360 G40 Y-6.976
N1370 G0 Z5
N1380 M9
N1390 M5
N1400 G0 G53 Z0
N1410 G255
N1420 M1
N1430  
N1440 ( T12. 8 Fraise Queue d'aronde )
N1450 T12
N1460 M6
N1470 ( OPERATION #5 )
N1480 G0 G53 Z0
N1490 G0 G53 X-609 Y0
N1500 T13
N1510 M8
N1520 M3 S4775
N1530 G0 B0 C0
N1540 G255
N1550 G0 X9.5 Y-47.5
N1560 G43 H12 D12 Z5.1
N1570 Z5
N1580 G1 Z-3.5 F2000
N1590 Y-7.5 F1528
N1600 G0 Z5.1
N1610 X45.5 Y-47.5
N1620 Z5
N1630 G1 Z-3.5 F2000
N1640 Y-7.5 F1528
N1650 G0 Z5.1
N1660 M9
N1670 M5
N1680 G0 G53 Z0
N1690 G255
N1700 M1
N1710  
N1720 ( T13. 10 Fraise à chanfreiner )
N1730 T13
N1740 M6
N1750 ( OPERATION #6 )
N1760 G0 G53 Z0
N1770 G0 G53 X-609 Y0
N1780 T13
N1790 M8
N1800 M3 S3000
N1810 G0 B0 C0
N1820 G255
N1830 G0 X9.729 Y-44.024
N1840 G43 H13 D13 Z5.1
N1850 Z5
N1860 G1 Z-1 F1200
N1870 G41 Y-10.976
N1880 G2 X10.613 Y-9.455 R1.75
N1890 G3 X11.75 Y-7.5 R2.25
N1900 X9.5 Y-5.25 R2.25
N1910 X7.25 Y-7.5 R2.25
N1920 X8.387 Y-9.455 R2.25
N1930 G2 X9.271 Y-10.976 R1.75
N1940 G1 Y-44.024
N1950 G2 X8.387 Y-45.545 R1.75
N1960 G3 X7.25 Y-47.5 R2.25
N1970 X9.5 Y-49.75 R2.25
N1980 X11.75 Y-47.5 R2.25
N1990 X10.613 Y-45.545 R2.25
N2000 G2 X9.729 Y-44.024 R1.75
N2010 G0 Z5
N2020 X45.729
N2030 G1 Z-1 F1200
N2040 G41 Y-10.976
N2050 G2 X46.613 Y-9.455 R1.75
N2060 G3 X47.75 Y-7.5 R2.25
N2070 X45.5 Y-5.25 R2.25
N2080 X43.25 Y-7.5 R2.25
N2090 X44.387 Y-9.455 R2.25
N2100 G2 X45.271 Y-10.976 R1.75
N2110 G1 Y-44.024
N2120 G2 X44.387 Y-45.545 R1.75
N2130 G3 X43.25 Y-47.5 R2.25
N2140 X45.5 Y-49.75 R2.25
N2150 X47.75 Y-47.5 R2.25
N2160 X46.613 Y-45.545 R2.25
N2170 G2 X45.729 Y-44.024 R1.75
N2180 G0 Z5
N2190 ( OPERATION #7 )
N2200 X-9.434 Y-39.344
N2210 G1 Z-1.5 F1200
N2220 G41 X-5.545 Y-35.455
N2230 G3 X-2.25 Y-27.5 R11.25
N2240 G1 Y0
N2250 G2 X0 Y2.25 R2.25
N2260 G1 X55
N2270 G2 X57.25 Y0 R2.25
N2280 G1 Y-55
N2290 G2 X55 Y-57.25 R2.25
N2300 G1 X0
N2310 G2 X-2.25 Y-55 R2.25
N2320 G1 Y-27.5
N2330 G3 X-5.545 Y-19.545 R11.25
N2340 G1 G40 X-12.616 Y-12.474
N2350 G0 Z5
N2360 M9
N2370 G0 G53 Z0
N2380 G0 G53 X-609 Y0
N2390 G255
N2400 G0 B0 C0
N2410 M33
N2420 M30
%
